P3
100 200
4095
303 191 93
224 133 53
179 95 25
211 123 61
209 129 60
301 200 77
309 178 53
697 445 241
343 159 43
346 155 46
437 251 123
931 638 319
945 665 338
529 326 155
339 201 98
319 159 55
197 92 28
238 130 54
485 363 262
219 144 77
848 753 769
1669 1545 1545
226 148 73
303 236 154
208 139 74
221 175 141
730 668 628
1211 1175 1158
363 323 310
659 592 572
683 656 568
1159 1217 1151
1274 1479 1692
1594 1878 2257
1335 1653 2124
1547 1862 2416
1749 2040 2608
2161 2485 3080
791 1001 1346
941 1085 1325
643 787 969
975 1236 1655
1942 2558 3458
2397 3207 4095
2336 3094 4095
2245 3014 4029
2154 2944 3915
1762 2504 3407
1542 2264 3198
1570 2334 3283
1304 2047 2995
1864 2679 3698
1893 2766 3814
1866 2756 3818
1895 2801 3849
1868 2789 3848
1786 2693 3765
1840 2748 3792
1786 2679 3708
1840 2775 3819
1813 2748 3792
1840 2748 3847
1813 2748 3792
1813 2748 3792
1813 2679 3708
1813 2679 3735
1813 2707 3735
1840 2720 3737
1869 2720 3709
1924 2789 3821
2036 2760 3682
2621 2454 2649
3065 1692 719
3737 1979 529
3541 1813 390
3173 1539 261
2815 1313 270
3041 1429 340
3927 1978 390
4095 2688 918
2318 1078 428
1094 196 59
1529 447 128
1649 521 116
1512 440 79
1880 631 129
4095 2678 943
4095 2510 1034
2653 1042 505
1725 399 149
1725 433 155
2599 1030 430
2671 1031 288
4095 2196 799
3363 1625 599
1276 520 145
810 288 128
1501 813 457
3083 2125 1406
2039 1265 866
172 95 26
271 163 61
269 169 65
207 109 40
227 131 44
400 288 166
474 313 137
594 352 160
365 186 71
399 194 85
432 233 77
765 497 223
564 333 117
280 131 34
378 256 168
311 183 74
379 267 169
677 560 433
167 112 52
164 131 72
392 365 329
589 521 446
227 167 83
300 241 160
325 267 196
421 355 299
265 226 187
659 602 531
1002 935 817
1622 1530 1497
1686 1710 1728
3321 3433 3623
3008 3303 3783
2290 2566 3032
1516 1769 2257
1820 2050 2559
1685 1911 2413
1723 2018 2476
954 1127 1443
748 833 1023
941 1065 1298
1373 1594 2023
2106 2656 3532
2591 3215 4095
2260 2836 3693
2018 2580 3399
1665 2182 2956
1291 1813 2596
1762 2330 3160
1533 2063 2817
1299 1813 2571
1239 1772 2479
1740 2447 3381
1923 2813 3933
1894 2871 3933
1924 2858 3933
1840 2760 3848
1813 2748 3765
1813 2707 3762
1786 2679 3762
1813 2748 3792
1840 2775 3847
1813 2679 3708
1813 2707 3762
1869 2775 3847
1813 2707 3762
1813 2679 3735
1869 2748 3765
1896 2748 3792
1952 2789 3821
1979 2705 3625
2885 2785 3071
3065 1652 773
3252 1533 333
3370 1638 392
2999 1306 306
4095 2307 607
4095 2432 537
4095 2691 730
3726 1911 488
1868 650 162
1638 541 128
1617 527 114
1479 440 79
1676 508 143
4095 2364 703
3712 1952 661
1711 542 220
1223 258 92
1439 479 213
1271 343 133
1356 387 135
2842 1341 537
3724 1804 639
2694 1120 334
1177 481 237
2499 1961 1931
2851 2602 2836
2530 2350 2619
2776 2686 2989
183 111 30
418 310 146
560 409 206
189 97 26
401 299 173
363 230 107
163 85 23
263 155 63
224 122 41
332 181 78
230 113 33
364 216 89
253 134 41
207 125 73
250 159 103
246 156 84
199 140 80
357 282 215
140 103 61
469 441 449
415 398 445
223 182 122
276 227 143
390 338 255
367 306 221
795 718 655
181 145 122
392 352 270
634 570 448
1231 1255 1263
1770 1855 1965
1974 2043 2246
1487 1655 1967
1236 1396 1737
1652 1831 2252
1587 1749 2106
1410 1512 1816
1085 1173 1447
764 819 1008
858 934 1133
983 1081 1318
927 1028 1332
1807 2103 2805
2268 2722 3612
2041 2431 3273
971 1273 2021
1173 1519 2212
1860 2274 3041
1791 2198 2882
1414 1772 2308
950 1251 1626
643 953 1332
1168 1745 2506
1950 2882 3960
1867 2801 3877
1952 2886 3990
1868 2789 3848
1813 2720 3765
1869 2775 3819
1813 2707 3762
1813 2707 3790
1813 2734 3817
1840 2775 3874
1786 2679 3762
1813 2707 3735
1786 2679 3682
1786 2652 3682
1869 2720 3792
1896 2748 3765
1924 2789 3848
2036 2760 3737
2830 2773 3085
2670 1348 673
3600 1651 487
3413 1386 266
3370 1353 270
4075 1919 591
4095 2064 546
4095 2179 568
3353 1691 568
1237 387 116
1144 308 61
1263 313 62
1193 221 85
4095 2056 644
4095 2737 948
1724 529 178
1559 433 86
1341 343 63
1239 362 82
1144 301 68
1113 277 78
1213 369 162
3110 1516 679
2354 1119 488
2350 1811 1706
2432 2731 3505
2322 2914 3927
2230 2845 3783
2291 2852 3779
223 155 81
164 91 30
200 114 38
183 106 44
171 97 48
162 95 46
148 85 40
276 197 138
599 496 447
584 484 438
321 225 127
310 204 94
220 137 55
331 244 148
241 170 106
211 145 88
172 122 76
128 88 44
137 100 68
205 175 161
200 197 247
197 170 142
240 202 137
124 83 41
203 159 110
504 463 383
1430 1430 1236
871 847 735
2441 2345 2289
2093 2075 2228
1311 1343 1608
676 672 766
933 933 1112
1723 1755 2100
1793 1843 2325
1236 1214 1487
906 863 1082
623 594 768
926 891 1089
838 810 1023
846 838 1055
846 872 1153
934 1113 1545
1578 1896 2595
2397 2786 3580
1984 2338 3168
1586 1936 2649
1900 2260 3009
1732 2038 2606
886 1088 1359
975 1213 1626
1128 1496 1995
1712 2334 3212
1980 2853 3931
1923 2871 3933
1895 2830 3905
1868 2789 3821
1813 2748 3792
1813 2720 3792
1840 2775 3847
1759 2652 3708
1786 2679 3762
1813 2707 3735
1813 2693 3765
1786 2652 3682
1813 2707 3735
1841 2734 3790
1869 2802 3819
1896 2775 3792
1952 2844 3905
1979 2760 3682
2459 2418 2693
2581 1449 788
4095 2094 906
4095 1894 660
4095 1751 488
4095 1747 407
2940 1126 371
4095 2431 768
1433 486 215
857 242 67
872 229 57
1016 199 46
1733 412 186
4095 3395 1381
2288 915 295
1531 407 90
1491 342 84
1606 466 100
1219 356 69
1125 301 61
1089 277 66
1112 291 142
1966 836 376
1896 975 714
2624 2900 3450
2321 2952 3994
2183 2891 3938
2185 2883 3885
2230 2844 3772
148 93 37
202 132 65
170 100 45
153 91 40
140 78 35
135 71 28
136 75 34
233 161 103
1376 1255 1175
1051 907 846
358 243 131
475 380 228
318 225 106
262 198 114
287 208 126
167 113 57
158 113 74
132 111 77
189 162 135
107 90 73
311 286 274
334 302 261
160 130 88
428 383 345
628 567 516
659 619 547
1735 1660 1594
764 700 607
558 505 474
1556 1548 1744
1344 1376 1644
2212 2229 2497
687 650 798
947 839 1034
1122 1025 1234
1078 929 1092
868 721 857
659 536 664
737 639 767
774 693 825
604 574 712
1120 1143 1412
1705 1847 2257
1472 1715 2185
2525 2807 3455
1814 2075 2614
1089 1292 1718
1080 1293 1746
1264 1497 1937
824 1002 1353
1173 1439 1879
966 1284 1754
1963 2628 3470
2037 2953 4016
1950 2912 3989
1895 2858 3933
1840 2760 3848
1813 2748 3765
1840 2748 3792
1840 2748 3792
1869 2802 3847
1840 2748 3792
1813 2707 3762
1813 2707 3735
1813 2707 3735
1869 2748 3819
1813 2707 3735
1840 2748 3765
1896 2802 3819
1896 2748 3765
1952 2733 3682
2398 2607 3138
3287 2670 2670
3627 1896 1264
3929 1539 550
4095 1641 481
4095 1717 436
4095 1916 448
4095 2151 654
1169 368 163
777 223 54
806 231 56
925 186 62
3045 1153 384
4095 2510 1011
1634 426 167
2060 550 110
2426 718 158
1950 550 178
1155 296 72
1119 302 66
1064 279 59
1483 531 255
1686 686 306
2488 1623 1668
2575 3013 3952
2275 2930 4021
2215 2921 4029
2185 2874 3921
2198 2751 3654
129 85 37
127 80 30
121 74 27
119 72 29
123 71 25
149 86 36
136 75 26
156 87 38
148 84 40
173 101 48
186 118 44
410 311 187
181 116 36
213 153 92
350 289 239
348 285 236
593 557 534
840 829 929
2425 2379 2469
811 825 965
1024 1024 1034
965 938 902
158 139 122
902 854 818
1231 1176 1058
534 468 332
568 528 450
460 389 281
232 177 116
334 314 348
2111 2093 2310
2072 2028 2239
737 616 656
865 631 669
1340 1090 1184
1348 1068 1122
874 602 676
654 422 438
761 574 612
581 473 566
538 494 619
1730 1755 2018
1234 1347 1692
1149 1288 1652
2653 2911 3445
2095 2286 2703
1745 1943 2322
2099 2305 2747
1188 1366 1724
1324 1562 1993
1050 1312 1758
563 844 1298
1805 2446 3276
2008 2894 3957
2009 2941 4018
1952 2900 3962
1924 2830 3933
1897 2789 3876
1868 2817 3876
1813 2720 3792
1869 2775 3847
1869 2775 3847
1840 2748 3792
1869 2775 3819
1813 2707 3735
1786 2707 3708
1869 2748 3819
1841 2707 3735
1869 2748 3765
1869 2720 3737
1952 2733 3737
2147 2733 3598
2646 2688 3283
4095 2784 2724
3843 1461 703
4039 1401 357
3737 1291 247
4095 2275 623
3772 1811 538
2113 813 210
2598 1220 359
902 265 51
864 168 108
4085 2018 1000
2994 1167 494
1599 308 147
3584 1309 561
4095 2335 906
4095 1871 715
1439 313 111
1252 308 72
1124 279 65
1261 387 190
1563 626 271
3094 2274 2352
2511 2975 3934
2276 2921 3998
2185 2844 3862
2156 2805 3809
2359 2796 3611
117 79 32
102 67 23
101 62 23
102 63 20
104 61 23
200 129 72
196 127 67
152 83 32
148 85 34
179 110 45
316 213 105
381 276 147
497 424 333
427 359 290
466 407 367
206 178 178
876 872 972
937 947 1021
988 1064 1297
2695 2783 3173
1898 1898 2019
267 230 211
183 147 113
688 648 636
1185 1142 1123
649 580 469
609 568 531
537 485 425
1666 1552 1357
450 362 287
249 190 202
1408 1271 1344
1583 1320 1271
1078 782 709
954 636 587
1108 778 725
912 594 537
812 500 389
715 472 413
1115 993 1085
653 612 739
1309 1285 1496
578 604 765
798 859 1028
1377 1459 1692
913 992 1173
885 984 1227
2004 2179 2605
695 804 1089
490 626 947
1742 2052 2568
1346 1703 2239
1360 1896 2638
1919 2775 3839
2037 2982 4046
1981 2842 3905
1981 2900 3962
1868 2789 3793
1897 2789 3848
1897 2817 3876
1897 2789 3848
1840 2775 3792
1840 2775 3819
1840 2748 3792
1841 2734 3762
1840 2775 3819
1841 2707 3735
1896 2775 3819
1896 2775 3819
1896 2748 3737
1952 2760 3709
2091 2678 3570
2702 2717 3311
3960 2475 2446
3543 1286 551
4095 1641 453
4095 1528 311
4095 2005 479
4095 2306 561
4095 2656 810
2496 1073 349
1035 249 111
1739 425 200
2496 906 446
2178 603 301
2815 848 495
3588 1078 442
4095 1870 656
4095 2382 1021
2955 859 495
2563 961 538
1192 281 87
1667 606 232
1799 786 386
2851 2181 2291
2478 2889 3884
2338 2921 3938
2276 2844 3862
2406 2790 3720
2756 2469 2827
108 68 23
109 68 26
96 62 20
101 62 23
91 52 16
156 94 41
176 111 53
139 87 31
176 107 43
227 160 109
853 736 648
160 94 47
324 260 205
285 218 169
346 293 254
1219 1169 1122
2280 2258 2347
559 533 592
315 364 486
378 460 650
1200 1200 1254
1423 1311 1235
940 842 765
642 600 576
602 572 629
231 210 203
764 732 721
899 868 813
2590 2532 2454
1654 1567 1533
487 394 387
1843 1618 1610
1262 974 873
1253 884 715
869 526 363
798 466 371
857 523 397
878 540 373
682 433 357
1436 1278 1411
1224 1144 1302
1047 1003 1145
610 598 720
948 976 1139
1453 1492 1676
1529 1576 1792
1714 1792 2120
1108 1227 1547
440 512 700
676 855 1187
1250 1539 2019
1119 1466 1946
1435 1952 2691
2185 3004 4006
2095 2994 4012
2067 2953 3957
2009 2853 3902
1365 2060 2769
1744 2569 3421
1952 2858 3820
1759 2610 3599
1610 2436 3384
1868 2760 3821
1869 2775 3819
1840 2720 3792
1759 2652 3682
1813 2707 3735
1786 2679 3682
1869 2775 3765
1896 2775 3765
1979 2789 3793
2147 2760 3653
2956 2713 3057
3176 1417 997
4095 1539 577
4095 1754 537
4095 1723 459
4095 1946 538
4095 1946 599
4095 1796 419
3287 1306 416
2531 893 338
3410 1594 885
2886 1101 599
3830 1829 1307
4095 2526 1969
3220 906 404
4095 1705 821
4095 1642 789
4095 1976 1328
4095 3389 2925
3411 1769 1405
2016 825 419
1487 648 336
970 578 578
2215 2473 3172
2429 2921 3814
2395 2769 3637
2440 2267 2986
1581 963 868
109 73 22
109 69 24
104 68 23
94 58 16
105 66 20
121 72 15
190 127 46
324 238 109
227 150 59
163 107 50
258 189 124
125 72 32
131 81 43
160 105 63
449 400 361
1069 1009 944
367 333 339
467 459 441
998 1003 990
1519 1578 1636
858 885 936
716 664 602
1408 1297 1250
789 741 696
1477 1430 1430
796 750 738
1282 1205 1180
887 814 799
1071 1063 1087
2506 2428 2506
1984 1849 1804
1596 1362 1277
1254 950 810
1168 774 599
954 574 394
863 541 445
1061 728 659
662 368 271
604 362 314
897 759 863
1271 1199 1376
828 782 908
897 861 947
891 891 983
1575 1599 1823
1765 1822 2056
2001 2100 2476
762 846 1123
520 596 783
1199 1394 1813
1706 2066 2650
1943 2382 3035
2275 2899 3756
2198 2937 3891
2215 2974 3975
2215 2994 3952
1754 2490 3367
1434 2124 2909
2097 2912 3873
2067 2900 3875
1813 2678 3598
1253 2002 2739
1705 2599 3545
1869 2775 3847
1869 2775 3819
1841 2707 3735
1869 2775 3819
1896 2802 3819
1869 2748 3765
1869 2775 3792
1952 2789 3821
2063 2733 3598
3129 2741 2971
3762 1596 975
4095 1645 585
4095 1839 566
4095 1780 516
4095 1660 466
4095 1435 401
4095 1543 436
4016 1742 560
2720 1150 447
3428 2005 1631
2856 1751 1521
3568 2509 2540
3710 2762 2984
3713 1811 1511
4046 1358 767
4095 2235 1522
4095 2656 2085
4095 2624 2092
3888 2316 1701
2026 866 440
1002 316 94
573 226 125
1921 2009 2402
2491 2906 3768
2530 2769 3473
1837 1417 1719
1688 723 355
245 194 99
168 117 59
122 79 24
160 124 68
114 73 23
181 136 64
219 153 43
326 251 104
263 178 60
147 88 35
123 73 24
101 54 15
126 78 39
215 165 126
589 538 487
694 648 601
378 345 322
1215 1146 1077
485 453 410
516 488 442
242 213 184
1190 1125 1153
818 751 705
892 814 743
679 599 516
247 195 149
518 467 449
670 606 614
413 362 350
1222 1117 1126
1556 1386 1302
899 680 600
815 533 418
881 562 438
1055 720 554
730 426 348
1001 675 614
550 292 218
766 509 460
1001 812 842
1090 981 1059
1107 1000 1069
877 788 757
822 763 770
744 744 920
831 872 1154
1105 1155 1370
920 1023 1298
1052 1199 1519
1706 1952 2445
2757 3161 3867
2559 3068 3839
2321 2889 3710
1339 1882 2621
2153 2798 3737
2368 3045 4061
1765 2382 3301
1252 1813 2652
1754 2405 3283
2038 2796 3756
1825 2646 3565
1785 2649 3598
1868 2760 3848
1924 2817 3932
1924 2844 3905
1869 2775 3792
1896 2830 3874
1869 2775 3819
1840 2748 3765
1869 2748 3819
1979 2817 3848
2147 2733 3570
2326 1614 1512
3705 1546 773
4095 1566 550
4095 1590 502
4095 1613 509
3984 1209 357
3294 800 220
3655 1154 384
3579 1472 566
2288 889 432
3338 2691 2984
2440 2574 3098
2610 2761 3414
2738 2876 3584
4095 2653 2715
3560 1334 947
4095 2429 1815
3632 1432 753
4095 1901 998
3071 1248 488
2287 960 352
1651 650 187
1131 534 321
2533 2443 2852
2599 2876 3722
3035 2914 3308
3413 2635 2379
3868 2510 1594
162 114 42
91 51 7
101 66 17
186 139 75
108 67 29
201 153 91
488 417 324
278 196 102
272 191 99
166 102 44
124 69 24
129 74 27
138 91 52
308 259 257
2282 2220 2295
570 506 499
187 148 130
212 163 131
400 339 286
506 428 354
315 246 189
1181 1088 1070
731 635 503
599 512 366
430 336 186
316 237 151
792 702 671
1237 1129 1129
1262 1162 1162
955 823 697
966 745 539
910 677 597
769 497 436
652 393 311
937 631 528
806 506 406
1031 705 637
616 346 287
1498 1183 1131
1550 1282 1282
1175 971 978
2034 1843 1861
1108 963 948
1004 923 929
569 527 641
610 598 739
1130 1136 1329
1749 1911 2284
1886 2198 2706
1902 2175 2687
2030 2383 2975
2158 2559 3166
1623 1978 2554
1826 2230 2904
2003 2458 3187
1860 2318 3012
2200 2655 3429
1443 1854 2596
1306 1733 2412
1880 2469 3330
1811 2575 3480
1952 2871 3875
1952 2858 3905
1924 2844 3905
1924 2817 3932
1786 2707 3708
1896 2802 3874
1869 2748 3792
1869 2775 3819
1896 2775 3819
1952 2789 3793
1813 2253 2773
2224 1678 1360
3332 1652 973
3153 1132 381
3759 1306 533
3759 1173 453
3333 827 310
3384 749 232
3333 904 361
2576 875 350
3366 2185 2111
2499 2769 3488
2320 2889 3817
2260 2858 3757
2533 2837 3611
3943 2680 2899
2677 984 669
3059 1015 473
3445 1248 444
3450 1353 422
2942 1116 320
2152 879 262
1751 750 287
1837 1063 813
2921 2857 3458
2861 2861 3461
3429 2655 2124
3839 2450 1181
4095 2822 1061
133 90 23
144 99 40
105 66 15
107 71 21
113 71 26
239 167 94
409 331 241
137 89 32
137 83 30
134 77 29
172 98 44
206 125 66
131 75 44
348 318 358
1361 1343 1504
142 99 72
414 349 292
513 431 355
507 394 314
602 481 364
274 190 130
741 628 558
594 441 343
368 243 128
578 477 409
1183 1071 1047
1335 1205 1282
1614 1489 1543
1456 1343 1395
1801 1650 1614
888 683 655
974 730 701
1076 807 830
947 666 688
1031 712 644
717 425 330
763 474 425
1059 740 677
1030 738 707
1008 750 720
1191 923 907
1521 1286 1277
1114 976 976
1231 1097 1144
679 583 653
685 590 662
1212 1145 1295
2170 2290 2790
2569 2836 3711
2662 2892 3632
1437 1616 2095
1447 1580 2023
1102 1245 1562
1400 1556 1981
994 1110 1485
1020 1163 1537
1239 1386 1772
975 1113 1457
1119 1284 1653
1768 2193 2872
1754 2433 3353
2009 2912 3960
1952 2858 3933
1952 2858 3962
1868 2817 3848
1896 2802 3847
1840 2775 3765
1841 2734 3762
1869 2748 3792
1869 2775 3819
1869 2720 3709
1950 2596 3408
2426 2719 3207
2787 2547 2745
2829 1854 1638
3462 1827 1553
3573 1353 1163
2819 641 326
3436 878 439
3089 915 482
2786 1439 1293
2978 2799 3398
2244 2835 3780
2214 2894 3868
2185 2805 3780
2604 2784 3547
3203 2038 2169
2539 701 375
3167 1042 419
3256 1126 384
3081 1116 349
2493 879 275
1670 581 206
1207 426 165
2300 1435 1366
2945 2851 3616
2687 2332 2481
2872 1785 738
4095 2671 728
4095 2822 637
150 102 41
148 97 34
98 65 14
95 65 15
119 78 29
309 237 158
752 615 443
123 73 21
129 74 26
153 96 47
192 118 62
166 98 48
119 66 28
112 64 46
103 58 35
126 74 35
239 173 97
369 291 201
576 478 383
534 428 376
354 263 227
1320 1175 1050
429 302 253
406 295 222
501 374 298
971 810 778
1244 1034 949
964 780 691
976 818 807
1834 1706 1815
1507 1395 1586
1353 1120 1171
847 570 530
820 523 470
1239 874 817
745 436 381
939 624 647
911 605 575
843 559 520
1137 852 821
1076 799 784
839 614 620
941 756 782
1099 930 976
801 638 697
898 753 799
1026 847 954
1084 982 1143
1893 1860 2358
1935 1935 2510
1116 1087 1366
885 833 1040
1805 1760 2048
1429 1400 1655
869 857 1063
1076 1069 1292
1599 1599 1867
1723 1737 2009
1995 2111 2431
1333 1572 1972
1590 2189 2956
1980 2853 3873
2009 2941 4047
1868 2789 3848
1869 2775 3792
1840 2748 3792
1896 2802 3847
1840 2748 3765
1813 2707 3735
1869 2748 3792
1869 2775 3819
1952 2789 3764
1979 2789 3793
2036 2733 3682
2193 2702 3452
2469 2756 3474
4036 2883 3368
2670 800 627
2719 836 504
2999 1519 1452
2912 2635 3246
2330 2796 3756
2124 2727 3703
2183 2853 3814
2213 2824 3728
2889 2709 3308
2139 1001 950
2682 788 393
3078 960 386
2556 750 266
2264 725 262
2042 689 332
2270 931 761
1701 850 938
2891 2552 3291
2783 2630 3368
1180 753 794
2747 1488 595
4046 2244 442
4095 2363 384
130 88 26
96 59 10
97 64 13
83 59 13
98 65 17
111 71 23
174 113 45
167 108 46
118 73 35
131 78 36
127 73 25
152 91 44
133 78 35
124 69 34
119 63 24
231 156 81
255 166 69
240 150 60
224 157 79
612 502 412
602 465 384
577 411 357
940 718 638
727 503 418
714 509 471
579 368 257
1295 919 581
1271 926 788
986 735 720
2201 1925 2069
1786 1551 1650
1888 1578 1596
827 516 428
679 383 282
1083 740 670
1022 700 638
1083 716 818
1090 716 685
1008 667 576
870 582 541
1329 1016 975
1168 900 860
1231 984 984
862 694 753
856 661 664
804 561 534
1084 793 720
872 622 548
1179 946 1033
1477 1283 1568
1800 1594 1840
1241 1024 1116
1247 1073 1136
2021 1895 2004
1602 1491 1617
978 871 934
1219 1106 1199
1143 1034 1059
990 971 990
736 882 1029
1693 2325 3129
1765 2626 3617
1952 2871 3875
1924 2858 3933
1897 2789 3848
1924 2844 3905
1840 2748 3792
1813 2707 3735
1840 2775 3819
1813 2679 3708
1840 2720 3819
1869 2748 3792
1813 2720 3709
1897 2760 3821
1952 2830 3820
2067 2871 3875
2646 2490 3041
1803 781 769
2599 1785 1879
2839 2722 3334
2210 2785 3703
2124 2785 3760
2124 2785 3760
2096 2813 3790
2242 2853 3756
2384 2022 2287
2189 642 440
2873 788 381
2797 788 356
2945 999 706
2815 1613 1585
3157 2443 2610
2136 1754 2038
2392 2274 2997
2727 2868 3756
1882 1676 1869
812 344 158
3268 1726 523
3902 2009 349
4095 2185 354
181 127 49
186 142 68
125 83 26
110 75 20
116 71 18
175 120 54
235 159 76
124 72 18
102 57 20
103 57 18
100 52 15
206 151 113
119 65 30
116 64 27
117 58 17
269 187 105
354 225 104
242 145 65
169 95 40
490 389 320
888 748 645
646 436 350
854 554 444
445 209 152
1445 1052 1025
2142 1646 1519
1550 1050 731
1076 629 409
952 583 479
1550 1162 1162
1199 831 759
1114 748 654
971 644 554
1051 716 646
1044 701 639
693 408 343
909 587 561
636 356 300
844 535 466
1104 789 734
1247 915 858
799 512 424
960 664 539
1099 807 730
572 323 246
753 466 373
1092 782 693
866 548 426
788 487 400
1038 752 795
1652 1355 1512
1106 824 865
1361 1114 1157
1427 1259 1302
1315 1139 1230
1646 1468 1542
898 701 707
868 695 606
1061 1061 1150
1115 1338 1719
2109 2746 3596
2066 2963 3982
2037 2953 4075
1952 2871 3933
1952 2886 3933
1952 2844 3932
1869 2775 3819
1869 2748 3819
1840 2748 3792
1786 2707 3735
1786 2679 3708
1813 2720 3765
1869 2775 3819
1868 2789 3821
1897 2760 3821
1952 2830 3820
1786 2301 2896
2003 2314 2909
2207 2801 3623
1979 2733 3653
1981 2801 3736
2038 2801 3764
2038 2773 3736
2009 2745 3707
2183 2882 3785
2349 1979 2239
2271 606 428
2620 676 381
2347 641 362
3351 2081 2303
2792 2776 3505
2655 2807 3626
1400 1585 2253
2580 2898 3764
2845 2968 3614
1367 992 865
1795 785 356
3424 1782 410
3875 1894 315
3990 1894 315
275 202 114
142 92 25
109 70 18
122 77 23
118 77 18
124 78 23
115 67 15
104 62 16
160 106 56
139 85 40
118 73 29
447 390 326
116 60 18
145 87 31
196 118 50
176 100 41
295 206 133
373 258 188
342 244 163
255 167 111
233 130 84
744 506 393
653 372 258
853 506 369
1187 739 581
1595 1023 785
779 347 199
924 473 276
929 509 372
737 368 270
1069 661 545
1446 1021 927
1295 913 830
1336 961 944
1103 751 663
763 463 369
1790 1374 1254
819 498 410
1044 701 631
971 652 622
683 389 307
827 498 349
1153 786 561
1523 1140 970
1208 845 750
1041 672 560
968 623 530
1458 1060 971
1159 790 716
1242 906 906
1496 1153 1153
1094 774 725
1196 948 948
1057 865 907
1192 1004 1122
1294 1139 1259
830 683 738
1153 1039 1086
906 919 1107
1394 1673 2120
1871 2469 3278
1916 2755 3742
2125 3024 4095
2009 2912 4018
1952 2900 3962
1952 2858 3933
1924 2844 3848
1813 2748 3765
1869 2748 3792
1840 2775 3765
1813 2707 3735
1813 2679 3708
1840 2748 3765
1869 2775 3819
1868 2789 3848
1897 2789 3876
1869 2693 3709
1924 2789 3821
1924 2817 3876
1868 2733 3737
1952 2817 3821
1897 2733 3709
1981 2801 3820
1981 2801 3820
2124 2871 3847
2349 2074 2390
1838 553 451
1941 528 344
2033 810 629
2701 2613 3159
2395 2874 3833
2245 2799 3772
1659 2091 3026
2428 2914 3869
2373 2533 3043
1498 892 612
2720 1543 487
3215 1580 330
3651 1669 282
3679 1613 254
222 168 95
153 108 40
107 64 8
164 117 44
193 135 54
157 104 36
101 56 11
159 106 61
509 408 315
234 151 77
138 84 35
172 104 44
130 71 21
204 129 56
250 158 75
156 82 24
139 63 28
758 624 551
945 797 723
1061 920 837
882 677 548
673 391 230
553 264 133
907 525 351
1033 559 331
1920 1181 710
1472 842 536
848 368 194
744 315 175
629 245 94
900 473 291
1000 592 461
1579 1155 1073
1099 746 730
1178 814 705
830 497 376
1033 663 521
1196 814 681
1378 999 844
749 428 329
680 375 287
865 538 444
1247 874 778
937 597 479
1336 943 795
1009 628 433
881 509 382
1408 988 899
1519 1138 1087
1397 1042 1137
1304 963 940
1351 1031 963
892 630 570
1274 1063 1157
2008 1847 2049
1753 1600 1784
801 694 819
1290 1220 1359
1654 1712 1992
2120 2462 3054
2368 2984 3868
2064 2776 3779
1864 2577 3611
2037 2864 3927
2038 2970 4047
1924 2858 3905
1897 2789 3876
1897 2817 3905
1840 2748 3819
1841 2734 3762
1840 2775 3792
1786 2707 3682
1869 2775 3847
1896 2830 3847
1869 2775 3792
1869 2775 3792
1897 2844 3876
1868 2789 3848
1924 2844 3905
1868 2789 3821
1869 2720 3737
1924 2817 3821
1952 2817 3821
1952 2830 3905
2124 2928 3933
2003 2057 2476
1636 865 958
2635 2134 2426
2377 2419 2943
2169 2796 3712
2213 2882 3844
2154 2853 3844
2067 2766 3785
2244 2864 3780
1344 1563 2093
2192 1786 1461
2733 1676 741
3220 1603 390
3402 1506 306
3283 1319 205
117 73 16
118 73 13
103 59 5
215 162 66
172 118 30
130 78 22
96 55 15
126 78 32
138 85 33
118 66 14
141 83 27
185 118 53
141 76 17
171 99 37
161 84 27
131 60 18
176 99 44
379 273 193
473 353 308
811 659 568
1343 1032 856
752 409 249
614 308 172
627 292 142
607 216 108
885 387 240
1668 962 642
932 356 152
1191 575 360
1016 439 227
911 410 206
819 424 246
955 568 454
1679 1235 1121
1367 951 802
954 552 369
1106 721 565
774 444 302
700 373 230
914 572 461
1085 744 744
1395 1045 1072
1578 1177 1177
763 434 321
884 516 268
848 463 211
995 614 411
1017 628 441
753 409 266
819 480 371
1246 884 784
975 662 621
1196 915 923
2307 2135 2273
1681 1570 1705
1167 1082 1202
779 691 765
1365 1301 1450
1891 1952 2245
2460 2904 3576
2445 2981 3791
1223 1676 2266
485 828 1173
1340 1881 2517
2126 2982 3957
2038 2970 4018
1981 2900 3962
1952 2914 3962
1840 2720 3765
1840 2775 3819
1869 2830 3819
1869 2802 3847
1840 2775 3819
1869 2775 3847
1786 2734 3708
1813 2748 3737
1869 2830 3847
1840 2748 3765
1869 2802 3819
1896 2802 3847
1840 2748 3737
1897 2844 3876
1897 2789 3821
1924 2789 3821
2009 2886 3905
1678 2314 3059
2066 2660 3494
2096 2842 3875
2038 2842 3875
2038 2842 3875
1981 2813 3818
1952 2745 3764
2009 2842 3818
2038 2882 3902
2097 2853 3785
2469 2978 3562
3383 2792 2671
2732 1400 560
2932 1173 226
3283 1250 205
147 93 29
359 270 144
118 70 10
249 186 99
127 77 14
100 56 11
102 59 17
96 55 17
100 56 16
98 55 10
159 103 33
190 118 47
130 64 11
284 198 105
311 200 116
161 70 23
224 117 45
265 137 54
207 100 53
365 213 136
982 630 453
1000 510 286
1398 857 631
1178 606 340
1149 567 291
1044 467 233
1353 664 361
966 339 96
1153 497 205
1293 663 366
728 282 95
767 365 191
767 404 261
630 315 211
951 563 388
907 528 319
1373 962 812
868 486 321
693 354 208
955 604 497
796 501 479
1154 821 788
1351 1001 976
703 379 278
1049 670 481
1420 938 731
814 459 290
893 513 309
829 449 230
606 287 121
731 393 262
948 622 544
1807 1538 1555
2892 2706 2892
1082 962 1053
1122 997 1024
1150 1046 1073
2127 2048 2271
1829 1907 2230
2395 2773 3445
2510 2936 3740
1586 1921 2359
1233 1512 1686
1246 1561 1955
1808 2396 3200
1952 2670 3703
1981 2900 3962
1924 2858 3933
1924 2817 3876
1868 2817 3848
1869 2775 3819
1841 2734 3735
1813 2734 3762
1841 2734 3762
1840 2775 3792
1813 2734 3708
1841 2734 3735
1813 2707 3735
1841 2707 3708
1896 2802 3819
1786 2679 3682
1840 2748 3765
1924 2817 3876
1869 2748 3765
1869 2748 3765
1924 2789 3848
2009 2914 3990
1924 2830 3849
1924 2830 3849
1952 2858 3905
1924 2789 3821
1952 2858 3877
1924 2830 3792
1981 2871 3905
2009 2912 3931
2096 2953 3986
3014 2999 3629
1907 959 517
2743 1089 249
3537 1358 296
163 101 36
102 57 7
85 48 7
98 55 10
99 59 9
144 95 29
230 167 93
100 55 14
120 75 23
200 142 72
244 169 74
123 63 11
143 78 22
308 184 76
195 88 19
198 67 27
694 428 246
558 263 114
652 365 166
991 653 441
912 496 277
1226 652 352
1969 1329 1095
1319 621 323
1481 663 223
1311 564 173
1604 748 308
1733 857 310
1596 757 285
790 262 72
682 247 67
796 388 214
399 128 55
337 103 77
765 390 190
888 497 288
1054 635 452
668 321 148
822 453 269
631 306 188
734 433 356
818 557 518
1540 1200 1226
1138 772 681
978 599 497
1643 1200 1097
587 269 167
739 392 244
818 438 236
714 368 193
792 432 274
705 403 311
947 732 718
1923 1812 2024
2468 2345 2521
2076 1943 2143
954 866 913
1608 1540 1760
1534 1557 1856
1753 1876 2306
1948 2103 2571
1339 1464 1799
1155 1246 1437
1380 1516 1935
1359 1613 2239
1894 2454 3460
1980 2912 3960
1952 2900 3962
1924 2858 3933
1924 2844 3876
1840 2775 3792
1869 2802 3847
1896 2830 3874
1840 2775 3819
1840 2775 3819
1813 2707 3735
1813 2734 3708
1840 2775 3819
1841 2734 3735
1841 2761 3762
1813 2734 3735
1813 2707 3735
1840 2720 3765
1924 2817 3876
1924 2844 3905
1897 2789 3876
1897 2817 3876
1868 2817 3821
1868 2789 3821
1869 2775 3819
1868 2789 3793
1897 2789 3821
1924 2844 3848
1924 2858 3877
1981 2900 3933
1980 2912 3873
2628 2864 3588
1387 722 428
2648 1020 336
3215 1194 315
120 64 17
148 89 38
92 53 12
97 53 11
129 82 29
197 135 53
242 181 70
137 87 32
135 93 31
262 208 87
183 113 29
110 57 13
145 83 32
140 66 11
224 125 51
338 160 55
694 364 157
1265 793 426
1673 1119 679
673 268 151
664 304 100
862 441 194
735 321 128
2247 1335 922
2683 1825 1184
1212 481 115
1726 839 299
1525 677 151
1470 748 315
841 342 100
779 369 151
493 163 56
655 317 187
620 295 151
809 414 213
826 395 169
830 411 184
796 381 168
635 258 92
526 213 87
674 380 290
1234 907 847
1949 1537 1628
1166 782 731
935 568 466
1038 639 529
481 184 81
642 298 157
779 415 251
1087 687 512
1329 896 739
850 549 441
770 578 554
1877 1765 1946
1940 1906 2212
1608 1575 1855
1143 1084 1325
1343 1269 1468
431 401 481
827 820 981
1287 1309 1528
762 750 947
1186 1199 1459
1143 1163 1447
581 653 902
1470 1964 2706
2125 3053 4095
1981 2900 3990
1952 2886 3962
1924 2844 3905
1869 2802 3819
1869 2775 3819
1841 2761 3762
1896 2830 3874
1841 2761 3790
1841 2761 3762
1869 2830 3847
1786 2734 3735
1840 2775 3792
1840 2775 3792
1896 2830 3847
1896 2802 3819
1923 2858 3874
1840 2748 3765
1869 2775 3792
1869 2775 3792
1840 2748 3765
1868 2817 3876
1897 2844 3876
1869 2775 3765
1924 2844 3905
1897 2789 3793
1896 2775 3792
1897 2789 3848
1952 2858 3877
1952 2871 3875
2347 2894 3706
1512 1089 889
2288 978 610
2606 852 318
114 71 22
114 69 19
103 62 15
118 74 27
140 87 32
124 74 20
103 62 15
116 68 15
135 84 17
153 99 32
157 96 27
138 83 30
160 96 41
136 70 19
326 189 77
816 482 147
705 308 97
784 365 143
1258 696 295
1147 671 354
587 235 67
538 243 69
607 291 136
833 334 149
683 214 75
975 398 126
1386 702 218
1222 624 178
1041 523 131
702 288 68
363 123 46
327 106 44
530 233 93
426 139 44
429 152 41
1277 820 456
1509 943 480
819 371 132
586 209 66
566 233 113
642 348 250
1657 1234 1156
836 528 516
1167 776 688
670 334 208
767 396 232
811 434 257
830 445 268
675 318 187
1120 730 572
1632 1217 1037
1345 1025 933
663 497 487
2481 2313 2463
2364 2237 2544
1145 1078 1301
702 643 885
886 838 1057
955 920 1078
1266 1237 1361
1737 1706 1963
1957 1942 2241
1507 1507 1772
1422 1450 1785
1848 1980 2461
1346 1800 2418
1919 2805 3809
2009 2941 4018
1924 2830 3905
1924 2886 3962
1924 2844 3905
1896 2802 3819
1840 2775 3819
1841 2734 3762
1896 2802 3847
1896 2830 3847
1841 2761 3762
1869 2830 3847
1868 2761 3762
1813 2707 3735
1896 2830 3847
1841 2734 3762
1896 2802 3819
1869 2775 3792
1840 2748 3765
1840 2775 3737
1896 2802 3847
1896 2775 3819
1952 2901 3960
1869 2830 3819
1840 2748 3765
1840 2775 3765
1869 2775 3792
1869 2748 3792
1924 2886 3905
1924 2858 3849
2126 2941 3873
2153 2469 2928
3189 2392 2672
1800 573 338
143 95 34
113 67 17
99 60 13
116 69 19
114 68 17
117 73 22
135 84 27
179 121 48
213 155 78
196 135 48
270 200 107
138 83 25
126 70 21
121 64 16
403 265 103
1694 1215 467
1436 876 285
1094 551 145
1197 589 155
874 408 108
569 227 68
498 196 61
553 235 74
463 159 34
604 261 88
766 369 74
1029 572 180
1152 718 266
1221 772 314
627 299 81
295 101 56
270 93 24
502 222 96
556 225 90
453 163 100
1503 991 471
1063 542 197
797 348 90
592 199 67
673 302 160
587 293 202
1681 1243 1162
829 457 339
634 312 183
662 316 163
642 298 115
655 302 138
597 258 106
639 301 158
610 286 142
815 474 341
739 469 396
650 495 473
2358 2188 2349
2518 2350 2612
1426 1320 1474
1804 1735 2093
2694 2676 3267
1452 1381 1625
1507 1399 1529
2118 2051 2269
1555 1479 1662
1520 1447 1623
1422 1386 1669
1841 2005 2455
1304 1730 2322
1688 2533 3509
2037 2982 4075
2009 2941 4047
1952 2886 3933
1952 2872 3932
1924 2901 3905
1869 2802 3792
1869 2802 3847
1869 2830 3874
1841 2761 3790
1841 2761 3762
1840 2775 3792
1841 2761 3762
1896 2830 3847
1896 2802 3819
1869 2775 3819
1896 2802 3819
1840 2775 3792
1869 2775 3792
1897 2844 3876
1923 2830 3902
1813 2707 3735
1813 2707 3708
1786 2707 3735
1786 2652 3708
1841 2734 3708
1841 2734 3708
1896 2775 3819
1897 2789 3848
1924 2886 3877
1981 2842 3905
2126 2912 3873
2108 2278 2900
920 476 465
184 131 51
138 87 28
98 56 12
104 60 16
113 67 19
106 62 18
94 51 12
173 126 68
663 569 452
271 202 114
205 131 50
245 172 85
149 91 29
129 73 21
337 206 48
1151 749 277
606 260 109
976 532 141
1306 763 260
1179 671 257
937 516 211
1029 586 247
865 440 160
388 113 52
599 315 126
425 169 70
439 217 105
528 288 71
676 409 153
401 168 57
343 140 51
509 240 123
424 164 51
568 240 88
1118 635 243
1513 896 366
999 496 181
1277 738 355
996 529 264
594 247 106
558 254 155
795 472 360
753 417 268
658 333 190
727 376 203
929 533 332
622 280 123
635 306 147
901 533 315
836 433 213
860 488 319
643 393 331
748 550 557
1779 1606 1815
1255 1099 1304
818 664 760
1223 1051 1176
1431 1255 1359
841 676 721
647 465 431
724 581 652
830 719 816
1878 1736 1871
1049 967 1123
1220 1318 1547
1028 1393 1894
1529 2271 3188
2094 3035 4095
2009 2941 4018
1923 2842 3933
1924 2858 3905
1924 2858 3933
1868 2789 3848
1869 2802 3874
1840 2775 3819
1869 2775 3819
1840 2775 3819
1840 2775 3792
1896 2858 3874
1869 2830 3819
1896 2802 3819
1840 2748 3765
1869 2802 3847
1869 2775 3792
1952 2844 3932
1896 2802 3792
1840 2748 3792
1840 2775 3792
1869 2802 3847
1869 2802 3819
1813 2734 3735
1841 2761 3762
1869 2802 3847
1896 2802 3819
1924 2844 3876
1897 2817 3876
1952 2886 3905
2038 2900 3933
2183 2941 3902
1938 2519 3325
200 145 53
152 100 23
101 59 10
102 59 7
139 88 19
130 82 18
100 60 15
103 57 17
121 67 25
129 76 19
160 101 30
182 114 37
148 97 30
128 73 14
270 153 39
838 511 144
959 599 162
1102 720 284
656 343 83
703 396 125
514 241 78
407 176 70
818 539 241
286 106 36
363 186 53
374 188 42
290 143 51
559 353 119
520 302 108
257 103 49
449 206 104
888 536 301
808 446 161
802 428 155
857 445 109
927 480 136
801 409 112
694 326 75
811 459 279
1143 757 627
626 318 238
466 219 150
1248 857 676
1029 655 481
538 247 115
626 318 147
564 280 120
567 262 112
701 378 210
695 364 184
508 226 110
307 128 80
423 252 229
480 334 409
1178 1013 1138
676 519 558
814 645 653
1231 1026 1002
1493 1238 1238
926 700 615
635 440 397
1708 1506 1587
1696 1508 1610
680 544 581
1418 1499 1735
2175 2623 3166
1730 2458 3338
2122 3076 4095
2124 3125 4095
2037 2982 4075
2009 2912 3989
1924 2858 3905
1952 2886 3933
1868 2817 3848
1897 2844 3905
1869 2775 3819
1869 2775 3792
1869 2775 3819
1896 2830 3847
1924 2872 3905
1897 2844 3876
1924 2844 3932
1897 2817 3821
1897 2789 3876
1897 2844 3876
1869 2775 3792
1840 2775 3819
1840 2802 3819
1786 2679 3708
1869 2802 3792
1841 2734 3790
1841 2734 3762
1869 2830 3874
1896 2802 3847
1896 2802 3847
1924 2844 3905
1924 2817 3876
1952 2886 3933
1952 2928 3962
1952 2900 3962
124 82 16
100 61 6
112 68 5
148 86 24
431 326 153
192 124 29
152 94 24
186 131 58
139 89 30
137 82 19
203 132 42
138 80 10
148 91 30
168 109 39
153 88 18
235 128 26
494 308 110
949 676 281
664 442 140
455 266 64
415 237 64
260 144 31
292 161 42
263 135 31
284 165 87
719 557 370
236 119 35
297 164 51
296 140 34
278 118 52
582 336 289
4095 3962 3383
1425 953 563
576 250 79
776 410 120
1021 589 151
990 593 231
766 405 155
918 583 415
1014 696 595
347 148 99
502 272 206
1166 843 683
1232 901 711
709 416 247
513 269 118
550 295 153
520 272 154
483 250 150
380 165 77
358 169 106
387 195 136
417 246 201
939 732 760
712 516 554
568 392 395
639 460 477
837 649 638
1404 1154 1080
1777 1454 1315
1078 838 719
781 561 480
650 457 387
955 797 817
1689 1769 2115
2116 2575 3199
2111 2831 3694
2271 3199 4095
2212 3148 4095
2124 3065 4095
2125 3053 4095
2096 3041 4046
1981 2900 3933
1475 2314 3167
1756 2649 3625
1981 2914 3962
2009 2943 3962
1924 2872 3876
1952 2872 3905
1897 2817 3848
1868 2789 3764
1924 2844 3876
1730 2583 3572
1493 2332 3265
1897 2760 3793
1897 2817 3848
1868 2817 3848
1869 2802 3847
1841 2761 3762
1896 2858 3874
1813 2761 3735
1841 2761 3762
1869 2830 3847
1869 2802 3819
1869 2830 3874
1924 2872 3932
1869 2775 3819
1924 2844 3905
1868 2789 3793
1924 2886 3962
292 217 75
152 106 18
335 247 96
332 217 83
410 281 111
282 196 93
364 268 117
265 198 93
160 101 31
129 76 14
206 146 59
174 114 35
125 79 14
131 83 16
142 83 20
112 58 8
179 95 29
341 224 81
310 185 64
236 129 39
277 165 46
239 135 43
248 137 32
194 102 30
223 124 47
660 504 315
179 86 27
213 111 50
185 78 22
486 284 125
514 297 122
679 375 130
559 260 95
930 547 182
1293 835 308
1179 723 235
440 183 56
414 175 52
740 473 318
976 668 589
445 225 189
715 450 357
710 437 310
926 629 460
546 303 151
509 269 125
718 452 294
498 257 145
363 180 96
301 118 44
287 130 77
281 143 97
634 449 454
1402 1162 1162
984 763 713
559 384 302
959 741 694
1319 1097 1071
1189 943 861
874 638 531
630 400 288
781 561 425
748 521 405
912 757 806
2035 2051 2438
2751 3174 3827
2519 3149 4050
2203 2932 3952
1978 2743 3741
1781 2545 3503
2185 3065 4095
2095 2994 4012
1921 2796 3785
1698 2533 3466
1782 2660 3679
1981 2928 3962
2009 2886 3933
2009 2943 3962
1981 2914 3905
1981 2886 3933
2009 2886 3933
1981 2830 3877
806 1274 1858
892 1415 2081
1624 2396 3357
1924 2830 3877
1924 2844 3848
1924 2844 3905
1840 2775 3765
1896 2830 3847
1841 2761 3762
1813 2734 3735
1841 2761 3790
1813 2734 3762
1813 2707 3735
1869 2802 3874
1924 2844 3905
1952 2872 3960
1897 2817 3876
1868 2789 3848
113 74 2
272 215 74
607 473 163
435 304 94
114 63 2
103 54 2
277 206 94
219 150 56
129 81 22
116 69 13
172 121 45
164 105 28
113 68 7
144 90 21
137 83 16
144 84 25
149 84 24
245 157 61
231 140 48
178 98 24
189 112 33
212 128 44
233 144 63
375 272 148
221 123 41
155 77 19
162 78 24
143 65 18
268 149 57
530 343 145
496 276 68
575 331 86
761 456 140
1134 696 199
876 501 122
623 319 90
518 257 101
437 208 87
549 284 161
1034 732 609
472 243 151
373 172 90
358 170 81
419 217 109
556 334 213
530 307 192
757 512 370
572 347 241
387 188 91
453 244 134
293 135 63
401 242 175
494 319 283
1423 1150 1084
1054 808 715
368 205 128
864 667 604
919 706 623
686 463 368
478 272 172
901 647 524
746 502 390
686 456 333
446 288 276
822 732 893
1464 1519 1917
1589 1683 2197
859 973 1413
999 1112 1593
928 1061 1526
2463 2999 3932
2400 3221 4095
2124 2944 3975
1791 2606 3595
1893 2737 3728
1923 2785 3760
2009 2842 3875
2038 2900 3933
2038 2871 3905
2038 2928 3933
2038 2900 3933
1867 2745 3707
919 1439 2057
844 1308 1820
808 1391 2034
1952 2914 3905
1924 2886 3933
1924 2872 3876
1979 2928 3932
1896 2858 3874
1896 2858 3847
1841 2761 3762
1868 2787 3817
1923 2858 3874
1896 2830 3847
1841 2761 3817
1813 2761 3735
1896 2802 3874
1869 2802 3847
1869 2802 3819
89 57 8
126 85 10
246 185 47
308 223 86
152 104 39
120 74 21
128 80 23
115 69 19
95 55 10
129 81 24
191 138 58
175 119 44
149 98 23
381 306 150
270 196 78
146 86 21
126 74 24
149 87 29
204 136 62
202 131 50
126 66 12
123 67 14
159 90 26
242 150 53
314 202 95
145 73 20
169 84 34
150 72 27
221 114 42
317 175 54
440 233 64
323 145 30
693 378 118
564 261 62
487 214 75
456 185 35
315 108 21
288 101 29
373 172 71
413 211 112
469 254 141
312 146 57
362 191 88
326 160 70
296 130 56
409 237 163
1217 944 790
1002 746 620
934 690 540
866 618 440
672 431 319
725 513 421
557 347 251
2123 1785 1679
1185 927 820
1005 782 689
545 350 285
559 363 267
650 445 346
978 710 513
771 535 345
464 261 162
590 377 278
711 526 446
552 425 407
1182 1062 1160
584 476 553
583 463 567
1017 826 971
1520 1329 1605
1801 1874 2377
2478 2795 3505
2462 2836 3553
2491 2921 3629
1539 1937 2583
1137 1537 2247
2156 2864 3868
2154 2941 3931
2154 2941 3989
2126 2941 3989
2183 2999 4018
2126 2941 3960
1593 2280 3078
1909 2618 3466
1952 2717 3623
2038 2956 3990
1924 2858 3905
1952 2914 3962
1924 2844 3876
1840 2775 3792
1896 2830 3847
1841 2787 3843
1869 2830 3819
1841 2761 3790
1841 2761 3790
1868 2787 3790
1841 2761 3817
1896 2830 3902
1869 2802 3847
1923 2830 3929
122 85 17
130 91 14
189 138 40
151 101 23
99 57 7
96 57 16
91 53 16
97 55 18
110 69 23
140 94 35
114 69 14
114 68 14
156 104 16
591 511 264
320 226 71
106 59 9
110 65 17
104 59 12
118 71 16
150 91 32
107 62 16
113 62 20
152 88 32
257 174 89
284 176 79
186 106 50
164 81 31
123 51 18
148 67 21
196 94 24
421 242 110
560 325 148
546 270 86
632 329 124
565 284 84
681 378 162
436 190 61
251 90 22
329 150 54
500 293 154
376 194 88
364 183 83
409 229 124
422 240 144
398 214 127
260 113 61
851 620 512
1332 1064 944
848 589 431
592 376 230
463 261 155
293 141 77
763 541 434
1297 1007 876
856 628 508
1115 855 758
465 269 167
381 204 104
495 298 177
857 607 369
963 694 501
816 565 468
505 305 244
714 537 473
768 636 608
522 399 372
623 492 457
759 620 578
1126 886 824
1050 826 872
956 840 943
704 631 719
969 894 1063
1740 1698 1924
1194 1189 1424
1570 1664 2043
1980 2518 3407
2335 2994 3952
2365 3053 3982
2244 2894 3809
2111 2766 3669
2274 2982 3898
1867 2504 3226
1426 2012 2732
1839 2561 3367
1952 2813 3790
1813 2733 3709
1897 2872 3848
1897 2844 3876
1923 2830 3874
1896 2802 3847
1868 2815 3817
1813 2761 3762
1841 2761 3762
1841 2761 3790
1841 2761 3790
1813 2761 3790
1896 2858 3902
1841 2787 3817
1841 2787 3817
158 112 34
119 78 5
123 82 11
91 51 2
95 57 6
89 53 9
73 40 4
75 42 7
91 54 12
124 77 24
128 81 16
262 196 88
279 205 53
381 287 69
328 241 78
142 88 19
116 71 17
121 77 22
114 67 15
101 61 11
102 58 13
115 64 23
127 70 22
150 81 32
129 59 20
169 93 42
142 70 18
130 59 17
166 84 37
189 96 36
461 295 174
556 308 144
322 136 42
343 144 38
360 155 43
328 138 40
284 116 41
225 79 20
364 185 78
964 670 492
340 157 49
306 148 52
416 229 123
288 136 55
334 173 93
392 221 137
980 738 565
1127 873 693
738 500 328
642 412 265
491 283 175
225 107 47
315 174 95
638 430 330
853 628 504
732 521 405
823 600 467
836 596 454
570 363 213
694 484 308
822 561 411
607 392 277
597 416 339
551 377 337
901 760 767
1239 1089 1137
1439 1303 1359
1128 967 953
1377 1234 1182
2636 2532 2618
2021 1926 2068
889 807 826
913 813 894
1143 1046 1092
1240 1137 1137
1083 1064 1218
1893 2271 2970
2412 2944 3854
1796 2249 3013
1372 1785 2479
1175 1589 2067
984 1353 1796
1169 1551 2085
1452 1905 2519
771 1145 1590
1055 1690 2326
1596 2476 3410
1897 2844 3848
1897 2872 3848
1896 2858 3902
1923 2858 3902
1923 2885 3902
1841 2761 3790
1896 2858 3929
1841 2761 3817
1868 2787 3817
1868 2787 3817
1923 2885 3929
1841 2815 3843
1841 2787 3817
121 80 10
178 129 36
145 100 23
105 67 5
200 151 53
160 111 34
144 93 23
123 75 16
104 64 18
119 76 22
146 99 17
358 265 81
398 304 74
423 332 107
587 478 208
137 82 17
124 71 19
129 78 25
129 79 22
196 132 63
139 82 32
123 70 26
118 60 20
126 64 27
139 70 25
170 93 37
251 163 87
150 79 27
129 61 19
137 61 16
352 214 110
268 128 38
316 154 57
281 121 33
228 86 23
216 80 26
484 290 156
246 82 31
579 378 254
1410 1068 831
438 243 114
304 146 52
475 285 177
380 220 130
333 178 114
644 434 331
1332 1093 955
1226 970 782
935 659 379
938 671 438
622 407 284
501 334 291
273 149 102
456 311 250
815 606 533
741 540 461
979 756 630
1244 1037 875
791 588 420
759 561 413
624 428 300
412 255 154
505 351 285
448 333 318
1657 1508 1570
2089 1980 2135
1168 1037 1114
623 538 561
1583 1480 1559
1959 1893 2068
2024 1944 2090
1320 1241 1392
1129 1021 1136
975 831 801
774 620 522
497 443 425
1285 1583 2098
2382 2868 3764
2614 3091 3860
1937 2354 3014
984 1292 1710
2067 2533 3145
1013 1351 1863
523 690 941
915 1207 1439
1621 2349 3022
1895 2801 3764
1981 2914 3933
1924 2901 3932
1869 2830 3874
1869 2830 3847
1923 2858 3902
1841 2787 3817
1868 2815 3870
1868 2815 3790
1868 2815 3843
1868 2815 3843
1923 2885 3929
1896 2858 3874
1869 2830 3847
151 101 24
435 353 173
160 109 17
215 159 59
367 292 112
168 113 25
202 148 68
155 101 28
142 95 37
97 59 10
164 109 38
208 146 46
568 459 200
267 185 53
176 114 20
117 71 15
121 72 21
128 78 24
135 79 26
173 109 43
128 69 22
112 59 17
118 59 20
114 58 16
121 58 17
142 70 20
151 73 17
152 78 20
132 61 17
147 66 23
225 103 35
247 113 30
254 114 24
308 144 44
423 227 101
209 71 26
424 223 94
503 278 140
365 193 79
358 188 77
366 208 94
281 149 52
357 202 102
513 343 232
365 204 114
648 453 348
926 723 586
1531 1282 1093
935 689 442
1054 775 484
670 463 292
397 249 183
436 286 227
506 359 302
1167 969 908
466 317 275
649 493 383
620 457 354
1167 976 827
1038 834 685
916 722 587
660 505 384
658 501 428
406 315 294
957 853 904
1421 1327 1445
632 561 598
841 777 785
1841 1723 1807
1796 1689 1739
920 825 852
926 839 886
966 880 966
1631 1572 1675
2094 2048 2185
1805 1893 2081
2185 2550 3187
2589 3126 4074
2618 3085 3943
2320 2739 3428
1811 2193 2815
2154 2547 3246
1529 2003 2720
1475 2057 2761
1825 2561 3367
1715 2566 3402
1286 2152 3058
1897 2844 3876
1952 2901 3905
1896 2858 3874
1869 2830 3847
1896 2830 3902
1868 2787 3843
1841 2761 3817
1868 2761 3790
1841 2815 3843
1841 2787 3817
1841 2787 3817
1868 2787 3817
1868 2815 3817
155 102 18
296 212 83
151 105 26
147 97 19
101 67 2
131 87 22
116 74 11
126 82 19
144 101 34
88 54 9
112 70 18
110 70 18
153 100 25
151 94 19
237 177 87
125 77 17
120 72 19
121 72 19
128 75 26
119 68 20
132 69 27
124 64 26
146 80 27
205 126 51
145 77 19
179 102 28
215 124 39
271 175 91
325 202 103
209 102 28
205 95 34
464 298 144
387 224 82
327 168 58
358 169 54
273 118 27
427 232 111
685 424 242
481 299 163
1018 794 663
890 678 561
532 365 286
349 197 111
300 165 83
319 178 105
446 289 175
663 469 339
927 718 519
920 697 504
849 615 365
487 321 169
324 189 110
346 218 144
311 204 154
454 354 328
792 647 601
401 277 214
381 261 202
449 326 266
1071 883 807
1087 921 905
991 851 775
1525 1355 1302
661 558 551
1262 1171 1229
1804 1723 1804
593 506 529
473 387 372
1078 965 950
1964 1860 1817
1391 1291 1268
1767 1655 1679
1661 1568 1645
1692 1646 1744
882 869 994
2274 2463 2857
2805 3264 4095
2558 3094 4043
2260 2655 3338
1726 2094 2604
1063 1288 1651
856 1064 1445
959 1316 1821
1580 2266 3050
1712 2589 3551
2097 3086 4077
2009 2971 3990
1952 2901 3932
1924 2901 3905
1841 2761 3817
1813 2761 3790
1813 2787 3790
1841 2787 3790
1813 2761 3762
1813 2761 3790
1841 2761 3790
1841 2815 3843
1950 2940 3984
1923 2912 3957
1868 2787 3843
124 77 18
124 77 14
120 77 18
109 73 10
131 91 24
141 94 27
127 82 22
191 143 65
122 82 22
83 51 10
89 55 16
99 60 19
98 59 16
110 66 14
158 109 41
122 71 14
113 67 15
111 62 17
104 57 12
116 66 19
150 83 32
142 77 27
178 100 37
382 243 114
196 106 19
317 200 70
284 161 49
280 163 59
428 287 144
355 223 93
430 272 113
392 234 82
291 144 41
396 239 128
525 304 179
327 163 65
266 120 35
463 313 189
576 400 277
594 431 331
702 533 451
300 186 156
501 366 297
387 265 205
475 346 273
483 354 269
336 213 135
587 430 291
1664 1457 1289
876 689 497
546 387 251
506 359 276
516 379 303
497 384 354
572 467 490
1954 1762 1690
944 795 722
628 497 463
771 631 588
720 602 576
896 803 891
1859 1744 1869
2296 2128 2158
1762 1643 1669
1614 1508 1596
887 800 850
354 281 295
491 394 353
540 428 375
422 307 267
721 597 554
1211 1122 1130
1073 975 1024
1684 1608 1684
1449 1421 1550
1896 2048 2276
2352 2731 3363
2738 3223 4066
2008 2347 2894
1080 1348 1767
806 958 1280
471 563 809
1132 1551 2110
1673 2412 3263
1524 2376 3325
1981 2914 3962
2009 2943 3962
1952 2928 3960
1923 2858 3874
1896 2830 3902
1950 2912 3984
1868 2842 3898
1813 2787 3790
1923 2858 3929
1950 2912 3984
1868 2787 3843
1868 2815 3817
1868 2815 3843
1923 2858 3902
1868 2787 3817
89 56 13
89 56 7
185 137 62
125 85 21
136 94 34
145 102 35
108 70 16
136 90 31
99 59 12
84 51 13
83 51 10
108 71 18
104 64 14
98 56 15
91 50 7
119 72 24
138 83 27
117 71 19
114 64 18
183 115 35
219 138 46
149 81 24
170 91 21
269 151 38
362 230 75
370 228 74
329 196 64
439 270 128
317 181 62
360 212 69
285 151 40
273 135 41
218 105 27
244 117 37
258 123 38
249 126 52
244 125 56
270 158 79
650 498 397
359 234 156
294 189 129
283 188 140
731 625 551
833 708 642
568 481 461
1566 1487 1566
1681 1561 1531
1433 1301 1226
1163 1037 965
887 730 647
513 378 291
627 499 424
721 614 623
778 668 655
572 461 403
971 823 715
940 812 739
987 855 821
886 760 728
473 371 389
1487 1368 1478
1053 899 883
978 817 784
1069 923 907
1311 1160 1160
1214 1083 1041
490 404 397
1028 926 958
620 523 503
425 344 321
940 832 796
809 714 687
1163 1048 1026
1454 1350 1373
1760 1745 1881
2014 2107 2338
1772 1992 2450
2400 2743 3428
2525 2851 3444
1852 2196 2684
1214 1537 2015
1583 1949 2463
1981 2569 3330
2097 2912 3902
1981 2900 3962
1981 2943 3933
1924 2901 3905
1896 2830 3847
1869 2858 3874
1841 2761 3790
1868 2815 3843
1868 2842 3843
1841 2815 3817
1868 2815 3870
1841 2787 3790
1841 2787 3817
1868 2842 3843
1896 2885 3874
1950 2912 3957
1868 2815 3843
69 39 7
98 67 16
143 105 48
108 74 18
93 59 8
108 70 22
101 64 19
109 71 22
95 60 16
94 55 13
88 54 7
140 97 38
168 117 53
96 55 5
103 59 7
139 89 28
122 71 19
120 66 13
237 165 91
361 251 115
298 199 70
565 432 231
501 359 146
421 285 99
365 235 78
256 137 30
201 96 15
306 165 57
320 176 54
212 105 20
221 111 32
290 159 72
228 112 40
233 111 39
203 96 32
207 105 44
291 178 108
320 202 131
617 459 374
504 367 280
430 308 232
500 396 336
1173 1069 1049
664 559 535
447 353 298
704 648 655
914 834 804
1564 1449 1363
781 680 631
723 607 535
626 488 403
469 345 261
423 321 261
1011 884 762
580 457 353
397 275 140
883 760 634
1119 974 957
777 651 642
1009 883 872
1802 1658 1658
734 572 491
597 429 333
682 512 449
472 364 316
597 487 440
914 811 818
2566 2505 2705
1489 1379 1353
847 732 667
1168 1061 1022
864 770 738
1025 940 906
1325 1251 1251
2127 2143 2255
1191 1197 1340
1298 1414 1669
2139 2397 2883
1393 1651 2030
1293 1600 2039
1413 1746 2239
1101 1451 1876
2009 2656 3460
2038 2928 3933
2009 2943 3990
1981 2943 3962
1952 2928 3960
1869 2830 3847
1896 2830 3902
1923 2885 3902
1896 2858 3929
1868 2787 3843
1868 2842 3843
1894 2869 3898
1868 2815 3870
1841 2815 3843
1894 2815 3843
1894 2842 3843
1868 2842 3870
1894 2842 3817
87 53 16
106 74 21
179 132 67
100 68 16
95 63 16
103 70 19
110 77 23
138 95 40
95 60 14
94 59 12
202 152 69
187 134 51
130 82 14
137 86 14
136 81 11
153 100 25
200 139 63
130 74 11
120 63 4
203 133 41
200 116 19
245 145 56
354 233 85
373 233 71
328 189 81
300 170 48
301 171 61
289 156 56
661 413 194
264 149 45
233 119 37
253 128 45
251 132 50
243 127 54
208 100 44
197 98 43
645 495 404
495 337 254
1239 1032 939
1411 1240 1163
507 380 321
311 213 165
376 288 260
419 339 296
393 308 233
663 568 513
1509 1386 1311
1266 1168 1097
1046 959 878
284 194 135
424 326 248
444 322 203
530 415 287
725 586 475
349 245 157
376 267 160
477 357 265
568 461 428
718 584 514
658 542 489
1229 1089 1097
755 594 463
571 389 226
583 429 291
688 557 501
834 727 715
1669 1569 1569
1507 1368 1341
1112 999 935
1183 1096 1079
1271 1199 1231
1047 974 1026
1227 1160 1212
961 899 879
992 953 960
1617 1668 1742
1916 2066 2276
2169 2352 2595
1669 1909 2193
1421 1841 2287
1673 2189 2760
1938 2533 3254
1826 2566 3430
1895 2773 3792
1952 2901 3932
1952 2928 3932
1896 2858 3874
1868 2815 3817
1868 2815 3817
1923 2912 3929
1923 2912 3984
1896 2858 3929
1868 2815 3843
1841 2787 3843
1869 2858 3874
1841 2815 3817
1841 2761 3790
1868 2787 3817
1894 2869 3898
1868 2815 3817
94 59 14
89 58 12
129 88 33
147 103 45
102 70 21
96 60 16
84 51 11
82 50 10
104 71 22
122 83 26
175 118 45
96 58 3
140 93 28
439 344 173
227 163 46
157 100 17
175 114 31
154 96 24
184 118 34
214 146 60
228 155 66
348 235 132
688 502 249
416 275 100
467 324 129
363 219 76
320 186 55
250 129 26
417 249 97
236 124 39
263 141 48
227 116 36
260 146 59
252 134 66
355 224 161
213 104 62
878 704 617
868 683 567
954 778 672
1086 906 850
411 301 241
271 180 128
269 185 132
401 314 254
402 317 257
849 754 673
2593 2446 2352
2646 2531 2437
1557 1465 1436
594 497 453
405 309 226
371 271 173
451 337 216
387 274 188
159 91 38
199 121 58
351 247 167
1146 1005 899
1377 1204 1049
791 642 506
603 452 384
539 387 309
479 331 219
542 395 274
747 626 569
1407 1343 1488
2395 2303 2436
1606 1470 1416
624 512 439
515 433 416
1098 1020 1075
1847 1795 1812
1868 1819 1868
690 638 680
1263 1256 1306
636 662 686
1205 1285 1408
1293 1439 1585
1483 1744 2047
2200 2829 3473
2215 3053 3952
2185 3101 4095
2067 3043 3990
2009 2971 3990
1981 2971 3962
1923 2858 3874
1896 2885 3902
1894 2842 3870
1841 2787 3790
1923 2858 3929
1894 2869 3870
1868 2842 3843
1923 2912 3957
1923 2885 3929
1868 2787 3843
1868 2815 3843
1923 2885 3929
1868 2842 3843
1868 2815 3843
1923 2858 3902
101 66 18
95 59 16
94 55 16
109 72 27
91 56 16
91 56 16
84 54 12
90 56 12
95 60 12
88 54 8
87 54 8
99 59 15
118 79 16
196 137 35
223 154 43
173 118 30
193 133 52
171 112 34
169 115 40
131 81 6
730 626 388
370 252 119
201 112 49
318 187 39
562 401 134
448 264 64
483 308 111
363 209 67
303 178 65
224 116 29
184 83 20
177 82 20
221 113 42
314 186 113
325 189 122
233 120 57
732 561 447
667 503 368
428 297 205
542 398 306
508 383 303
375 271 203
391 296 231
782 663 603
516 421 324
709 600 514
1560 1430 1365
1661 1540 1457
1802 1743 1763
970 933 1005
1244 1145 1082
414 315 231
376 286 184
354 256 168
255 173 97
284 198 118
568 460 366
1452 1282 1179
1012 851 735
1302 1105 918
724 580 493
566 434 357
449 336 273
453 339 276
752 639 631
1493 1408 1567
1338 1248 1285
686 583 531
524 419 344
604 521 484
790 720 709
401 333 300
456 405 423
635 609 684
2056 2138 2397
2316 2445 2738
1184 1285 1400
987 1063 1044
832 992 1040
1562 2134 2747
2096 2982 3927
2126 3071 4095
2067 3014 4020
2038 3027 4018
1979 2956 3932
1923 2885 3902
1950 2912 3929
1950 2912 3957
1950 2912 3929
1894 2842 3898
1868 2815 3843
1950 2912 3984
1894 2842 3843
1868 2842 3870
1868 2815 3843
1813 2787 3817
1868 2815 3843
1841 2815 3817
1841 2815 3843
1868 2815 3790
164 123 58
101 66 18
84 51 14
74 42 11
79 47 12
86 56 12
90 56 5
101 66 10
138 95 33
129 94 30
126 87 24
91 54 7
131 91 23
179 128 41
184 127 38
151 96 11
162 104 22
159 103 27
113 65 7
112 65 9
177 112 35
190 123 32
647 539 262
392 275 85
414 254 79
368 221 66
293 152 53
575 385 192
266 145 40
247 130 39
225 116 39
224 120 46
217 111 34
264 140 52
266 143 55
259 139 49
588 410 305
799 618 515
308 188 116
386 258 173
228 135 66
257 157 95
391 285 240
1597 1456 1377
524 433 359
734 635 596
605 528 476
739 637 519
460 382 287
370 333 310
1016 916 921
910 808 718
352 279 243
308 224 170
354 266 176
328 235 152
1118 997 888
1740 1581 1522
1236 1100 1011
1840 1660 1531
664 531 466
970 859 846
730 623 580
382 277 239
632 527 493
1075 1005 1058
966 874 841
286 191 149
362 279 217
343 272 218
384 308 243
382 306 227
656 590 597
1135 1143 1339
1553 1676 2060
2724 2892 3345
1645 1819 2111
1252 1426 1706
1372 1600 1813
1864 2504 3188
2185 3071 4075
2097 3057 4018
2096 3071 4095
1952 2928 3932
1923 2885 3874
1923 2885 3902
1923 2858 3902
1868 2815 3870
1868 2842 3870
1868 2842 3898
1868 2815 3870
1923 2912 3929
1923 2885 3929
1841 2815 3843
1868 2842 3870
1894 2869 3870
1868 2842 3843
1894 2842 3843
1923 2912 3957
1894 2842 3817
144 101 40
121 76 26
80 51 16
68 39 10
74 42 11
74 46 2
348 297 171
173 126 40
101 68 13
145 107 37
126 87 24
90 58 5
159 105 27
203 144 49
98 56 3
102 61 5
130 82 16
155 104 32
134 81 11
91 50 2
116 69 8
168 111 32
157 102 20
189 118 32
200 118 23
240 138 35
227 122 27
269 152 44
179 83 14
169 82 18
252 146 59
300 176 75
282 166 67
464 314 175
495 321 171
294 146 40
499 333 223
1009 814 684
435 285 204
411 268 182
323 203 114
214 119 59
230 152 128
1407 1289 1289
1060 949 892
434 363 327
380 316 275
440 363 289
523 439 373
481 398 319
743 646 572
738 627 493
576 471 378
240 156 73
289 196 112
300 213 135
1019 893 814
1597 1450 1373
899 773 668
1505 1334 1248
606 468 396
1305 1184 1138
384 287 248
338 233 185
565 463 419
910 795 761
440 333 298
308 231 190
463 366 320
429 346 284
521 433 324
445 363 316
1730 1665 1746
1477 1484 1676
1935 2079 2383
2691 2873 3288
1224 1393 1698
648 803 1039
1036 1316 1608
1768 2419 3127
2156 3071 4095
2096 3071 4020
2038 2999 3990
1979 2956 3960
1868 2815 3817
1841 2787 3817
1921 2869 3870
1950 2968 3984
1894 2869 3870
1894 2869 3870
1894 2869 3898
1950 2940 3984
1894 2869 3898
1950 2912 3984
1923 2912 3957
1950 2940 4012
1868 2815 3843
1841 2787 3817
1841 2815 3843
1813 2787 3817
76 46 7
72 45 8
73 46 12
69 42 13
66 42 12
74 45 6
173 127 42
108 75 8
84 58 7
81 52 2
143 106 40
96 65 10
161 113 40
183 127 41
140 95 23
123 77 8
304 236 101
359 284 143
158 108 18
134 81 15
125 75 10
180 120 35
185 119 33
166 105 26
171 98 26
162 92 23
185 105 28
254 152 59
172 88 18
180 88 29
233 127 49
257 140 43
443 304 200
433 272 175
460 291 175
355 203 82
459 279 139
481 286 152
379 237 132
401 246 132
485 328 205
273 157 94
138 78 58
419 347 352
819 701 710
1356 1273 1374
1586 1485 1596
1706 1567 1511
2237 2117 2098
1171 1050 1033
1851 1686 1619
759 615 471
1199 1073 938
713 599 457
670 571 461
557 437 340
634 534 457
1291 1162 1070
1058 912 810
948 787 693
698 580 493
354 254 188
346 247 188
546 433 370
445 337 282
287 190 135
281 198 155
440 353 306
1106 995 978
1454 1359 1333
754 653 609
436 372 378
1746 1746 1919
2219 2269 2505
1570 1653 1873
1385 1521 1729
774 910 1101
1010 1221 1551
2185 2619 3173
2009 2679 3407
2156 3101 4075
2124 3043 4076
2038 2999 3990
2008 2956 3988
1923 2885 3902
1894 2815 3817
1979 2940 3957
1894 2869 3870
1894 2842 3898
1868 2815 3817
1949 2896 3925
1894 2869 3925
1921 2896 3898
1894 2869 3870
1894 2869 3870
1923 2912 3984
1868 2815 3870
1868 2815 3870
1894 2869 3870
1868 2842 3898
76 48 8
71 40 6
63 37 7
59 34 10
54 30 5
63 37 6
111 82 30
185 143 70
100 68 9
94 67 10
135 99 30
97 66 8
128 85 17
193 141 48
147 96 17
215 160 67
111 71 7
114 71 3
199 140 51
175 115 32
140 87 13
155 100 21
187 115 33
157 93 21
174 101 29
184 113 38
189 108 32
206 121 43
153 74 10
226 126 46
179 81 22
199 100 29
398 262 160
380 232 153
428 297 213
790 580 386
525 327 171
669 415 218
593 387 206
603 374 195
466 294 165
273 157 89
287 201 159
701 572 506
607 514 506
1704 1636 1753
2251 2110 2119
1633 1522 1457
2563 2378 2358
988 830 833
1214 990 904
1071 912 773
1029 916 797
768 640 503
1101 986 878
731 615 512
336 250 170
453 349 275
491 390 301
719 612 523
682 559 481
477 376 298
1029 896 820
323 227 158
284 188 128
318 230 182
658 564 528
1154 1048 1005
923 833 799
2011 1925 1877
1033 955 938
952 878 885
1739 1739 1845
2092 2126 2441
2425 2541 2889
1594 1772 2081
1841 2125 2574
1464 1799 2328
1137 1524 2067
1754 2447 3212
2185 3130 4095
2096 3043 4048
1981 2971 3962
2008 2956 3960
1979 2940 3957
1894 2869 3870
1950 2940 3957
1979 2940 3957
1950 2940 3984
1894 2815 3817
1921 2869 3898
1894 2869 3870
1894 2869 3898
1894 2842 3870
1894 2869 3870
1949 2896 3925
1950 2912 3957
1868 2842 3870
1894 2842 3870
1894 2869 3870
73 43 0
113 84 37
70 40 6
57 32 6
55 33 8
53 29 3
95 63 11
101 74 14
117 86 24
113 80 18
87 57 7
80 55 7
109 73 7
186 141 52
125 83 10
236 179 89
109 66 7
113 65 8
135 82 18
149 90 21
140 87 18
172 109 27
191 123 35
135 75 10
150 87 17
155 87 14
161 88 15
158 85 11
181 98 23
222 129 37
269 156 54
461 311 158
333 200 95
260 145 79
287 165 127
521 341 213
267 138 44
490 319 190
516 295 131
501 294 132
291 149 46
340 202 125
684 516 428
1011 803 708
300 176 142
715 511 445
1462 1191 1100
2016 1743 1587
1463 1222 1070
1706 1489 1348
748 527 411
653 509 361
505 397 289
424 318 218
664 553 434
773 668 591
1254 1143 1052
360 262 173
502 390 290
675 571 505
501 399 320
852 757 689
667 559 503
444 348 283
374 286 229
509 422 419
865 778 831
818 739 768
817 741 732
1248 1154 1137
1639 1578 1604
1536 1495 1602
2444 2444 2675
1927 1976 2252
1248 1356 1636
891 1034 1324
2092 2429 2937
1919 2332 2937
1155 1588 2139
1950 2664 3465
2097 2999 3960
2038 3014 3990
2009 2999 3990
1979 2928 3905
1923 2885 3874
1950 2912 3929
1950 2940 3929
1894 2842 3817
1894 2869 3870
1894 2869 3870
1950 2912 3957
1979 2940 3957
1868 2842 3870
1894 2869 3898
1894 2842 3870
1894 2869 3870
1894 2842 3870
1894 2869 3898
1894 2869 3898
1894 2842 3870
87 57 13
100 69 19
77 50 7
73 46 8
59 36 2
70 43 5
93 63 10
113 85 24
105 73 15
114 84 21
93 62 10
98 66 10
181 134 53
202 143 53
104 66 8
157 110 39
116 71 13
136 88 21
114 71 20
111 61 8
177 117 35
179 114 32
153 93 23
150 83 21
157 88 18
183 112 34
178 101 23
201 118 35
186 103 22
221 129 42
421 273 79
632 439 158
338 189 66
265 139 48
305 173 95
535 363 222
281 146 71
453 291 210
556 357 224
744 483 307
298 143 48
215 95 38
236 133 73
545 417 366
622 427 373
1140 748 545
934 514 299
1099 779 606
731 476 338
837 650 499
419 276 184
692 542 427
425 320 228
520 423 326
579 476 369
887 802 735
973 869 774
376 291 204
368 276 176
670 568 485
309 219 152
520 427 351
423 340 258
531 424 338
747 635 572
778 664 618
385 313 290
473 393 389
337 270 241
771 697 670
884 813 841
924 863 849
1636 1563 1620
1589 1597 1753
906 992 1173
1329 1500 1825
1478 1794 2253
2036 2545 3173
2337 2898 3626
2305 3053 3921
2185 3071 4046
2067 2986 4020
2066 3027 4018
1952 2901 3905
2008 2956 3960
1950 2912 3929
1950 2940 3957
1921 2842 3898
1921 2869 3898
1894 2869 3870
1894 2842 3843
1950 2912 3957
1950 2912 3957
1894 2869 3870
1921 2869 3898
1894 2842 3870
1894 2842 3870
1894 2842 3870
1894 2869 3898
1868 2842 3870
87 55 5
68 39 119
90 61 6
91 62 10
91 63 10
121 87 23
131 100 32
129 90 29
110 77 19
117 83 24
103 71 18
95 65 11
115 77 18
150 103 35
114 77 20
112 71 18
117 76 13
133 82 17
198 129 48
247 157 62
229 155 60
216 144 48
166 100 26
167 100 28
164 93 20
199 125 39
186 111 25
171 97 21
166 90 18
161 81 19
386 238 83
955 715 267
621 433 163
408 250 110
302 162 65
349 194 98
461 315 271
692 484 437
372 212 99
625 383 208
418 202 79
342 156 63
396 204 101
452 287 240
649 386 250
1270 828 493
1140 639 360
899 580 390
753 473 324
448 264 155
684 535 433
738 599 488
308 229 176
433 334 263
883 751 647
1324 1250 1221
520 465 387
534 442 354
287 209 140
401 314 245
215 146 92
344 263 188
469 378 302
387 306 247
440 364 316
787 668 625
405 320 278
343 267 221
311 240 190
365 280 224
515 432 401
1129 1065 1018
2195 2144 2231
1695 1718 1911
1096 1210 1506
1565 1816 2185
2103 2540 3070
2276 2783 3429
2337 2929 3687
2428 3157 4036
2185 3041 3986
2067 2928 3933
2038 2999 3990
1981 2971 3962
2036 3040 4016
2008 2984 4016
1950 2912 3874
1950 2912 3984
1921 2869 3843
1894 2869 3870
1950 2940 3984
1979 2968 3984
1950 2940 3984
1894 2842 3870
1921 2869 3870
1894 2842 3898
1921 2842 3898
1894 2869 3870
1894 2869 3870
1894 2869 3898
289 236 99
118 79 19
272 217 100
152 113 22
100 66 7
109 77 13
109 73 15
80 52 5
88 56 10
95 65 17
108 76 23
122 88 34
120 82 23
106 71 17
109 71 18
116 71 16
135 86 23
139 86 20
192 129 46
134 80 13
186 121 35
203 134 43
256 181 75
226 143 43
186 112 28
186 111 26
287 187 74
269 173 63
261 161 70
236 134 36
439 298 111
540 358 107
445 286 119
599 405 235
364 205 117
759 560 423
397 243 184
400 231 167
401 217 102
511 261 142
791 425 257
560 240 99
865 470 281
609 287 154
884 484 288
853 430 172
1200 765 562
1120 714 523
1126 782 571
589 387 254
833 658 537
1280 1118 1055
308 221 197
1106 996 957
1254 1218 1356
2963 2916 3260
1036 963 946
657 557 492
336 266 207
336 272 236
306 251 233
1122 1062 1094
2195 2131 2164
1072 980 939
949 851 820
1589 1486 1425
693 594 541
291 207 155
260 186 145
487 418 389
686 611 602
1042 971 955
1123 1061 1091
1259 1289 1419
1752 1926 2290
1541 1826 2395
2057 2540 3194
1871 2379 3083
1641 2165 2830
1470 2033 2638
858 1330 1923
1286 1903 2703
2009 2858 3849
2066 3027 4018
2094 3056 4075
2008 3012 3988
1979 2940 3957
1950 2912 3874
1921 2869 3870
1921 2896 3898
1950 2912 3929
1894 2842 3870
1921 2924 3925
1921 2869 3898
1894 2869 3870
1949 2896 3925
1894 2842 3898
1894 2842 3870
1921 2869 3898
1949 2896 3925
279 213 69
184 132 24
366 300 95
258 192 45
127 90 19
123 87 22
83 56 2
73 47 4
79 52 9
75 49 8
72 45 10
91 58 15
100 65 16
103 64 13
116 74 20
149 99 25
147 99 23
143 90 12
238 170 74
130 72 15
154 91 25
186 116 34
260 177 65
227 151 47
173 102 20
162 89 17
268 173 62
257 153 42
253 151 56
401 266 107
325 188 45
280 149 45
1249 1004 736
790 546 338
571 383 227
922 706 542
472 273 139
396 208 102
415 214 107
497 232 104
663 327 158
735 356 167
1102 630 352
802 381 167
971 533 311
756 358 154
627 292 167
880 518 347
865 549 327
539 339 188
976 780 639
789 658 615
429 331 278
718 651 576
1231 1149 1186
1347 1226 1254
876 772 705
304 231 172
573 501 441
1055 954 893
565 494 460
2445 2390 2532
2111 2069 2207
608 532 509
357 287 249
363 285 246
474 392 353
693 614 538
696 603 529
215 157 138
983 912 920
1154 1063 1021
1369 1287 1239
755 759 841
926 1067 1400
1547 1881 2550
2625 3183 4019
2383 2937 3647
1258 1746 2354
1137 1576 2144
886 1304 1907
356 638 1014
1426 2159 2959
2067 2986 4020
2038 2971 3990
2038 2999 4046
2008 3012 3988
2063 3040 4044
2006 2995 3957
1921 2924 3870
1921 2896 3898
1979 2968 4012
2006 2995 4012
1921 2924 3925
1894 2869 3870
1921 2896 3898
1949 2896 3952
1921 2924 3925
1921 2896 3898
1894 2869 3870
101 65 121
139 95 23
582 512 275
172 118 26
121 83 14
116 78 12
79 49 0
97 64 14
111 77 19
94 61 13
95 62 14
90 61 10
96 67 15
96 62 15
96 59 11
144 92 23
210 157 63
212 149 46
239 172 73
143 83 15
149 84 20
165 100 30
223 146 49
201 129 38
145 85 10
167 94 15
232 144 41
256 158 52
270 158 51
326 208 70
400 251 98
257 140 44
460 307 181
537 356 218
456 296 182
411 239 122
346 164 54
376 178 58
286 108 71
584 277 111
728 339 151
779 384 188
1373 849 523
656 261 118
558 217 104
919 507 307
706 342 160
845 484 280
737 433 240
651 425 273
943 713 581
449 303 222
409 306 233
824 725 594
942 789 701
688 534 469
661 553 445
694 591 521
568 501 453
386 310 245
554 487 402
1334 1258 1231
770 696 689
716 623 599
350 272 235
251 177 132
243 182 180
409 314 262
410 316 254
355 286 254
284 221 203
336 281 261
436 390 400
1223 1239 1372
933 1054 1298
1148 1392 1751
1790 2200 2761
1310 1729 2259
1191 1664 2151
1046 1550 2144
938 1451 2088
1240 1834 2493
1119 1767 2529
1868 2705 3653
2096 3071 4076
2124 3101 4095
2036 3012 3988
2036 3012 4044
1979 2940 3957
1979 2995 4012
1921 2896 3843
1979 2940 3957
1921 2896 3898
1868 2842 3843
1921 2896 3898
1921 2896 3898
1979 2968 4012
1921 2869 3870
1868 2815 3817
1950 2940 4012
157 122 35
171 123 26
218 165 51
173 119 29
104 68 10
110 69 3
127 88 19
122 78 21
126 85 24
105 64 9
146 108 43
144 101 33
109 68 14
98 62 15
104 66 19
107 66 10
175 122 37
216 153 53
155 93 12
162 99 26
181 114 34
167 99 21
183 106 19
215 142 37
194 124 37
355 253 126
193 105 15
219 125 32
273 156 51
224 115 32
284 157 62
257 138 51
262 143 63
267 149 69
219 111 54
294 153 69
516 300 147
884 509 257
639 280 101
1108 629 350
1011 518 235
934 448 157
964 446 123
1145 593 223
823 388 161
845 415 169
818 427 196
730 390 180
534 267 131
1012 710 559
1103 827 689
1060 799 672
901 689 574
1129 899 723
597 442 321
384 243 187
286 184 132
407 329 268
694 627 537
499 430 380
1772 1664 1595
1259 1168 1122
830 759 689
855 761 693
482 400 329
322 240 188
335 249 238
404 298 257
264 187 144
454 385 347
468 398 370
260 205 198
275 230 221
721 721 728
781 857 969
597 769 991
1353 1717 2228
1154 1607 2143
1830 2406 3026
2140 2769 3503
1808 2440 3172
2024 2708 3509
1839 2589 3438
1981 2756 3703
2153 2956 3962
1840 2665 3572
1924 2760 3764
2036 2984 3988
1979 2968 3957
2006 2968 4012
1921 2924 3870
1979 2995 3984
1921 2896 3898
1894 2869 3870
1894 2869 3925
1921 2924 3925
1921 2869 3870
1921 2896 3925
1979 2995 3984
1979 2968 3984
238 186 62
160 115 26
108 69 120
105 66 1
197 141 30
482 343 113
221 142 58
104 59 0
122 68 8
213 142 44
162 99 23
167 108 29
119 76 17
113 70 14
114 75 21
112 70 16
137 91 18
155 98 16
205 139 35
301 223 82
313 226 88
274 192 71
188 116 24
206 130 30
186 109 21
304 205 76
280 180 58
232 129 39
266 143 43
327 197 87
206 100 33
470 322 226
630 448 328
352 217 126
384 235 151
438 260 138
528 284 109
687 291 76
530 173 102
688 288 123
1445 858 482
1664 1013 452
1674 1012 379
1270 661 246
717 291 91
868 417 151
713 342 87
984 574 291
799 445 246
2367 1905 1636
1840 1432 1203
1116 818 636
508 306 178
368 221 108
899 710 596
1055 879 801
398 284 256
641 531 466
986 886 809
961 881 846
1939 1848 1778
1433 1367 1338
1031 951 868
1000 890 816
612 523 447
216 143 83
181 107 65
230 152 105
225 154 115
461 388 361
756 689 714
564 516 523
796 776 788
1263 1279 1392
1950 2051 2337
1026 1284 1614
2494 2985 3625
2336 2921 3615
1787 2421 3130
2215 2898 3702
2337 3019 3869
2428 3157 4036
2395 3173 4041
1634 2308 3036
1227 1796 2454
931 1452 2045
1840 2596 3476
2066 2999 3990
2036 3040 4044
1979 2968 3957
1979 2940 3957
1949 2924 3925
2006 2995 3984
1949 2924 3952
1979 2968 4012
2006 2995 4012
1921 2896 3898
1894 2869 3870
1976 2924 3898
1921 2869 3870
106 67 0
113 71 2
114 83 27
188 138 56
275 200 46
878 674 236
1227 983 397
288 201 68
159 94 11
343 241 109
308 213 98
215 141 59
167 110 29
260 198 110
114 72 18
108 71 18
118 77 20
144 94 18
295 218 80
311 216 70
183 113 14
243 161 43
241 160 43
158 89 10
191 114 28
273 173 56
308 200 79
220 128 32
345 223 110
379 235 110
259 140 87
339 214 130
740 561 427
400 245 147
263 128 48
295 134 35
545 287 132
915 487 266
1296 753 352
858 393 137
780 315 127
1089 536 178
691 268 65
641 237 80
457 143 69
706 308 120
879 479 232
1202 723 357
577 264 99
911 551 336
791 461 250
1181 820 590
569 332 152
410 251 127
940 752 633
959 805 736
757 623 599
899 778 726
431 379 343
1231 1149 1104
1978 1856 1787
1692 1634 1565
992 926 847
1007 923 860
660 581 525
319 239 173
172 105 56
233 167 111
243 169 129
257 193 178
338 284 320
607 588 631
1265 1248 1335
1238 1271 1460
1108 1206 1404
1227 1459 1781
2154 2656 3320
2207 2815 3583
2151 2789 3584
2591 3327 4095
2556 3242 4095
2461 3199 4061
2461 3260 4095
1768 2461 3254
1286 1850 2493
1868 2537 3304
1924 2635 3528
2094 2999 4046
2008 2956 3988
2008 3012 4044
2006 2995 3984
1949 2896 3898
2006 2995 4012
1949 2924 3925
1921 2896 3870
1949 2896 3870
1949 2950 3925
1949 2924 3925
1949 2924 3952
1921 2896 3925
191 139 41
120 78 6
137 94 32
188 129 45
254 181 52
611 479 161
1280 1076 428
634 482 201
230 164 61
192 133 49
166 112 40
189 121 29
175 109 32
269 201 113
348 280 167
128 81 21
113 69 14
133 86 17
258 175 42
287 201 47
233 155 49
290 193 73
314 214 79
154 86 12
243 150 50
254 159 46
271 167 53
208 119 29
277 172 74
357 220 87
236 121 43
201 101 44
247 125 58
193 83 24
234 103 25
365 180 56
349 131 87
602 254 104
1283 674 257
1374 738 211
1080 515 170
709 257 65
752 310 100
1483 839 344
1382 722 303
823 400 207
837 428 156
1080 651 310
662 331 138
651 345 145
1067 689 442
1124 749 470
597 359 156
564 353 185
1126 930 807
658 494 409
527 393 342
760 627 551
1115 976 896
728 640 551
747 647 572
679 576 509
569 474 390
675 567 514
549 457 438
606 497 452
413 327 275
362 273 216
224 152 122
255 193 177
428 378 422
672 651 756
1051 1067 1277
298 304 409
171 193 267
356 565 805
1257 1751 2335
2349 2948 3693
2367 3023 3822
2559 3294 4095
2447 3126 4010
2171 2799 3593
1921 2577 3319
1894 2483 3186
1346 1879 2425
1938 2589 3297
1292 1937 2700
1813 2733 3709
1979 2956 3988
2036 3040 4072
1979 2995 3984
1979 2940 3957
1949 2950 3898
1894 2842 3843
1921 2896 3898
1979 2940 3957
1949 2896 3925
1894 2869 3898
1976 2950 3979
1979 2995 4039
204 145 40
200 146 51
107 63 4
98 59 5
190 137 52
179 125 56
146 94 27
143 89 24
146 91 20
156 104 30
125 80 16
449 352 179
123 70 5
147 93 26
315 243 138
157 97 26
132 78 21
211 143 39
439 349 136
543 426 179
257 163 45
156 85 11
165 95 13
187 108 17
554 423 200
303 185 64
227 133 34
213 119 31
309 190 80
549 375 207
245 129 50
171 82 30
322 177 98
455 273 139
574 324 126
639 352 157
960 554 230
756 335 132
1468 809 285
1314 684 191
639 236 74
680 265 69
583 205 41
947 462 198
1295 669 211
1145 646 318
680 291 109
655 302 83
757 415 188
622 324 138
1150 793 514
1208 858 571
799 520 295
524 320 163
360 219 127
535 400 317
446 303 265
750 599 558
1490 1294 1188
485 330 202
664 499 346
477 324 167
663 505 334
852 689 542
684 546 479
1376 1210 1190
1220 1099 1084
667 568 512
384 310 297
917 848 923
814 784 879
256 237 288
382 386 497
240 260 342
449 528 662
1192 1492 1822
1886 2379 3019
1935 2495 3199
2591 3172 3953
2367 2895 3631
1856 2335 2904
1486 1967 2419
1004 1360 1780
648 924 1269
1119 1512 1945
1253 1743 2196
959 1513 2153
1952 2886 3849
1979 2956 3932
1950 2912 3929
1950 2968 3984
1949 2924 3898
1949 2924 3898
1921 2896 3925
1949 2924 3925
1921 2896 3898
1976 2924 3952
1921 2896 3925
2006 2995 3984
1976 2950 3979
201 143 43
142 97 16
120 76 17
95 59 14
96 63 9
116 75 15
116 76 19
113 73 19
94 58 8
124 82 26
98 57 0
172 109 28
147 90 20
141 84 20
129 75 19
191 126 49
236 157 71
272 182 92
253 156 63
416 298 135
266 163 52
172 94 16
160 88 13
253 160 51
273 163 41
276 170 57
201 110 25
198 103 30
278 161 90
424 274 126
387 230 99
243 123 71
545 348 182
681 455 243
844 539 267
987 577 207
1319 797 315
1039 552 164
920 445 126
1185 651 186
743 306 68
577 185 58
383 100 38
428 118 69
1120 593 232
968 496 159
507 209 118
583 258 84
692 340 130
765 426 193
1048 700 476
1113 766 542
470 243 115
498 302 171
466 302 229
854 679 596
389 236 194
417 266 205
718 521 359
830 647 452
685 506 315
436 291 151
1262 1050 867
1209 964 790
697 529 411
546 433 364
972 824 790
455 352 305
422 345 330
378 313 351
234 187 202
313 287 297
575 572 646
799 868 1007
1651 1821 2059
2372 2712 3211
1583 1951 2575
1944 2333 2948
1638 1958 2397
1212 1429 1729
1194 1429 1759
2494 2842 3236
2446 2743 3133
1137 1362 1627
1659 2120 2551
1853 2461 2985
2300 2999 3785
2124 3043 4020
2066 3056 4046
2063 3040 4044
2006 2995 4012
1979 2968 3984
2006 2995 3984
1976 2924 3952
1949 2924 3925
1894 2842 3843
1949 2924 3925
1949 2924 3952
1921 2896 3870
1949 2950 3925
307 221 79
147 101 19
137 91 21
103 67 13
85 54 10
97 63 14
83 52 9
73 44 6
95 59 13
161 114 49
135 88 17
181 126 46
163 99 26
222 148 65
150 85 28
180 114 43
202 121 44
206 121 32
243 144 38
256 152 46
448 298 148
241 141 37
180 100 17
192 113 17
236 142 28
321 215 76
189 102 22
267 166 51
633 469 220
465 305 86
330 171 40
627 405 231
542 310 144
648 418 228
630 328 161
939 538 214
1755 1261 866
905 433 136
784 356 116
670 258 63
738 319 103
1673 974 363
845 362 106
596 202 87
1545 915 324
796 361 103
503 212 98
449 180 101
970 569 301
929 520 227
1005 630 410
1426 1044 884
619 362 205
272 116 77
457 272 172
459 283 179
447 280 187
615 432 299
1135 913 710
594 407 213
460 292 125
441 276 129
659 473 323
648 453 283
478 316 185
364 249 166
507 374 326
197 114 71
291 197 152
277 200 162
336 277 258
460 436 458
401 431 491
1834 1934 2153
1979 2159 2372
1239 1402 1644
863 1033 1315
1083 1256 1608
1816 2004 2305
593 634 657
831 875 938
707 792 931
944 1019 982
1068 1226 1100
1117 1460 1627
773 1189 1534
1867 2589 3325
2153 3071 4076
2066 3056 4046
2036 3012 4044
2033 3022 4039
1921 2869 3870
1921 2924 3870
2006 2995 3984
1949 2896 3898
1949 2924 3925
1949 2924 3925
1921 2896 3870
1976 2924 3952
1921 2896 3870
361 265 96
169 122 23
231 182 63
113 79 7
104 71 9
95 63 8
87 55 6
83 52 9
87 52 7
144 100 35
170 123 41
338 250 130
124 69 11
159 86 16
234 148 59
274 187 87
229 138 47
194 117 31
216 131 31
302 191 60
550 389 198
280 178 53
355 250 114
178 94 22
196 113 17
320 213 76
200 114 30
344 232 106
594 440 173
684 501 196
425 244 70
718 401 172
1573 1068 585
876 548 243
549 238 74
748 386 97
773 386 92
818 377 111
854 390 75
700 280 49
540 191 55
942 448 95
1254 667 180
1692 965 266
1446 774 223
817 383 173
426 164 51
763 403 279
1226 738 378
842 412 130
557 262 91
438 196 89
549 303 143
321 153 51
519 321 178
448 256 139
675 469 320
684 485 343
1338 1112 896
1104 862 615
663 442 241
384 220 67
348 197 79
331 184 65
359 217 104
357 230 138
311 193 112
300 191 121
1151 959 851
722 595 510
821 702 693
935 874 952
1008 1008 1110
1779 1870 2153
1523 1634 1897
1476 1608 1838
509 597 756
639 724 858
1200 1325 1448
826 892 872
1163 1282 1478
1623 1830 2111
2033 2245 2443
1115 1358 1548
1285 1773 2301
1669 2348 3041
1729 2482 3304
1952 2886 3877
2066 3027 4046
1979 2968 3929
2006 2968 3957
1976 2924 3925
1979 2968 3984
1949 2924 3925
2006 2995 3984
1979 2968 4012
1949 2924 3925
1921 2896 3898
1949 2924 3925
1976 2924 3952
181 133 34
116 81 12
222 168 42
360 308 137
164 120 11
242 190 65
270 215 83
89 54 4
122 86 21
106 69 11
115 73 14
150 89 19
137 73 14
205 102 34
447 262 127
519 348 150
355 238 98
335 230 109
257 158 51
247 153 41
424 308 151
394 276 113
394 272 121
375 266 104
291 191 61
187 105 13
174 99 26
225 133 46
227 132 39
335 201 44
326 176 32
515 290 113
877 505 182
757 432 150
806 428 137
698 386 97
607 316 60
615 276 101
829 386 131
990 552 164
901 442 97
865 424 122
982 491 155
1522 837 260
1272 649 180
796 359 173
482 156 46
607 254 83
910 506 237
606 273 123
658 347 158
420 197 63
418 208 75
339 170 56
424 226 92
561 366 233
635 423 267
513 309 185
550 348 179
1363 1103 825
802 571 323
1070 840 608
427 262 129
308 167 56
249 130 41
444 296 184
306 181 87
419 276 156
1353 1127 902
882 714 512
861 727 606
872 780 730
1450 1441 1441
1143 1202 1370
950 1051 1300
920 995 1160
687 783 907
521 591 662
691 762 840
906 994 1089
1395 1586 1793
1150 1353 1582
1275 1457 1687
1080 1400 1719
2124 2776 3521
2368 3230 4095
2097 2999 3931
2038 2971 3933
2094 3056 4075
2063 3067 4072
2006 2995 3984
2033 2995 3984
2006 2995 3957
2006 2995 3984
1976 2924 3925
2033 3050 4039
1976 2950 3898
1949 2924 3870
2006 2995 3984
1976 2950 3925
84 58 107
110 79 5
116 84 10
193 147 39
260 203 45
363 292 88
306 242 83
98 66 2
142 100 25
135 94 27
109 68 16
199 125 43
429 323 196
561 305 143
2157 1401 672
1148 665 229
376 201 38
329 199 86
299 183 68
249 144 37
534 420 266
479 342 170
314 197 59
429 301 125
311 200 68
205 119 26
263 174 63
433 322 151
340 239 83
233 129 45
357 211 57
493 276 84
587 331 104
416 199 62
398 195 50
501 294 91
544 295 72
435 191 65
1057 594 211
791 413 108
778 374 100
509 189 46
691 312 161
1245 716 433
738 288 100
655 258 94
734 311 100
738 304 107
709 338 128
1101 708 410
688 400 181
367 170 48
295 137 28
289 132 31
445 247 92
668 448 273
757 519 344
778 549 357
1076 830 624
987 730 514
782 538 281
1012 765 508
360 199 84
373 213 83
260 132 44
385 234 122
251 125 41
287 163 58
503 334 157
595 419 239
615 463 335
516 380 272
620 534 457
907 919 971
1759 1877 2129
1160 1239 1390
646 717 856
568 656 823
1636 1806 2065
1759 1935 2191
1714 1917 2151
872 1010 1214
516 655 850
1507 1866 2239
2245 2876 3645
2397 3278 4095
2244 3219 4075
2124 3071 4020
2094 3085 4095
2063 3067 4044
2063 3067 4072
2006 2968 3929
2006 2968 3984
1979 2940 3957
2006 2995 3984
2006 2995 4012
1976 2924 3898
1949 2950 3898
1949 2950 3925
1949 2950 3925
114 82 14
235 186 68
409 328 93
259 203 51
147 105 4
171 122 14
131 90 5
146 103 16
138 93 11
142 91 15
111 67 4
167 92 15
440 264 71
709 393 114
806 354 85
797 434 129
605 390 116
987 771 397
484 333 132
412 291 146
375 253 104
226 129 45
331 215 67
482 343 139
289 176 53
176 101 20
202 126 32
232 145 33
410 305 140
325 206 96
513 342 200
410 234 125
301 143 48
319 155 45
395 206 42
221 95 35
312 148 38
451 212 72
732 392 130
479 185 51
545 265 77
568 253 69
554 246 83
1121 683 476
743 292 70
853 381 123
1163 586 216
1660 905 397
956 482 257
691 324 82
572 276 72
441 209 71
350 157 48
333 170 65
479 269 94
509 291 112
572 366 175
576 369 171
1049 830 606
875 636 413
1034 769 494
659 428 185
308 162 50
445 282 140
254 123 38
253 125 41
291 159 67
404 267 141
630 444 248
461 304 147
417 289 167
436 322 220
473 387 309
620 581 541
1024 1071 1175
413 447 521
639 724 827
820 940 1146
817 961 1188
1149 1325 1550
584 695 843
418 504 608
324 439 593
459 658 891
1023 1535 2139
2245 3083 4041
2214 3130 4075
2213 3174 4095
2094 3085 4075
2063 3012 3988
2006 2995 3957
1921 2896 3843
1575 2493 3412
1979 2968 3957
1949 2950 3898
2006 2995 3984
1976 2950 3925
2033 3022 4039
2003 2977 3952
1949 2950 3952
363 290 83
1256 1106 383
980 852 232
203 146 53
121 87 10
127 93 10
155 107 11
334 275 91
190 134 15
150 96 7
143 90 9
286 198 67
505 330 109
919 665 280
481 241 51
491 253 66
787 565 195
824 597 204
363 224 52
224 121 32
343 243 93
270 163 40
286 182 45
342 225 54
259 159 38
140 77 12
120 67 7
117 61 4
240 152 57
300 194 100
505 336 173
380 208 51
437 238 54
359 181 51
432 236 63
364 190 39
295 130 28
444 242 88
581 311 95
346 148 29
318 122 30
407 179 37
369 162 33
744 409 237
788 370 137
1029 530 173
1481 914 408
916 428 117
1190 654 276
1108 606 250
1046 540 226
751 357 137
449 220 98
228 93 38
486 291 147
623 384 179
531 326 128
561 348 151
483 283 104
588 376 161
1001 712 378
1222 901 555
656 421 193
431 257 99
302 162 57
324 183 83
325 184 83
467 327 192
552 362 185
435 284 143
341 213 105
470 363 268
359 295 230
320 291 261
830 875 973
1394 1484 1681
1877 2049 2256
2526 2706 3013
864 1018 1247
329 435 606
293 400 504
782 975 1214
871 1061 1348
921 1214 1487
930 1433 1937
1186 1866 2573
1867 2745 3607
2242 3203 4095
2094 3085 4046
2122 3113 4075
2033 3022 3957
1601 2520 3386
1201 2076 2915
1679 2639 3572
1979 2968 3957
2006 2995 3957
1976 2950 3952
2006 2995 4012
1976 2950 3925
1976 2977 3952
405 355 151
438 347 83
559 455 92
413 332 88
166 124 24
142 105 16
160 112 16
380 308 103
295 227 52
176 113 11
184 119 30
171 100 26
161 84 28
375 256 108
459 280 70
372 204 48
250 126 23
474 297 107
338 203 60
187 98 5
260 156 36
213 120 13
321 214 70
314 216 76
215 129 21
129 72 5
176 105 24
237 148 37
161 91 17
234 134 30
327 177 46
308 159 48
762 521 225
583 370 124
410 229 66
429 250 67
352 174 46
395 216 77
433 244 65
319 142 33
202 74 15
277 113 27
378 179 43
262 96 43
404 159 63
1028 591 295
1070 613 225
611 268 143
516 187 98
712 335 111
792 373 137
709 340 155
527 253 117
387 199 111
816 568 356
487 269 99
447 250 86
459 261 92
440 247 79
623 417 210
1121 825 447
1131 811 391
576 347 113
407 231 88
349 194 77
235 117 34
320 180 97
402 249 131
336 188 75
489 343 224
398 283 186
348 258 192
605 575 586
430 433 440
785 845 937
1544 1635 1810
1207 1369 1553
1826 2026 2241
990 1241 1493
825 1089 1366
1223 1572 1893
1143 1478 1924
1896 2352 2914
1747 2285 2868
2429 3168 3938
2052 2868 3683
1796 2674 3523
2153 3101 4076
1952 2901 3848
1950 2885 3847
1923 2885 3792
1433 2312 3178
1841 2787 3762
1813 2787 3762
2003 2950 3925
1976 2924 3898
2030 2977 3979
2060 3050 4067
1976 2977 3952
1976 2950 3925
143 106 10
192 143 35
498 419 148
781 661 265
174 126 17
176 132 27
147 105 10
114 77 2
307 235 78
710 573 214
846 714 295
255 163 33
140 82 2
158 94 13
173 106 11
170 103 11
173 110 17
204 135 28
218 149 35
162 98 9
176 108 22
150 88 6
149 84 1
150 89 8
129 72 0
282 202 56
244 159 45
305 210 64
283 185 80
372 233 74
269 142 38
230 115 34
301 171 68
395 211 54
510 306 78
668 433 138
583 366 129
317 147 39
773 540 229
596 335 96
239 101 29
411 211 61
325 152 28
407 202 74
313 128 46
546 223 75
523 206 66
958 592 314
785 404 146
748 420 234
377 132 31
316 114 66
424 197 79
300 139 81
477 287 121
568 346 157
535 317 153
425 237 84
611 407 203
591 383 158
639 417 186
741 484 200
659 428 222
353 189 61
468 301 173
250 126 40
328 194 101
835 631 491
672 494 361
844 680 551
604 465 369
300 218 159
387 356 342
374 407 439
1454 1622 1790
865 1018 1208
449 569 654
321 448 564
1441 1730 1973
975 1304 1628
2268 2770 3272
2608 3248 3871
2542 3247 3983
2494 3210 4052
2586 3335 4095
2395 3234 4095
1981 2871 3732
1703 2596 3462
1786 2693 3599
1979 2912 3874
1548 2441 3307
1575 2467 3360
2033 3022 3957
2033 3022 3957
2003 2977 3952
1976 2950 3898
2060 3050 3984
2030 3004 3952
1949 2924 3870
1976 2950 3898
109 83 13
113 83 10
199 157 47
190 137 37
121 86 13
108 75 5
117 80 11
106 73 10
434 356 154
543 422 129
733 581 258
249 170 43
241 169 42
624 538 208
351 262 70
147 92 11
153 99 19
129 84 8
151 98 16
160 107 20
109 67 0
140 89 10
231 164 48
209 146 31
186 120 25
453 348 117
403 291 78
197 123 17
228 136 30
400 263 110
766 537 192
347 177 80
348 198 70
493 293 104
318 159 53
347 178 47
185 82 17
268 125 45
888 592 223
516 291 82
304 130 31
270 111 37
295 137 53
478 263 82
422 200 35
559 295 88
1013 635 354
878 517 204
512 250 59
401 168 51
282 120 45
404 179 83
607 339 183
363 185 82
948 688 478
858 610 388
477 265 95
619 403 219
505 319 150
546 350 154
607 406 197
569 375 167
696 484 266
482 302 156
727 516 348
213 99 29
419 263 156
927 757 595
705 535 406
568 434 357
808 684 586
606 535 456
427 416 423
564 634 732
1200 1390 1625
1603 1831 2074
662 840 945
1046 1261 1478
1139 1407 1633
1814 2276 2707
1692 2185 2709
1255 1701 2134
2064 2716 3368
2556 3273 3990
2522 3291 4095
2365 3203 4072
2009 2928 3818
1240 2053 2816
1759 2665 3572
1896 2830 3709
1786 2761 3682
1921 2869 3790
2033 2995 3929
2089 3078 4067
2060 3050 4039
2060 3078 4012
2003 3004 3925
2033 3050 3984
2030 3004 3952
1976 2950 3925
96 70 15
116 88 28
91 67 9
97 71 12
80 53 1
83 56 4
96 61 0
117 80 10
215 162 40
130 82 24
241 161 49
223 152 29
274 196 47
421 319 83
191 130 16
148 100 12
125 89 15
99 65 6
100 64 3
101 64 2
121 80 10
216 158 54
223 151 39
188 117 14
392 305 117
248 162 38
153 88 6
173 103 13
183 102 37
466 300 81
1651 1237 499
1257 911 380
638 424 139
546 332 108
329 173 48
259 121 41
184 81 21
396 217 72
1019 620 227
402 205 53
539 305 112
686 429 211
433 219 59
302 125 44
415 212 95
1173 798 486
1661 1151 731
1397 963 538
949 613 340
874 540 311
415 202 102
1048 738 581
226 90 37
600 384 283
1332 1023 864
838 578 390
527 316 156
1258 1001 809
954 726 623
925 689 469
679 473 279
595 398 205
713 513 315
752 542 374
761 559 395
260 135 52
595 419 300
628 459 332
980 812 663
444 311 226
359 267 206
647 640 599
980 1158 1312
1993 2258 2540
1115 1381 1608
1658 1957 2179
792 1013 1166
608 824 984
762 1048 1226
1638 2141 2613
1999 2614 3245
1885 2530 3173
1776 2344 2927
1299 1868 2328
1497 2102 2665
1346 1986 2599
1895 2745 3537
785 1451 2034
1638 2558 3451
1679 2586 3465
2091 3067 4016
2091 3067 3988
2033 3022 3984
2060 3050 4012
2030 3004 3925
2030 3004 3979
2030 3032 4006
2030 3004 3979
2003 2977 3925
2003 2977 3952
74 54 10
79 54 10
83 59 10
97 68 12
140 106 34
99 71 3
177 135 43
266 213 88
165 111 17
171 117 17
218 153 27
257 180 43
291 216 56
206 143 25
195 148 48
275 217 100
101 67 5
97 63 8
125 89 21
144 99 27
123 76 7
142 93 13
151 100 21
163 105 22
180 116 16
186 120 22
208 135 30
259 172 41
452 340 135
826 585 164
834 558 205
1420 1022 385
624 369 95
477 251 63
311 151 41
546 333 106
370 207 57
453 264 65
776 501 187
471 251 71
384 186 69
368 170 51
375 187 66
379 190 75
428 214 76
601 336 188
528 263 90
719 436 157
651 369 94
1043 705 385
851 520 259
744 437 267
222 77 34
980 679 584
1573 1210 1065
723 447 295
821 568 419
1009 748 607
1378 1137 1069
925 701 538
731 531 344
872 651 455
741 536 348
667 459 283
542 360 220
313 174 85
659 485 356
893 709 545
801 647 506
535 396 294
301 226 179
1498 1604 1869
1198 1525 1976
2362 2857 3315
1340 1807 2181
962 1379 1705
767 1135 1384
1334 1822 2196
1638 2156 2628
1796 2379 2963
2275 2945 3678
2260 2960 3693
1921 2504 3057
1280 1759 2119
1408 1949 2422
822 1318 1851
1556 2328 3086
910 1624 2337
1610 2517 3437
1979 2940 3847
2089 3050 3984
2089 3050 3984
2060 3050 4012
2033 3022 3984
1949 2924 3898
1976 2977 3925
2003 3004 3952
2030 3032 4006
2030 3032 3952
1976 2977 3898
68 48 9
80 55 13
106 74 20
90 63 13
121 89 23
167 126 44
241 175 66
113 75 5
117 83 5
174 125 24
150 100 11
200 141 53
206 142 31
146 103 12
137 100 14
149 105 23
85 53 2
102 70 11
119 81 13
118 77 12
125 82 14
137 88 20
137 84 14
141 88 11
172 112 31
238 163 49
281 189 50
210 132 25
359 247 42
446 276 60
529 301 81
742 423 115
846 512 167
441 236 54
382 203 57
743 510 195
481 270 63
439 250 63
465 266 65
525 314 104
564 356 180
374 202 57
373 187 60
445 235 81
460 244 66
292 123 46
282 118 58
453 232 81
595 300 55
872 462 145
782 412 114
797 469 197
712 384 165
899 503 293
697 354 186
629 348 253
914 612 493
2480 2087 1928
2227 1941 1931
1306 1125 1181
1162 941 797
935 693 529
425 266 161
520 347 210
680 494 360
495 334 203
553 378 250
691 516 367
685 530 400
520 385 286
356 283 246
1085 1190 1449
1735 2093 2604
1567 2030 2495
795 1275 1617
1194 1819 2373
2239 2959 3694
2431 3215 4015
2526 3231 4046
2230 2830 3491
1934 2510 3101
1528 2094 2618
978 1474 1919
1093 1437 1805
1319 1892 2373
1516 2179 2842
1093 1817 2517
1624 2504 3384
2151 3141 4095
2207 3226 4095
2120 3067 4016
2089 3078 3984
2030 3004 3979
2030 2977 3952
2003 3004 3952
2030 3032 3952
2030 3004 3979
2003 2977 3898
1972 2932 3892
2030 3032 4006
63 44 8
71 48 8
91 65 16
90 64 12
95 69 15
124 96 26
112 81 15
94 65 6
122 90 30
184 142 54
377 297 120
1469 1280 617
1220 1009 487
107 72 16
114 79 13
85 56 2
89 59 7
94 60 7
102 66 10
108 68 13
113 72 12
132 83 23
179 122 46
166 108 31
190 128 45
210 135 38
248 161 38
387 269 78
417 284 88
430 270 89
502 308 106
216 97 21
250 120 40
318 156 41
202 90 31
431 251 85
435 254 72
236 106 27
327 172 45
674 446 182
406 217 77
327 176 32
235 123 26
147 70 7
253 146 57
427 238 49
466 272 76
535 303 79
714 417 133
1012 573 205
668 336 105
439 172 34
615 295 80
760 368 125
519 194 66
940 562 425
730 388 288
942 609 491
1128 837 757
1039 860 865
946 740 602
1096 884 726
436 283 168
568 392 254
513 358 254
691 531 391
875 685 510
724 537 338
582 404 247
419 305 206
356 300 262
872 940 1145
1286 1618 2004
1340 1838 2275
1615 2276 2861
2591 3388 4095
2690 3544 4095
2688 3532 4095
2559 3294 4095
2139 2746 3368
941 1373 1678
653 1064 1338
1313 1826 2274
1280 1772 2172
1461 2043 2584
1386 2079 2852
1867 2745 3679
2239 3186 4095
2151 3141 4075
2120 3095 4044
2089 3050 3957
2060 3050 3957
2060 3050 3984
2030 3004 3979
2030 3004 3952
1972 2906 3865
1999 2959 3918
2030 3004 4006
1999 2959 3918
2030 3032 4006
81 55 9
86 57 10
87 61 11
84 57 10
69 46 4
105 77 22
116 88 27
114 87 26
106 76 22
196 152 71
934 871 735
686 545 301
673 521 234
117 80 30
125 88 22
91 61 4
113 75 15
114 77 13
156 102 38
177 125 54
152 104 35
167 110 35
165 110 32
153 101 26
125 71 14
113 62 21
133 74 5
171 106 17
182 110 19
154 85 3
219 126 23
224 126 23
253 138 43
495 306 91
370 209 43
218 114 24
317 172 43
356 199 64
217 100 38
473 297 102
319 172 40
267 148 38
211 121 37
268 158 33
228 127 47
374 222 63
636 426 165
298 128 58
425 194 55
569 284 70
476 211 61
284 98 46
470 202 64
954 549 235
867 448 170
925 490 253
754 346 157
419 152 98
580 286 158
555 311 134
899 634 415
477 271 172
830 618 394
535 359 214
308 192 115
1070 892 753
1614 1407 1211
1189 978 748
582 440 320
491 363 277
325 264 236
298 344 455
842 1151 1468
1384 1952 2476
2691 3498 4095
2690 3510 4095
2688 3499 4095
2654 3455 4095
2654 3327 4095
2321 2906 3552
1707 2282 2813
1949 2539 3101
1907 2504 3029
1393 1908 2368
1659 2300 2997
2303 3130 4046
2271 3232 4095
2210 3216 4095
2063 3040 3988
2147 3151 4072
2116 3105 4012
2089 3050 4012
2089 3078 4039
2057 3004 3952
2030 3004 3979
2057 3059 3979
2003 3004 3925
2030 3004 3979
2057 3032 4006
2030 3004 3979
105 70 13
110 75 14
130 92 27
110 74 12
91 62 6
97 68 11
96 66 14
103 76 20
155 119 47
111 76 20
280 230 138
206 157 61
138 95 22
129 95 23
147 106 32
123 84 20
170 120 41
164 114 42
135 90 25
137 91 28
323 254 171
482 409 291
139 89 22
128 77 15
129 78 18
176 111 30
386 275 90
281 196 60
160 97 11
155 90 6
188 108 9
233 132 18
238 127 40
362 202 59
375 233 86
193 103 61
197 107 61
1075 793 326
953 671 228
370 215 68
296 157 54
349 205 88
345 197 69
219 117 48
310 205 57
448 294 88
340 178 58
314 168 62
387 197 73
394 203 44
564 324 90
414 183 34
323 106 34
392 137 36
597 254 96
730 322 100
817 374 137
629 291 123
958 543 240
907 506 210
606 308 85
578 345 123
557 345 174
354 202 110
342 231 183
1086 942 928
1927 1763 1825
1227 1092 1100
1154 1007 1007
411 311 308
1498 1463 1567
716 834 1092
927 1257 1713
2341 3006 3703
2691 3488 4095
2624 3434 4095
2656 3434 4095
2591 3327 4095
1931 2530 3083
1747 2213 2679
850 1238 1626
991 1373 1754
1042 1424 1780
1617 2147 2635
2229 2953 3691
2425 3263 4095
2300 3232 4095
2151 3113 4095
2120 3095 4044
2120 3124 4072
2089 3078 4067
2057 3004 3925
2030 3032 3979
2030 3032 3979
2057 3032 4006
2057 3032 3979
2003 3032 3952
2057 3032 4006
2057 3059 4033
1999 2959 3865
125 80 17
126 84 18
244 188 86
496 419 264
268 206 81
106 76 11
91 70 10
113 85 19
140 110 33
153 118 40
102 72 13
91 62 9
128 90 26
133 94 26
127 89 25
125 91 23
201 154 72
143 101 34
129 84 25
151 102 35
177 120 55
175 117 42
124 74 14
99 58 8
108 61 12
138 82 21
143 86 25
116 63 1
130 70 5
192 114 23
172 95 13
215 129 23
427 281 86
1254 951 303
1165 874 243
1986 1584 504
1264 913 278
1454 1076 303
1103 746 173
1169 835 273
603 360 110
1694 1229 408
1162 832 278
534 332 109
538 327 89
475 290 93
290 131 52
306 139 81
387 165 71
735 437 131
778 424 105
550 250 48
391 146 63
527 222 65
901 485 259
696 276 104
580 222 67
655 280 83
711 340 138
776 403 142
906 541 286
791 503 272
419 233 108
254 135 71
197 126 115
1213 1138 1381
684 623 740
436 341 349
404 296 310
213 142 165
852 884 1208
1055 1263 1736
2818 3283 3997
2519 3183 3949
2395 3116 3986
2658 3413 4095
2274 2937 3679
2275 2883 3538
1742 2259 2790
726 1009 1367
507 773 1105
1213 1572 2012
1539 1869 2294
773 1106 1534
1743 2384 3109
2303 3130 4095
2300 3290 4095
2122 3141 4046
2147 3151 4072
2116 3105 4039
2089 3078 4039
2057 3059 4006
2030 3004 3925
2030 3059 3979
2030 3032 3952
2084 3059 4006
1999 2959 3918
2057 3059 4033
1972 2986 3892
2057 3032 4006
99 59 8
128 83 21
128 84 18
238 184 94
305 253 146
380 321 219
130 101 35
118 95 27
179 143 61
153 118 40
85 58 8
103 68 14
136 96 28
108 76 13
122 84 20
123 81 17
136 95 23
113 72 12
114 73 16
135 90 25
128 84 21
120 74 14
156 103 32
125 77 15
136 83 25
138 81 22
154 87 21
156 89 13
241 135 37
536 393 129
505 358 112
190 113 43
347 211 51
533 327 71
462 267 109
1436 1065 253
2071 1615 454
847 517 84
652 352 68
697 432 129
1103 723 207
1171 727 163
600 319 83
862 556 172
680 415 155
384 177 102
814 487 195
1215 801 335
1206 709 199
1103 707 236
642 324 78
947 604 270
807 432 159
591 258 88
953 497 230
595 233 65
547 213 104
649 284 107
910 491 216
1548 1042 662
680 305 80
508 253 92
520 345 273
1052 874 837
647 544 537
659 600 644
763 673 718
602 493 501
803 663 687
420 344 395
707 764 976
2263 2518 2901
1677 1993 2408
1804 2248 2805
1839 2319 2991
1562 2018 2701
1861 2261 2830
1677 2066 2499
1801 2185 2687
1150 1488 1962
1688 2154 2737
1893 2330 2868
748 988 1227
1201 1589 2002
1201 1731 2287
1157 1817 2529
1868 2789 3682
2063 3067 3988
2120 3124 4072
2116 3132 4067
2030 3004 3925
2030 3004 3952
2057 3032 3952
1972 2932 3865
2030 3032 3952
2057 3059 4006
2084 3032 4006
2057 3032 3979
2057 3059 3979
2030 3032 4006
119 73 17
146 98 33
108 70 17
90 57 11
79 47 3
139 101 41
98 73 21
104 79 15
136 103 29
90 61 10
92 64 10
95 65 13
115 82 18
102 68 8
137 97 32
140 100 34
123 84 20
116 78 19
129 85 23
188 128 51
214 151 56
141 90 21
120 73 12
139 89 21
141 88 18
238 145 50
314 193 69
333 218 66
462 321 88
481 326 97
938 748 189
558 403 138
377 242 66
367 222 73
410 245 60
905 619 166
1376 983 289
843 530 102
681 377 115
545 280 73
483 240 59
697 410 99
527 265 52
419 202 65
564 303 97
473 232 92
459 208 54
912 542 198
980 566 173
679 331 75
330 125 48
388 147 29
538 236 54
791 410 151
1005 549 205
1056 628 329
1096 677 342
865 459 168
1093 627 287
1189 661 282
1047 573 276
730 454 260
712 551 469
980 874 945
2491 2357 2413
659 584 607
557 463 481
638 511 488
918 743 692
334 237 251
1445 1391 1480
2755 2717 2871
2265 2265 2444
1192 1192 1363
1911 1944 2219
1714 1761 2057
1196 1230 1514
775 839 1061
1181 1387 1772
1654 2023 2568
1472 1867 2391
731 981 1326
1188 1524 1847
2096 2612 3230
1610 2274 2977
1214 1964 2739
1456 2362 3228
2063 3067 4016
2175 3179 4095
2089 3078 4039
2030 3032 4006
2084 3086 4006
2030 3059 3979
2026 2986 3892
2026 3012 3918
2138 3112 4060
2057 3059 4006
2084 3059 4033
2057 3032 3979
2084 3059 4033
143 93 32
110 67 13
93 55 9
93 59 10
116 82 19
234 189 100
118 87 17
108 77 10
97 68 2
105 79 7
85 58 1
94 65 7
101 70 13
116 83 17
139 102 33
146 100 28
143 101 41
116 78 25
116 73 21
130 85 25
160 110 39
183 120 47
157 104 29
160 109 53
192 122 42
380 273 142
336 195 60
516 373 151
918 695 259
1265 993 335
1004 715 230
736 569 230
411 266 77
221 119 29
244 130 42
473 259 84
766 487 135
943 635 141
884 547 122
744 425 93
623 332 67
660 381 90
619 356 79
431 199 31
841 538 269
1096 690 336
920 564 255
1422 827 252
881 497 101
779 421 85
520 236 46
371 150 29
667 347 137
841 470 188
614 281 112
968 610 409
1482 1086 710
1029 620 298
863 468 195
1097 583 287
963 490 190
495 268 123
1277 1106 991
774 715 799
1597 1537 1628
1353 1258 1258
595 459 416
584 439 360
750 540 422
384 217 149
652 486 439
1063 888 830
548 410 357
514 382 334
895 739 709
940 804 789
636 549 601
1067 1046 1178
1550 1742 2126
1287 1641 2094
826 1182 1614
861 1150 1451
910 1254 1612
1676 2239 2872
2300 3086 3960
2267 3186 4095
2179 3198 4095
2091 3095 4044
2060 3105 4012
2030 3059 3952
2030 3032 3952
2057 3059 3979
2030 3059 3979
2057 3032 3952
2057 3032 3952
2057 3059 4006
2057 3059 3979
2030 3032 4006
2057 3059 4006
2057 3004 3979
150 102 44
129 85 26
169 120 44
158 105 37
107 72 6
138 98 18
153 115 28
134 99 12
183 139 27
303 256 96
185 133 20
160 124 45
107 76 10
126 90 24
135 100 31
120 82 20
128 88 23
100 63 18
100 64 18
103 63 15
117 74 21
137 86 27
236 170 90
172 110 35
172 104 27
176 103 26
195 114 23
296 167 35
522 348 92
719 559 192
359 228 99
227 140 74
201 111 38
211 115 34
249 140 47
208 92 52
978 723 341
609 378 79
567 336 89
451 240 63
797 487 134
744 486 112
916 606 214
412 199 84
415 202 89
513 258 77
1258 782 266
2949 1961 653
1054 542 110
818 448 137
766 434 143
575 269 66
549 243 65
470 205 80
641 315 103
719 372 204
677 315 125
421 161 35
377 160 55
483 236 100
389 185 78
431 238 116
648 506 444
575 500 539
958 851 882
2028 1910 1868
632 478 395
417 273 194
554 339 206
318 159 75
295 154 95
351 201 131
324 181 115
354 211 140
329 195 133
320 195 135
454 317 251
678 633 687
1978 2151 2525
1821 2245 2792
2018 2625 3217
1723 2340 2900
1866 2555 3216
2023 2785 3603
2153 3043 3990
2207 3170 4095
2175 3151 4095
2147 3179 4095
2116 3132 4012
2030 3059 3979
2030 3004 3898
1972 2959 3865
2111 3112 4033
2026 3012 3918
1999 2959 3892
2057 3086 4006
2057 3059 4006
1999 2986 3918
2030 3032 3952
2057 3059 4006
102 59 15
121 76 13
223 162 69
163 115 31
426 343 134
408 317 114
322 257 95
341 273 125
591 479 149
248 185 45
206 156 31
146 110 35
142 106 32
105 73 13
119 81 18
142 101 28
160 115 42
87 53 7
87 53 9
107 69 21
112 74 23
132 86 29
152 99 38
120 69 14
226 156 73
291 193 80
247 147 33
350 229 65
301 191 62
340 230 84
175 98 35
110 48 1
111 48 8
210 123 32
363 228 68
269 153 41
479 313 79
401 240 52
469 290 51
381 234 46
667 442 119
753 501 100
785 528 153
718 465 227
706 432 185
773 437 185
861 521 197
1264 745 178
1216 782 244
868 510 144
685 327 101
560 261 59
666 323 86
682 351 134
882 495 185
1294 818 496
744 368 133
453 178 41
416 180 65
655 396 247
604 374 225
486 299 168
261 165 116
475 374 380
1422 1273 1243
818 676 599
408 266 167
347 198 111
400 229 114
449 254 157
245 101 41
356 211 138
352 187 119
303 165 104
778 621 530
560 399 320
844 697 616
893 764 751
1181 1280 1542
1484 1907 2431
2064 2716 3383
2352 3110 3839
2365 3203 4072
2330 3203 4095
2239 3158 4095
2235 3198 4095
2175 3179 4095
2143 3132 4094
2057 3032 3952
2057 3086 4006
1999 2986 3918
2057 3059 3979
2111 3112 4060
2026 3012 3918
2084 3112 4060
2057 3059 3952
2084 3112 4033
2084 3086 4006
2026 3012 3918
2026 3012 3918
94 54 8
139 86 19
139 91 15
206 144 37
522 387 139
814 647 190
1083 919 333
747 597 248
1223 990 388
796 605 226
258 185 41
125 91 23
110 78 14
105 73 15
115 77 18
137 95 26
160 115 31
165 124 36
174 126 47
106 69 18
107 69 18
107 70 20
118 79 23
130 84 31
136 90 27
158 105 38
104 58 0
200 122 18
434 311 124
186 101 12
205 121 28
259 165 57
142 71 14
176 95 30
409 296 117
303 191 57
391 263 65
678 498 142
552 383 110
397 251 69
303 183 64
770 584 182
710 484 171
216 110 31
503 295 115
810 491 151
1289 885 285
1065 674 198
990 589 178
885 535 147
842 472 148
994 606 200
650 323 105
494 219 96
1011 595 248
943 538 207
679 334 106
651 351 151
636 368 242
1258 959 826
947 708 592
623 432 311
243 133 85
364 267 265
1386 1256 1205
872 710 661
1432 1232 1153
726 519 427
369 213 133
367 196 114
352 194 103
381 215 122
313 160 76
399 253 165
639 480 384
592 429 331
1085 923 863
947 810 741
1347 1478 1732
2045 2507 3076
2653 3285 4010
2491 3291 4029
2484 3353 4095
2359 3262 4095
2297 3273 4095
2235 3226 4095
2175 3151 4095
2143 3132 4067
2089 3105 4039
2084 3059 3979
2030 3059 3952
2026 3012 3918
2057 3032 3952
2084 3086 4006
2057 3059 4006
2057 3059 4033
2057 3059 4033
2111 3112 4087
2111 3086 4006
2026 3012 3918
104 59 11
177 117 40
232 170 73
229 168 65
242 175 36
188 123 18
275 188 51
286 193 45
249 142 44
294 181 77
162 117 30
102 71 11
79 51 5
121 86 27
153 114 44
130 94 28
119 84 12
278 221 95
179 132 36
101 69 13
95 63 12
90 59 14
108 73 23
116 84 31
101 68 14
89 61 12
84 58 9
112 79 16
246 181 78
101 58 4
157 96 23
333 244 106
163 88 27
164 91 22
253 161 51
297 185 48
284 184 45
891 697 277
620 446 116
254 145 56
238 144 51
585 417 119
442 286 70
241 146 49
430 259 98
570 332 96
504 261 79
608 303 87
931 530 143
751 410 144
635 319 130
987 595 230
569 268 110
709 376 133
885 514 187
611 295 61
778 429 165
714 404 188
972 676 577
669 493 472
616 469 425
354 214 146
181 88 44
304 203 166
1046 892 858
1295 1155 1084
1397 1236 1135
368 226 169
1221 1020 838
561 384 257
931 651 412
524 327 196
315 170 87
376 228 134
459 308 203
639 473 326
813 635 559
933 758 711
1616 1721 1961
2092 2537 3060
1905 2525 3115
2067 2819 3544
2484 3323 4095
2421 3337 4095
2297 3216 4095
2235 3226 4095
2116 3078 3984
2143 3132 4094
2116 3132 4067
2084 3086 4060
2084 3112 4033
2111 3112 4033
2026 3012 3918
2026 3012 3918
2057 3086 4006
2084 3086 4060
2030 3059 3979
2084 3086 4033
2084 3059 4033
2084 3086 4006
161 105 39
115 71 11
128 82 16
185 131 35
186 136 35
120 83 8
131 95 19
92 61 6
75 50 2
84 59 9
93 65 14
103 78 26
81 54 12
75 51 8
84 61 13
95 66 16
109 78 17
152 117 43
95 67 11
93 69 12
90 63 11
86 58 13
97 72 18
138 108 35
139 110 45
87 63 12
72 49 7
81 54 11
75 50 5
79 54 10
98 67 5
193 142 42
234 167 59
135 80 6
136 81 21
130 71 17
164 89 33
238 142 49
520 383 105
425 281 67
421 291 117
325 197 67
483 332 109
386 250 46
323 186 91
588 356 96
481 260 68
643 374 96
623 332 89
778 425 189
761 399 174
714 370 111
757 429 191
774 409 131
748 412 140
945 577 243
816 489 241
369 181 58
237 106 43
298 162 85
248 131 66
282 166 109
211 107 66
395 266 204
599 469 408
1408 1242 1160
748 590 520
265 147 100
697 532 427
494 351 205
867 601 344
505 334 208
406 258 163
491 333 243
459 318 226
629 476 352
277 156 91
526 421 372
946 1013 1159
1358 1754 2264
1422 1966 2523
1641 2348 3027
2214 3071 3957
2330 3203 4095
2297 3216 4095
2207 3226 4095
2147 3151 4072
2116 3078 3984
2116 3078 4039
2111 3086 4006
2084 3086 4006
2084 3086 3979
2084 3086 4006
2138 3167 4087
2138 3167 4060
2111 3112 4033
2111 3086 4006
2111 3112 4006
2026 3039 3972
2084 3059 4006
257 188 55
139 91 13
140 91 10
217 163 42
141 99 19
90 63 7
88 61 11
79 57 9
74 54 7
72 51 7
80 61 9
82 62 14
83 59 13
80 59 15
75 56 10
80 56 11
81 57 8
112 89 24
117 91 21
180 150 60
123 96 26
81 62 7
110 84 16
101 71 6
110 84 18
98 73 14
83 59 10
78 58 10
68 50 7
76 54 7
108 83 21
183 137 40
184 139 34
132 84 10
215 140 33
351 254 84
473 331 89
286 178 57
679 520 187
586 414 99
485 333 104
304 186 61
902 706 245
564 387 114
509 322 86
430 241 44
451 256 75
421 200 37
488 249 75
563 304 121
668 386 157
419 177 73
825 524 314
545 249 108
719 430 222
579 288 107
499 241 88
317 159 63
320 172 88
236 113 39
473 310 188
461 300 213
321 193 128
213 111 68
296 180 125
602 455 400
226 123 85
463 341 296
591 449 393
1041 897 798
732 583 485
1024 891 791
1287 1119 1023
683 572 579
816 733 834
1145 1076 1107
801 751 774
996 996 1017
1457 1593 1794
1558 1965 2461
1874 2465 3071
2023 2775 3484
2185 3041 3898
2392 3277 4095
2359 3319 4095
2267 3244 4095
2175 3151 4072
2116 3105 4012
2143 3159 4067
2116 3105 4039
2111 3086 4033
2084 3086 4006
2111 3112 4033
2138 3140 4087
2111 3112 4006
2084 3140 4060
2111 3112 4033
2111 3112 4006
1999 3012 3918
2026 3012 3918
184 125 25
122 80 5
289 231 110
313 247 114
101 66 7
82 52 7
93 67 18
95 73 18
88 69 14
120 98 35
252 232 111
87 63 13
71 54 12
70 54 7
81 61 10
87 66 13
76 57 8
106 84 21
188 158 61
213 177 70
117 95 18
80 61 1
115 89 16
264 227 79
311 264 87
170 134 43
125 97 27
135 110 43
89 69 14
126 98 30
143 109 33
152 114 21
248 196 70
154 103 15
307 234 82
327 227 59
548 404 83
593 445 109
521 363 73
491 328 80
372 238 63
286 165 33
423 276 56
352 205 52
432 271 72
383 220 37
290 150 24
245 110 40
265 131 48
573 340 123
454 224 53
254 98 25
363 157 45
731 450 235
719 405 191
679 396 235
393 188 82
277 136 77
473 302 208
369 217 122
357 207 82
433 261 138
316 188 118
276 170 117
194 102 56
192 106 59
252 153 110
281 189 159
463 342 280
675 556 503
1146 1013 951
2026 1928 1977
2155 2021 2040
1895 1832 1885
1685 1659 1906
1153 1198 1434
2842 2962 3238
2255 2463 2703
2291 2571 2899
2005 2455 2994
2368 2968 3599
2618 3397 4095
2614 3506 4095
2183 3029 3873
1826 2678 3500
2122 2999 3905
2354 3330 4095
2264 3254 4095
2203 3179 4095
2143 3159 4067
2084 3059 4006
2084 3059 3979
2111 3112 4006
2111 3112 4033
2138 3112 4033
2111 3086 4006
2111 3140 4060
2138 3167 4060
2057 3086 4006
2084 3086 4006
172 113 32
195 144 43
96 63 7
86 53 5
79 50 10
71 45 8
83 58 9
103 79 20
95 71 19
100 77 16
82 63 7
68 50 6
65 47 6
85 65 13
99 77 22
100 82 22
93 70 16
82 62 6
81 61 2
188 165 74
88 76 7
93 91 23
76 60 122
454 401 169
486 422 155
290 251 103
123 96 16
117 91 16
101 79 13
95 73 10
110 84 13
163 128 32
141 106 12
177 129 13
586 490 181
328 236 48
566 428 108
720 563 134
1120 898 215
570 390 76
251 149 45
305 186 30
321 190 40
299 172 37
458 290 88
372 218 54
333 189 50
399 244 83
348 194 69
664 461 188
741 499 219
298 132 47
395 205 80
868 567 318
391 176 75
510 289 159
572 370 253
730 528 424
683 505 362
582 396 243
257 125 31
461 299 169
305 180 96
181 96 49
156 78 37
158 83 40
184 109 67
219 139 100
217 128 78
352 246 160
620 487 358
609 491 459
1158 1069 1142
1648 1572 1672
1253 1230 1391
2236 2337 2774
2842 3083 3600
2641 2953 3445
3039 3472 4095
3019 3544 4095
2494 3039 3678
1992 2525 3130
1907 2461 3072
1488 2030 2599
736 1180 1671
1386 2066 2825
2066 2943 3849
2267 3301 4095
2203 3207 4095
2143 3132 4094
2111 3112 4033
2198 3188 4095
2111 3086 4006
2084 3059 3979
2111 3112 4006
2053 3039 3946
2111 3086 4006
2111 3140 4033
2053 3039 3946
2111 3112 4033
93 59 3
107 74 11
99 65 13
116 81 24
74 46 7
86 54 12
126 97 43
94 74 20
69 51 8
76 57 13
99 78 23
147 119 55
77 59 9
90 69 15
79 59 8
90 70 10
189 166 74
104 82 14
72 56 3
69 52 124
112 113 35
173 210 70
78 65 123
75 55 116
75 56 116
95 71 1
151 122 29
103 77 12
94 72 13
84 68 9
83 63 8
163 128 27
186 151 47
180 126 32
466 393 131
278 201 57
524 404 120
622 467 123
1218 989 269
738 538 117
249 153 42
348 221 57
243 142 47
278 161 42
302 165 46
299 165 32
215 106 20
216 116 20
332 190 57
597 366 124
359 181 62
432 254 82
413 234 76
451 257 94
395 220 108
390 209 67
375 211 103
491 309 189
873 648 522
956 716 548
310 171 76
183 100 41
267 176 99
264 178 111
249 160 93
220 142 81
269 186 130
350 275 228
437 352 289
474 387 329
580 442 304
526 376 279
433 310 289
420 345 369
690 693 786
1347 1452 1706
1094 1247 1498
2271 2575 2943
2672 3029 3564
2670 3135 3743
1631 2038 2489
619 853 1081
499 701 923
632 863 1121
778 1142 1481
1055 1640 2276
1638 2409 3207
1786 2693 3599
2147 3124 4072
2231 3207 4095
2143 3132 4067
2111 3086 3979
2111 3112 4033
2053 3012 3918
2111 3140 4006
2138 3140 4060
2166 3140 4087
2111 3086 4060
2111 3140 4060
2079 3093 3972
104 71 15
124 92 32
100 70 15
153 113 34
221 169 63
134 91 28
113 84 32
82 63 13
64 48 6
57 40 4
71 52 10
72 52 8
86 62 10
106 84 25
106 86 19
114 93 25
122 101 26
124 101 29
99 82 18
94 77 17
55 45 56
86 74 4
238 208 84
144 118 20
106 81 2
195 161 37
346 297 105
114 88 11
81 61 5
94 76 13
116 89 12
123 101 23
135 105 11
268 204 57
418 380 159
184 135 40
148 104 22
197 131 42
383 273 67
813 646 192
381 263 58
456 333 104
285 179 38
276 171 45
288 173 47
297 194 73
359 234 106
154 71 17
227 113 41
617 419 166
491 296 113
443 269 95
418 245 81
209 103 48
378 214 71
532 340 161
353 183 63
381 238 119
674 446 286
568 352 246
301 167 76
179 110 59
195 127 70
156 94 45
241 173 114
311 246 186
659 599 529
869 818 827
1243 1181 1154
605 539 531
539 429 363
564 423 318
498 378 292
414 330 306
819 825 941
748 840 1135
840 971 1220
1119 1339 1572
1484 1834 2228
1988 2337 2746
971 1279 1647
630 880 1154
642 870 1057
713 964 1081
879 1254 1519
1168 1771 2336
1240 1950 2674
2009 2943 3849
2203 3207 4095
2203 3207 4095
2143 3132 4067
2111 3086 4060
2138 3112 4060
2053 3039 3946
2138 3112 4033
2138 3140 4060
2111 3112 4033
2138 3112 4033
2111 3112 4033
2084 3059 4033
108 80 23
108 76 22
108 77 15
196 152 46
421 331 148
212 155 62
75 54 10
86 63 15
77 59 17
60 44 2
82 63 6
87 64 4
99 74 12
113 87 22
160 132 55
99 79 19
70 54 6
94 76 15
125 106 31
93 76 17
52 45 1
75 63 0
152 124 28
168 140 32
191 156 31
376 318 93
219 179 32
95 71 1
97 76 10
91 71 6
95 75 3
120 93 11
159 126 26
223 176 43
180 137 17
170 127 18
223 165 31
301 242 77
229 164 34
230 165 37
187 128 17
200 143 22
190 124 30
239 165 54
171 104 14
189 119 28
178 99 23
204 119 67
472 324 156
274 146 38
211 95 31
258 130 44
375 214 66
190 90 20
221 114 46
267 143 30
339 206 81
261 142 32
230 130 38
197 112 40
167 101 46
210 152 104
128 84 43
130 87 43
137 93 54
363 322 307
1798 1789 1838
2486 2525 2784
2276 2276 2389
1047 1031 1079
763 728 735
711 656 598
732 683 640
913 886 852
807 846 945
1174 1386 1705
1891 2138 2537
1594 1890 2214
2447 2767 3103
1926 2245 2655
1668 2008 2392
1550 1852 2282
1717 2052 2461
1585 1995 2433
978 1449 1894
1937 2612 3301
2067 2871 3732
2359 3348 4095
2120 3095 4016
2175 3151 4095
2170 3159 4094
2138 3112 4033
2138 3140 4087
2138 3112 4060
2111 3112 4033
2111 3086 4006
2166 3167 4087
2166 3167 4095
2138 3167 4095
2166 3140 4087
99 72 19
91 63 16
82 57 11
124 95 24
170 128 44
81 54 6
60 41 4
62 45 4
65 46 2
93 71 7
165 134 38
395 346 160
194 160 62
97 78 5
160 132 39
86 67 7
51 37 0
54 41 2
61 50 2
59 50 4
76 64 13
134 112 28
112 90 16
166 137 24
205 171 38
243 202 46
239 196 61
109 84 2
130 104 17
140 113 23
105 80 6
112 87 7
167 133 27
203 164 35
118 90 7
110 82 9
153 113 8
328 260 83
183 128 22
329 268 78
149 108 20
171 123 20
268 202 82
301 223 89
202 133 32
236 156 46
190 125 31
150 78 55
1973 1785 1584
457 296 160
206 99 60
246 118 54
401 247 100
241 126 29
293 181 81
518 384 238
543 406 240
504 373 206
433 330 248
325 244 193
193 138 94
402 357 331
119 82 51
136 95 61
151 116 76
203 170 150
599 581 610
707 687 731
505 491 499
426 476 524
2169 2252 2387
2159 2276 2392
1615 1738 1915
1957 2131 2368
2892 3194 3548
3216 3574 4067
3043 3447 3968
2723 3084 3593
3199 3557 3966
2543 2851 3191
1435 1679 1995
1194 1443 1786
1443 1726 2108
2094 2550 3217
2429 3122 3875
2185 2908 3706
2038 2871 3675
1703 2596 3476
2063 3040 3988
2231 3235 4095
2170 3188 4095
2138 3112 4033
2166 3112 4087
2138 3140 4087
2079 3039 3918
2111 3112 4033
2138 3167 4087
2192 3194 4087
2111 3112 4033
2111 3140 4033
82 54 12
78 53 13
73 50 13
79 54 12
99 73 18
77 53 10
66 45 2
103 70 15
135 101 23
117 90 26
141 113 16
159 134 30
137 109 17
109 82 7
123 90 16
137 112 27
134 108 30
74 62 2
72 62 7
54 44 0
87 74 15
133 110 28
174 139 35
160 122 22
144 114 15
152 122 19
152 115 18
141 114 17
160 131 26
181 147 39
175 147 35
123 101 15
113 89 0
146 115 13
192 153 32
195 151 25
227 179 49
125 88 0
117 84 5
254 200 54
260 203 59
156 111 13
180 124 23
233 166 46
222 151 36
143 86 1
172 105 23
231 146 48
499 347 186
433 289 134
905 700 373
978 719 398
700 517 343
303 183 94
392 290 210
692 592 566
1046 953 915
784 671 514
438 356 261
362 303 262
473 429 376
442 409 380
256 217 177
161 125 79
184 145 110
207 181 174
290 266 282
468 448 470
989 1028 1083
1474 1660 1847
2320 2556 2791
2154 2413 2672
2122 2463 2884
1406 1736 2171
2127 2511 3071
2607 3022 3521
2010 2322 2665
2255 2526 2910
1715 1926 2245
1259 1386 1577
1035 1157 1292
738 850 1007
618 743 832
1472 1825 2193
1528 2094 2731
953 1538 2149
1246 1955 2690
1868 2817 3682
2207 3226 4095
2231 3207 4095
2198 3188 4094
2111 3086 4006
2166 3140 4060
2133 3065 3972
2079 3039 3946
2138 3140 4060
2053 3039 3946
2138 3112 4033
2138 3167 4060
2111 3112 4033
84 58 17
84 59 19
69 46 9
69 48 9
104 77 22
115 81 10
141 100 13
761 635 254
640 523 198
122 88 7
136 109 13
151 117 22
127 95 11
99 74 0
123 99 18
119 95 19
125 104 19
176 154 56
206 190 71
80 67 7
64 49 5
65 49 115
95 72 0
325 253 91
209 135 42
122 88 8
167 135 36
285 249 105
154 128 20
125 100 11
153 122 27
139 108 13
140 113 20
153 122 16
209 170 31
209 163 28
164 122 15
158 116 25
150 108 15
161 123 21
170 127 19
124 83 234
151 100 23
246 170 40
178 118 20
183 118 25
337 243 70
532 407 138
631 447 145
403 251 61
585 383 98
816 563 350
771 524 331
283 180 118
852 807 816
1736 1798 2175
1777 1850 2247
584 546 466
341 280 160
191 161 120
207 166 128
223 186 151
207 177 138
342 311 271
539 506 485
349 336 343
830 834 925
2233 2288 2638
1648 1782 2153
3318 3568 4095
3456 3703 4095
2363 2625 3019
2624 2973 3455
3233 3625 4095
2268 2705 3240
1911 2274 2747
1362 1661 2005
2170 2429 2754
1213 1263 1399
479 424 419
618 585 505
1315 1415 1386
651 725 651
636 827 999
889 1348 1881
1768 2504 3339
2153 3014 3905
2325 3301 4095
2320 3311 4095
2170 3159 4095
2226 3242 4095
2166 3140 4033
2138 3140 4060
2166 3167 4095
2105 3065 3972
2105 3093 3999
2105 3119 3999
2105 3093 3972
2133 3093 4025
2026 3012 3865
70 49 11
79 54 16
77 53 12
75 49 9
96 66 16
257 198 70
466 373 123
534 417 119
361 245 51
616 503 214
182 123 8
259 196 47
467 397 125
223 175 40
176 146 37
141 112 25
79 60 120
75 56 120
81 70 5
75 61 2
96 73 9
115 94 27
84 65 4
702 596 282
1019 847 456
132 94 15
102 74 4
143 116 16
137 111 17
129 104 15
144 118 24
188 156 28
141 110 10
135 105 9
180 143 22
211 161 16
156 114 9
143 102 10
132 98 10
163 120 19
127 92 12
137 93 9
330 266 118
312 228 48
474 378 129
431 330 100
221 133 35
245 143 27
486 341 97
642 424 114
783 512 193
705 436 213
785 568 404
820 708 646
2501 2468 2511
3293 3405 3766
1906 1989 2255
1221 1221 1267
363 324 275
448 428 411
546 542 566
336 316 267
201 191 150
373 361 357
332 329 315
521 502 525
650 642 685
931 955 1028
1799 1946 2135
3194 3410 3663
2842 3134 3565
2538 2875 3295
2589 2925 3447
2858 3295 3918
3114 3522 4095
3242 3590 4095
2910 3207 3695
2341 2474 2740
697 659 664
538 484 463
400 364 361
1623 1752 1821
858 988 1034
969 1259 1524
1435 2063 2760
2550 3429 4095
2387 3348 4095
2264 3226 4095
2259 3263 4095
2226 3215 4094
2198 3188 4095
2166 3112 4033
2192 3194 4095
2192 3167 4095
2138 3140 4060
2138 3112 4060
2166 3167 4087
2079 3065 3946
2166 3167 4060
2138 3112 4033
75 54 12
73 50 10
76 52 13
81 56 16
76 52 10
114 84 8
329 273 100
179 131 24
139 91 4
130 73 5
303 220 71
489 376 107
376 298 70
582 508 167
275 235 96
348 304 133
117 89 9
103 84 12
103 80 7
124 99 22
143 112 27
140 113 30
117 93 17
144 113 52
194 144 28
124 95 10
117 89 9
118 93 9
132 106 16
114 90 9
131 103 9
184 146 28
261 219 80
673 593 233
231 185 49
315 231 55
478 372 107
165 117 22
140 92 14
143 98 8
125 82 4
169 114 14
408 329 116
370 277 84
420 321 101
395 290 103
232 154 49
252 159 37
402 257 56
423 233 50
418 208 86
466 249 80
404 250 119
592 513 441
715 732 776
2270 2290 2437
983 1029 1217
3189 3189 3476
284 256 237
365 335 286
793 780 788
623 614 589
394 407 390
316 349 369
739 773 782
1428 1436 1465
828 820 869
385 374 371
951 987 996
1929 1998 2205
1731 1933 2337
1893 2126 2624
2399 2638 3132
1483 1720 2148
2502 2688 3132
1695 1887 2255
1631 1767 2039
1266 1274 1366
528 459 428
490 432 372
676 651 641
1519 1669 1818
1736 2051 2320
2446 2976 3538
2307 3247 4095
2484 3473 4095
2359 3319 4095
2320 3311 4095
2170 3159 4039
2226 3215 4095
2138 3112 4006
2138 3112 4006
2192 3140 4060
2219 3194 4095
2138 3140 4060
2166 3167 4060
2166 3194 4095
2138 3112 4006
2192 3194 4087
2166 3140 4006
92 67 14
104 81 26
76 52 12
86 57 15
84 61 12
107 74 10
236 190 90
130 95 6
134 95 15
468 359 131
819 652 244
381 287 70
303 235 68
420 346 93
80 59 115
259 219 81
214 178 46
157 121 24
188 155 51
154 117 18
124 91 13
103 80 15
114 89 9
104 78 8
105 82 9
117 94 14
141 118 23
142 111 21
394 339 116
164 132 34
99 75 112
158 128 15
602 525 184
736 657 230
124 92 2
196 158 51
378 312 150
525 421 159
815 634 260
193 135 29
152 105 14
204 146 30
421 330 86
315 223 57
307 217 79
190 119 20
286 185 77
358 238 59
334 191 66
1071 747 292
589 335 159
273 131 63
338 196 85
484 396 337
419 451 559
564 630 780
526 563 684
1085 1094 1213
220 180 153
469 421 339
382 353 308
735 719 710
299 340 339
1510 1587 1850
1292 1386 1745
615 659 813
1080 1063 1089
318 296 312
1140 1140 1140
738 727 734
341 319 367
930 946 1076
1200 1168 1215
1773 1723 1790
1777 1710 1752
995 920 988
711 638 645
538 458 404
546 464 375
659 593 485
763 750 703
762 846 911
1266 1556 1796
2200 2761 3293
2552 3506 4095
2421 3426 4095
2297 3301 4095
2292 3311 4095
2143 3105 4039
2138 3112 4006
2192 3167 4060
2166 3167 4087
2166 3167 4087
2192 3194 4095
2219 3194 4095
2159 3119 4025
2166 3167 4060
2166 3140 4060
2166 3167 4060
2111 3086 4006
109 85 17
165 133 55
100 70 15
101 71 21
97 65 16
99 70 23
141 113 48
256 225 102
234 185 50
438 352 151
140 88 10
136 93 11
351 282 113
194 148 30
109 79 5
275 229 87
121 93 12
97 71 1
182 144 36
225 179 55
158 127 38
104 81 2
116 93 8
186 155 53
147 117 25
119 97 18
159 129 31
239 195 45
1169 1076 435
1009 882 340
92 70 7
171 141 41
207 157 36
135 100 14
135 101 9
290 231 76
873 768 359
260 191 36
408 320 94
181 120 21
169 115 23
285 209 61
421 330 117
384 277 89
336 247 86
260 175 62
323 214 73
367 243 95
318 183 66
1673 1166 553
2310 1584 677
289 135 48
376 244 121
323 240 183
648 634 748
688 732 814
461 478 513
432 404 398
335 291 230
511 461 373
447 441 424
1362 1371 1344
1929 1949 1998
339 416 534
275 308 409
281 267 291
747 730 705
149 126 105
572 530 496
501 429 345
401 315 231
356 260 187
351 250 158
994 857 746
801 664 542
599 463 338
536 409 289
574 476 395
1160 1084 1015
571 497 452
779 729 719
615 692 731
1586 1921 2213
2291 2883 3490
2395 3353 4095
2450 3484 4095
2320 3339 4095
2287 3318 4095
2226 3215 4095
2192 3167 4087
2166 3140 4060
2166 3167 4060
2192 3194 4095
2133 3119 3999
2192 3194 4060
2105 3065 3972
2166 3167 4087
2105 3093 3946
2138 3112 4033
2133 3065 3972
114 88 13
99 74 10
110 79 15
110 81 22
104 74 19
87 60 13
77 51 5
101 75 11
159 121 24
190 144 43
99 68 12
97 68 18
75 51 4
149 119 45
122 90 19
163 123 25
160 125 34
95 70 3
144 110 25
145 111 14
257 212 68
165 130 20
122 91 3
260 222 75
198 181 63
128 101 15
222 192 72
275 237 73
404 359 170
1039 898 362
165 130 28
140 111 25
193 155 52
143 113 37
144 109 35
150 109 15
237 178 45
125 80 5
199 141 38
108 61 7
115 66 12
161 103 25
148 88 18
172 107 32
230 150 43
273 195 86
326 231 93
291 169 51
254 136 39
643 358 149
1938 1272 582
339 167 58
336 213 100
247 164 105
215 184 191
1039 1077 1221
1150 1160 1338
509 466 461
164 128 84
395 385 404
1723 1743 1948
1686 1705 1735
1352 1371 1455
2216 2277 2536
936 936 1005
325 286 293
600 559 535
568 525 521
277 226 203
466 382 305
564 447 326
270 169 79
323 211 106
365 246 124
388 255 129
411 273 149
486 342 190
482 370 269
274 196 125
363 302 256
616 601 594
967 1083 1163
610 877 1070
1218 1759 2219
2185 3130 3986
2210 3216 4095
2292 3311 4095
2287 3291 4095
2192 3140 4060
2246 3221 4095
2192 3167 4087
2166 3167 4060
2192 3194 4060
2192 3194 4060
2166 3167 4033
2159 3119 4025
2105 3065 3972
2219 3221 4095
2105 3093 3946
2166 3140 4060
101 80 8
98 73 7
126 94 24
142 109 30
154 114 45
97 68 20
101 72 17
80 57 7
75 50 1
82 53 0
74 46 3
86 59 16
88 63 17
93 69 15
101 75 17
90 65 9
111 86 13
111 81 12
74 51 1
89 65 2
154 120 16
160 127 16
165 132 17
241 211 71
201 192 40
118 96 11
233 202 104
281 242 108
211 177 57
242 211 99
144 119 51
272 223 121
947 857 442
1194 1073 450
591 502 158
156 116 24
156 106 25
133 84 22
85 48 5
98 57 9
175 114 38
190 122 36
162 101 23
188 121 38
224 150 61
256 166 54
230 151 53
283 194 78
180 97 21
139 66 18
391 237 76
205 106 27
213 127 56
169 101 51
137 96 59
527 482 490
923 904 914
270 219 175
181 138 95
313 291 307
572 595 756
2029 2079 2190
2437 2446 2499
1297 1305 1483
994 958 1074
623 539 503
471 364 299
493 416 353
243 159 106
323 238 162
821 692 502
406 292 183
528 405 313
572 442 365
564 429 320
410 273 162
511 395 233
664 537 374
566 482 380
720 669 642
1075 1124 1146
2181 2431 2680
1608 2023 2311
1380 1989 2463
1924 2830 3623
2151 3113 3990
2287 3291 4095
2287 3291 4095
2253 3242 4095
2219 3221 4087
2192 3167 4060
2192 3167 4060
2159 3119 4025
2192 3221 4095
2219 3194 4060
2166 3167 4033
2192 3194 4087
2192 3221 4087
2166 3112 4006
2192 3194 4087
162 129 34
117 87 13
114 87 17
153 121 44
119 88 26
96 67 20
158 118 48
129 94 32
101 73 15
98 66 5
135 99 26
91 63 13
93 64 15
99 74 19
101 75 20
95 70 14
104 74 11
141 107 30
124 94 10
148 112 13
230 188 50
168 130 15
162 128 29
223 181 60
154 123 30
109 88 17
153 125 28
276 231 61
215 180 49
119 96 25
195 171 96
269 242 180
195 153 54
703 639 325
487 394 118
473 402 155
357 274 97
257 196 75
322 250 128
170 111 31
218 141 45
195 133 42
213 142 49
253 176 68
624 522 345
356 256 102
286 205 79
175 106 26
121 64 14
135 74 22
229 154 76
128 66 16
229 160 95
138 80 36
423 370 313
1630 1575 1575
740 667 627
200 149 105
744 680 654
1344 1315 1344
630 681 818
1411 1411 1545
1029 962 990
652 554 530
325 225 206
290 190 137
285 182 103
227 140 66
266 177 109
197 112 45
635 539 435
884 748 646
1217 1082 991
546 442 376
292 181 107
261 169 91
368 273 170
410 318 203
521 449 406
912 891 898
1202 1294 1429
2337 2759 3117
2805 3459 4052
2363 3130 3780
2387 3319 4095
2348 3339 4095
2226 3215 4067
2192 3194 4033
2280 3269 4095
2253 3242 4095
2166 3112 4006
1972 2932 3785
2192 3167 4060
2133 3119 3972
2219 3221 4095
2219 3221 4087
2192 3194 4095
2192 3167 4087
2166 3167 4060
2166 3140 4033
147 114 25
114 80 11
111 81 19
80 54 7
80 53 11
86 59 18
95 67 21
94 66 13
108 72 8
278 232 118
272 212 81
124 89 17
68 44 6
88 60 13
99 73 19
83 60 9
90 63 2
192 147 33
190 145 38
214 173 42
231 179 26
296 243 70
261 211 81
1157 993 393
1191 1078 439
293 244 58
211 178 43
248 207 72
244 209 90
79 65 12
118 103 46
134 119 70
127 98 44
219 173 103
109 69 20
191 132 45
589 509 266
116 68 17
114 68 13
180 116 25
211 137 44
147 85 8
172 110 30
180 111 24
206 132 37
234 156 43
333 243 113
214 143 53
111 64 16
119 65 18
212 145 80
130 67 21
153 91 37
138 80 36
344 279 223
374 305 273
189 127 87
379 304 246
1440 1391 1420
1771 1771 1853
2186 2153 2132
1450 1412 1334
920 806 775
373 256 213
380 287 240
352 247 183
303 208 138
252 167 106
373 280 211
369 287 202
360 255 155
599 480 395
1250 1113 994
222 133 79
203 119 57
442 355 263
324 228 149
343 267 189
883 825 774
2573 2606 2707
3010 3447 3767
2719 3391 3983
2805 3584 4095
2599 3426 4095
2382 3301 4095
2348 3339 4095
2259 3235 4095
2226 3215 4094
2192 3140 4006
2280 3269 4095
2053 2986 3865
2057 3059 3952
2219 3194 4087
2192 3167 4060
2192 3194 4087
2246 3248 4095
2192 3194 4060
2105 3093 3946
2133 3093 3946
2192 3167 4033
164 127 33
106 78 6
93 66 8
88 60 13
79 53 8
73 46 1
98 71 10
113 80 18
123 85 13
156 114 23
279 219 75
255 197 80
91 60 13
86 56 13
97 64 17
91 64 9
123 88 31
409 309 98
421 329 128
124 87 0
185 142 18
141 107 9
164 132 44
238 184 68
546 470 171
366 318 101
837 735 276
376 311 76
254 212 59
140 123 39
112 97 48
150 125 55
129 101 22
270 209 76
122 78 10
164 109 29
198 138 49
178 119 39
223 158 73
184 120 27
182 114 20
197 127 25
227 157 40
273 186 61
241 168 57
254 172 50
216 140 35
153 93 25
131 78 42
348 280 224
241 170 108
136 79 33
221 153 105
359 274 211
174 118 75
157 104 64
200 142 80
565 433 336
890 792 741
659 562 497
594 504 394
351 264 183
433 323 273
178 98 61
355 265 221
472 386 348
1120 1024 939
514 436 357
607 538 462
689 594 468
403 293 170
419 304 223
380 265 172
374 275 208
354 261 181
1268 1152 992
1065 955 860
472 391 303
1012 946 910
1089 1110 1110
2805 3231 3593
2618 3225 3833
2640 3368 4095
2568 3395 4095
2440 3359 4095
2314 3263 4095
2280 3269 4094
2280 3269 4095
2138 3112 4006
2219 3194 4033
2138 3140 4033
1972 2932 3785
2280 3269 4095
2192 3194 4060
2219 3221 4087
2246 3221 4095
2192 3194 4087
2192 3194 4087
2192 3194 4060
2159 3145 3972
125 91 8
111 82 7
87 64 10
83 57 11
101 76 20
150 113 39
228 187 60
204 153 47
198 141 65
283 205 68
231 173 32
125 87 10
111 79 21
85 55 10
100 68 14
140 103 34
335 267 95
690 539 135
673 533 175
199 150 39
159 118 18
153 122 43
111 86 22
145 115 38
289 239 68
381 324 126
797 664 187
968 838 246
719 628 196
345 298 97
160 132 34
144 116 30
95 74 9
192 146 40
230 174 50
205 144 39
228 170 71
205 139 46
123 71 8
157 98 17
273 199 52
340 239 54
315 220 47
512 404 137
390 290 77
269 178 73
299 209 86
212 147 73
119 78 67
1881 1773 1704
503 445 367
149 91 58
201 136 65
303 211 104
376 297 223
130 82 48
329 273 211
473 367 253
623 501 400
455 353 244
226 146 77
197 137 89
241 181 141
211 160 109
212 162 105
196 158 117
329 293 238
706 672 578
676 610 510
620 540 410
409 343 247
480 409 337
684 592 480
1605 1540 1477
971 907 830
2441 2345 2212
1462 1404 1295
1011 937 819
1534 1496 1442
1306 1342 1334
2510 2906 3236
1848 2431 2882
2574 3323 4072
2563 3378 4095
2469 3387 4095
2314 3291 4095
2343 3347 4095
2253 3242 4094
2246 3194 4060
2219 3194 4060
2166 3112 3979
1576 2466 3255
2219 3167 4060
2219 3194 4087
2192 3194 4060
2192 3194 4033
2192 3167 4033
2212 3172 4052
2166 3140 4006
2192 3194 4060
253 205 53
127 94 16
119 89 25
96 65 14
81 56 7
126 89 12
441 390 164
401 330 116
390 300 191
1390 1166 640
306 190 82
106 68 3
88 58 9
106 73 13
144 108 28
248 196 82
527 446 195
554 452 117
816 729 277
342 271 72
176 135 19
236 196 59
118 91 15
200 169 68
530 478 305
753 652 256
728 615 197
726 626 179
908 776 264
137 114 67
331 283 110
280 240 108
224 191 91
70 48 0
497 434 233
641 535 192
303 230 56
250 178 51
391 304 154
241 169 66
457 344 164
686 542 211
753 591 241
444 333 124
555 440 159
275 185 66
414 297 160
401 312 216
97 58 42
530 495 449
401 368 330
513 452 396
325 254 172
602 463 303
313 219 133
120 81 44
274 230 190
376 315 264
454 390 319
390 321 244
192 137 81
200 149 99
473 419 379
525 484 450
461 432 390
927 947 909
672 681 672
544 528 454
1070 1042 959
644 619 595
651 672 735
1714 1743 1986
1678 1716 1764
819 828 875
1437 1429 1420
1498 1506 1523
1099 1045 922
1055 961 677
710 639 458
1521 1564 1631
2540 2805 3164
1838 2253 2684
2151 2646 3212
2033 2638 3256
2259 2984 3793
2057 2869 3682
2308 3215 4067
2280 3215 4094
2274 3221 4087
2219 3167 4006
1946 2852 3705
1811 2756 3570
2246 3221 4087
2246 3194 4060
2219 3194 4060
2246 3248 4095
2246 3248 4095
2246 3221 4087
2246 3221 4095
2246 3194 4087
206 144 53
158 109 23
201 145 43
261 194 59
221 158 32
387 301 130
372 287 126
176 119 17
195 140 46
198 139 44
241 175 65
507 411 253
122 82 2
111 78 18
122 92 28
115 81 21
94 67 12
129 99 30
170 131 56
175 137 56
173 135 45
319 268 144
511 428 264
154 124 34
102 75 13
121 94 23
132 104 17
328 264 97
417 328 135
323 240 61
595 483 230
520 401 133
606 470 162
705 576 246
527 440 135
652 555 154
1251 1138 545
1391 1305 724
1123 1064 552
321 347 130
304 360 116
403 494 163
561 669 252
1063 1146 674
374 395 117
232 238 55
158 161 33
322 306 97
910 882 496
505 489 185
224 225 47
168 169 35
135 139 17
240 242 56
560 560 262
468 481 176
465 465 165
218 231 65
1403 1566 787
2314 2484 1260
1250 1452 348
1634 1931 685
1703 1911 659
1888 2058 736
2434 2557 1164
1841 1874 755
2091 2099 923
1735 1775 672
1761 1834 698
2504 2557 1358
2198 2249 1030
2167 2149 1000
2508 2397 1263
1071 992 267
867 792 175
952 871 244
873 798 238
751 697 183
639 595 126
804 809 206
753 851 188
534 644 169
203 298 54
1063 1259 488
2480 2792 1217
2898 3193 1346
1477 1638 505
718 809 225
853 893 183
1712 1712 909
783 747 230
626 600 121
1305 1230 577
992 869 352
1226 1060 430
852 722 250
727 633 277
323 264 98
275 234 62
662 612 281
184 127 35
309 237 85
689 599 324
576 502 229
314 242 93
583 492 274
353 280 117
173 118 21
169 117 35
172 117 34
173 121 31
311 245 122
98 64 2
93 66 16
94 68 14
96 69 19
89 63 14
95 73 19
137 108 35
179 147 61
139 110 28
420 364 227
655 575 401
121 94 16
85 64 10
96 75 15
114 87 20
242 190 68
596 515 290
240 171 44
533 427 194
624 502 214
701 567 236
666 555 211
556 505 160
1415 1366 624
1561 1491 690
1475 1436 771
1349 1368 800
580 649 231
526 662 246
733 882 434
1115 1309 674
1378 1487 897
430 444 140
275 269 60
273 258 57
850 823 459
1556 1478 970
954 902 500
258 228 43
139 130 17
103 98 8
166 166 33
193 190 43
277 284 89
659 659 315
543 556 164
1021 1244 437
1605 1923 688
2002 2306 929
1923 2276 864
1444 1703 495
1253 1360 298
1428 1521 410
1560 1623 519
1560 1623 551
1090 1119 279
1885 1917 806
3143 3180 1863
3279 3298 1871
1897 1846 719
1958 1869 758
1235 1119 295
1000 913 238
1257 1155 485
721 670 176
419 385 70
532 512 122
1315 1300 589
1151 1193 496
581 629 151
235 284 26
1117 1259 556
3167 3406 1823
2992 3183 1472
1431 1544 521
737 794 205
514 535 156
769 765 276
789 767 264
761 738 230
1111 1036 496
733 632 211
1094 988 464
674 583 219
469 400 163
212 179 43
165 150 34
301 288 85
223 161 51
513 419 192
872 756 353
882 843 379
278 217 75
463 392 189
447 375 198
198 146 39
177 130 38
138 93 16
127 88 15
207 163 76
89 64 8
86 61 11
89 62 14
84 64 12
86 64 14
89 63 11
124 94 34
181 149 66
149 113 35
215 175 77
301 259 144
89 65 5
86 65 14
92 70 18
105 82 24
147 113 30
316 263 129
166 118 17
397 329 122
735 639 311
579 479 153
648 581 193
1883 1861 1059
2053 2116 1015
1851 1883 859
1142 1160 505
907 1005 473
1152 1324 638
891 1091 451
969 1185 559
1508 1771 1027
1180 1312 730
384 397 104
507 485 191
428 403 128
939 894 518
1396 1333 841
824 767 395
400 359 142
220 194 61
140 120 15
129 120 21
143 134 29
225 225 73
725 733 372
783 852 309
1475 1829 751
2118 2601 1152
1869 2329 899
1634 2041 694
1383 1679 447
1253 1383 306
1451 1497 427
1536 1600 519
1761 1802 681
1223 1223 400
873 886 198
1795 1835 699
3260 3260 1851
2019 1949 679
2255 2091 724
2488 2256 1002
1467 1358 525
970 883 278
539 482 88
245 228 70
384 370 98
690 671 276
555 543 229
790 785 322
376 372 129
422 448 79
873 920 346
995 1044 311
767 826 232
911 944 323
570 583 156
433 426 72
510 490 111
533 511 151
570 517 193
550 496 188
879 820 464
362 312 76
198 179 43
160 144 32
145 135 31
164 162 35
304 225 102
610 499 232
903 773 292
1571 1535 803
425 380 143
330 283 67
280 224 78
155 113 18
250 204 92
198 151 55
115 80 7
191 153 72
93 64 9
87 62 14
91 68 18
93 70 19
86 64 14
89 63 14
103 76 22
137 106 38
183 156 76
140 105 34
158 126 54
97 71 11
88 70 18
88 70 20
100 83 26
96 74 17
103 78 15
113 87 17
230 191 60
662 581 278
552 481 134
851 814 300
1385 1466 646
2725 2905 1563
2376 2440 1327
828 901 261
1142 1244 575
2354 2476 1624
1480 1717 942
1953 2270 1388
2128 2375 1541
809 917 429
369 359 95
665 632 308
386 349 120
430 393 134
871 821 451
624 565 262
321 280 95
271 239 89
362 328 168
216 206 77
164 151 36
173 168 34
390 388 123
694 863 258
1881 2409 1073
1962 2513 1064
1482 2007 627
1958 2416 1005
1794 2159 812
1447 1639 463
1473 1567 465
1761 1852 691
1459 1506 504
1130 1144 313
1329 1375 367
2360 2413 1019
3536 3536 2034
2619 2508 1189
3703 3479 1944
3115 2892 1578
1494 1358 568
930 838 304
376 324 49
193 171 66
222 194 45
242 216 45
387 359 126
1346 1278 774
693 673 292
695 657 309
386 351 78
326 293 46
335 311 50
540 518 149
762 714 285
864 799 340
790 740 306
578 538 201
339 311 92
282 242 69
302 260 82
245 212 56
189 174 56
154 137 35
142 131 29
186 195 44
335 260 130
703 576 293
979 830 291
2655 2667 1560
1652 1675 744
1094 1072 458
295 254 67
153 112 18
210 173 65
205 166 63
102 73 3
180 144 65
97 71 16
82 62 14
87 68 17
111 82 28
91 69 17
91 68 16
103 79 28
123 94 34
183 156 76
167 129 54
202 168 90
120 91 28
83 66 13
79 61 12
89 70 18
87 70 13
80 63 11
92 72 12
128 98 15
334 280 93
638 581 252
1549 1506 889
634 679 246
1337 1445 585
1580 1650 662
833 904 233
1346 1434 781
1415 1547 829
1219 1418 749
1986 2201 1445
1259 1408 804
352 384 96
350 328 107
614 576 300
220 201 57
235 200 60
719 676 378
704 659 364
262 217 62
185 158 39
216 197 66
289 273 134
261 256 117
213 211 71
262 296 75
1131 1485 651
2013 2634 1241
2047 2625 1195
2330 2898 1394
2416 2954 1394
1897 2367 887
1819 2198 806
1778 2091 736
1542 1744 576
1159 1242 308
1386 1528 425
2675 2861 1263
2638 2898 1244
3142 3202 1756
2266 2211 1036
2752 2577 1445
2246 2054 1108
1113 965 348
745 627 224
683 591 246
444 394 161
158 134 22
174 156 31
386 358 99
956 924 503
540 528 214
403 388 131
284 264 60
395 390 149
275 258 75
384 356 102
1439 1389 853
1956 1870 1146
1394 1328 788
609 564 251
265 242 69
186 166 46
151 136 28
130 114 20
150 139 32
197 189 58
154 151 36
165 201 48
243 179 74
732 606 333
1406 1265 626
2778 2815 1667
2435 2493 1341
2069 2045 1175
665 608 245
288 238 76
213 171 64
163 126 38
121 91 17
129 102 30
91 71 14
82 62 11
79 57 8
87 64 14
93 70 17
93 69 17
105 80 24
140 109 51
194 160 89
211 179 90
180 149 70
128 104 33
82 60 10
84 66 14
84 67 16
82 65 12
85 64 14
99 78 7
275 243 120
242 212 87
359 330 186
1042 1022 528
325 355 240
2233 2329 1153
2565 2629 1341
1073 1095 395
869 892 380
764 809 343
555 588 195
683 715 303
471 491 142
274 269 65
242 225 59
457 433 178
256 230 65
327 291 88
617 573 289
601 556 289
325 284 107
185 152 40
129 114 16
145 130 27
182 176 56
266 282 110
556 718 274
1655 2164 1081
1871 2495 1101
2065 2663 1177
2490 3066 1542
1904 2452 1023
1231 1703 431
2227 2717 1141
2180 2664 1037
1494 1928 576
1465 1795 543
1819 2219 844
1958 2346 934
1801 2140 765
2390 2578 1316
1832 1815 875
1502 1364 575
1331 1166 487
1066 909 352
638 523 180
826 743 399
459 393 206
143 124 23
160 146 32
356 339 139
556 541 258
313 302 90
256 242 56
206 196 39
292 281 86
302 292 86
394 376 141
695 691 311
887 875 388
614 571 197
333 304 86
224 206 59
130 120 22
115 114 23
115 109 23
122 116 17
197 189 54
206 200 59
178 236 36
203 145 50
502 402 176
1420 1278 724
1928 1881 1117
946 952 341
1200 1179 546
1572 1479 1001
795 719 454
235 186 63
178 146 45
175 140 57
128 101 25
90 68 14
78 61 9
86 63 14
93 70 17
108 82 25
113 89 34
102 79 24
108 85 30
161 129 60
293 258 151
233 199 96
142 113 34
95 72 16
96 78 21
88 70 15
87 70 13
96 74 11
271 235 120
446 398 253
152 125 32
201 179 45
622 612 274
506 517 154
2883 2883 1676
2537 2526 1356
846 833 312
324 330 131
301 308 80
293 299 63
670 679 303
637 641 261
291 277 64
348 333 108
400 373 139
317 292 74
430 404 122
601 556 248
432 390 153
307 284 100
190 171 49
131 122 23
122 116 27
127 128 33
222 283 80
1321 1687 897
1848 2458 1200
1853 2477 1082
1992 2607 1159
1930 2502 1090
909 1329 328
460 790 191
1415 1917 650
1923 2416 899
1333 1795 435
2303 2787 1244
1799 2222 899
902 1277 282
812 1174 225
992 1213 378
879 902 294
1313 1193 532
1420 1250 589
1283 1109 550
504 385 130
321 244 70
280 233 79
146 126 21
135 126 24
213 195 57
362 353 144
255 241 73
208 205 52
205 202 52
260 255 62
315 305 90
324 315 94
339 319 91
341 335 86
311 289 75
242 216 55
184 169 43
113 108 19
105 102 17
133 139 32
202 211 55
297 300 96
284 285 84
238 329 183
174 119 33
315 238 83
657 546 242
361 292 132
990 904 519
1276 1182 773
1110 1011 652
693 619 349
862 797 599
622 561 411
140 114 30
157 128 49
102 80 20
78 61 9
84 67 16
86 67 14
99 80 21
111 88 30
104 85 27
95 73 21
127 98 33
327 284 161
354 315 164
185 152 56
97 75 9
86 65 14
120 96 33
147 123 48
213 182 78
321 285 166
204 176 67
133 107 23
254 234 86
652 628 242
579 565 149
930 920 327
1046 1007 438
440 419 113
227 217 64
182 190 48
228 226 56
1082 1076 611
1167 1167 633
540 523 205
424 400 137
293 270 62
294 288 88
634 661 277
655 667 267
394 390 123
373 351 154
201 197 62
131 122 26
122 116 24
117 128 40
530 691 348
1909 2328 1389
1981 2553 1257
1987 2656 1170
1974 2571 1014
1168 1720 403
704 1141 444
681 1047 222
548 957 146
1705 2228 748
1378 1845 592
1329 1846 711
2324 2858 1429
1605 2046 952
890 1252 401
830 1110 287
641 748 192
501 477 182
1086 957 381
1326 1166 593
468 347 84
257 190 91
271 226 59
168 149 27
157 143 30
152 143 27
241 232 79
344 330 147
154 152 30
190 185 48
373 363 137
271 258 58
319 309 91
311 299 84
298 276 74
294 269 75
329 305 116
196 182 51
120 114 20
97 100 7
180 187 53
370 393 153
425 442 169
366 389 128
506 684 334
227 176 74
359 290 128
612 523 309
299 234 105
562 489 279
564 491 254
421 357 135
564 502 265
1065 1024 787
828 792 629
105 82 5
188 159 77
126 104 35
86 64 16
78 61 14
78 61 11
91 74 17
109 86 27
83 65 16
95 76 23
116 89 26
275 236 122
458 393 211
297 259 123
102 81 9
84 63 12
85 68 13
178 154 67
344 306 188
305 268 155
130 105 14
177 150 59
1457 1400 824
3875 3755 2470
2246 2155 1251
327 294 106
436 414 137
233 216 58
147 143 32
178 183 59
316 322 86
1015 999 554
1222 1207 672
681 666 281
412 400 105
252 252 40
232 253 54
295 359 70
473 526 186
340 343 108
338 338 130
247 247 100
119 120 14
115 115 21
116 140 35
1071 1294 758
2077 2547 1494
1848 2458 1105
1969 2601 910
2496 3182 1105
2192 2843 836
2018 2641 789
1764 2276 793
1251 1761 435
2100 2638 1207
725 1111 333
382 761 291
1876 2453 1170
1798 2367 1137
1519 2020 929
1235 1619 626
744 890 255
405 462 294
974 931 283
1124 1023 435
940 812 394
425 367 119
397 349 116
276 244 61
200 180 52
185 164 70
185 173 45
263 256 91
156 154 41
242 232 79
830 824 530
475 471 197
295 293 72
278 276 64
269 254 60
330 297 100
369 336 131
220 200 48
212 205 67
197 198 54
187 195 44
259 278 70
306 320 88
316 358 87
617 778 207
246 199 93
362 291 152
562 480 299
335 276 142
131 100 13
166 128 34
291 252 83
577 539 298
584 546 323
230 201 80
89 70 0
154 139 56
124 107 38
80 67 14
82 70 16
83 70 17
90 76 18
109 95 33
82 64 13
94 75 26
102 84 19
254 224 124
330 284 135
349 312 168
117 91 16
84 67 10
88 67 9
172 148 69
194 171 74
218 197 90
164 138 37
190 164 51
1388 1320 767
3198 3125 2058
1285 1243 613
224 204 75
392 368 154
179 164 40
137 132 32
183 189 49
521 531 239
951 951 527
757 771 362
718 747 346
536 543 190
259 277 39
233 274 46
207 258 51
252 304 58
211 224 69
201 198 43
336 345 171
130 128 18
114 120 21
169 206 68
1464 1684 1099
1171 1533 705
943 1464 405
1632 2256 523
2733 3474 1053
3079 3878 1219
2864 3536 1185
1724 2225 697
1294 1736 567
752 1106 391
627 1035 269
473 853 197
1384 1958 803
1557 2109 959
1541 2073 926
1394 1801 778
606 867 220
1562 1781 724
2975 3062 1530
1314 1257 514
723 665 246
538 516 180
790 786 281
1101 1107 435
754 784 254
968 1021 401
456 454 171
171 164 37
143 140 31
186 181 41
852 846 542
926 910 536
313 323 79
267 272 59
256 251 59
302 280 87
704 671 380
440 404 179
205 193 48
218 214 67
194 203 44
256 274 76
216 245 54
486 525 207
336 380 87
200 153 59
388 330 193
494 427 279
154 110 28
101 76 14
115 93 14
235 217 70
572 581 316
219 221 71
80 79 0
107 105 19
184 178 70
109 108 23
79 75 14
81 72 15
89 80 26
90 81 23
89 80 17
81 72 16
88 79 23
102 90 25
154 137 54
128 102 28
251 222 117
125 109 25
87 71 10
123 101 30
130 114 44
120 98 22
167 140 49
170 151 39
252 223 82
469 431 183
514 478 187
220 199 64
193 170 50
381 358 154
182 162 47
163 159 36
358 388 139
901 958 534
1144 1229 684
521 561 186
525 549 196
627 660 299
349 390 98
263 327 53
321 402 88
281 328 83
213 229 62
198 195 54
412 429 209
122 124 14
123 124 26
190 218 62
495 616 277
339 516 148
1543 2067 705
1626 2258 473
2096 2762 609
2647 3339 1046
2706 3280 1264
1270 1702 524
516 752 274
218 398 225
1012 1515 551
1194 1693 702
1261 1827 704
1367 1904 804
1305 1823 723
1138 1543 616
391 639 210
2101 2463 879
3251 3432 1694
971 935 349
302 286 63
365 360 138
1827 1848 918
3463 3658 1938
2109 2292 933
1203 1362 453
1211 1284 485
206 202 64
130 131 22
159 170 33
388 416 158
460 499 178
282 319 67
267 281 63
282 268 67
261 240 50
870 824 507
820 790 442
173 158 54
145 142 28
165 169 29
171 179 25
227 252 43
871 916 467
489 513 195
323 274 172
273 219 113
164 124 39
88 60 6
90 69 12
113 95 21
339 343 130
377 418 165
169 213 96
186 219 79
227 252 110
441 460 238
186 180 62
92 89 17
78 78 12
88 88 24
93 95 25
91 92 19
90 87 17
89 87 10
99 91 17
127 115 35
131 122 33
236 218 110
119 103 21
90 78 5
186 173 80
106 90 21
110 94 18
145 126 33
257 227 100
279 259 115
177 154 40
184 174 47
146 134 26
189 168 42
496 461 216
326 300 134
350 360 91
436 490 145
1146 1303 740
2187 2395 1585
1203 1345 687
454 500 130
320 357 79
376 420 136
560 629 256
770 836 398
253 296 80
228 237 67
193 189 52
342 353 158
121 135 15
142 158 31
133 169 24
176 248 53
549 743 330
2054 2469 1135
1703 2164 545
1550 1972 449
888 1218 246
749 1064 236
696 1032 221
561 879 164
402 718 176
859 1371 389
1550 2128 963
1494 2047 914
1305 1823 768
1173 1693 608
1116 1511 607
508 751 431
2646 2866 1399
1181 1276 409
358 364 130
257 255 54
216 216 70
1227 1315 517
2167 2475 935
1817 2066 756
1176 1389 355
2667 2691 1482
344 344 153
117 123 12
185 218 68
334 391 79
272 339 52
228 273 38
263 287 55
326 315 83
339 311 91
666 620 313
1072 1011 599
221 203 38
141 139 19
187 194 46
170 185 46
184 203 17
340 362 111
296 312 76
294 244 148
197 152 65
124 88 22
96 66 14
82 64 9
103 90 21
541 544 270
1159 1244 711
792 884 442
331 390 138
190 218 54
281 287 117
189 185 56
128 123 36
88 84 17
84 86 15
96 103 21
228 279 111
419 494 197
414 473 189
218 249 81
109 120 33
189 200 81
329 329 167
185 183 53
159 144 38
241 233 111
112 102 20
133 119 22
248 227 87
362 333 164
205 182 68
140 127 29
219 206 68
132 119 23
279 256 88
669 628 302
849 831 311
1204 1244 597
553 652 149
1253 1417 723
2949 3263 2256
2513 2737 1765
780 860 334
235 269 37
264 299 65
519 569 238
502 547 214
107 133 54
389 396 185
268 277 81
302 334 105
234 292 59
207 257 48
221 286 57
304 413 120
202 299 112
409 602 161
1348 1642 505
1181 1455 423
554 718 179
553 794 131
876 1269 292
973 1499 363
1007 1532 363
1226 1843 529
1618 2210 940
1439 2009 843
1191 1719 643
1204 1711 624
875 1167 403
382 546 210
1054 1170 432
259 322 99
179 198 41
179 197 39
152 170 60
462 549 113
1284 1497 523
1448 1646 652
772 909 276
1675 1711 919
344 353 147
147 164 37
638 743 261
1444 1642 765
627 722 250
264 320 42
407 414 131
576 546 250
737 711 381
882 843 479
1120 1090 671
298 276 64
213 210 51
217 213 55
241 250 66
252 261 66
288 301 78
276 280 69
122 84 17
170 132 49
193 156 71
123 89 19
85 66 9
106 92 19
354 357 142
1123 1202 664
630 732 290
357 434 147
215 248 72
150 148 34
178 173 47
143 134 39
90 86 16
77 78 9
123 148 25
569 707 377
955 1163 570
968 1204 461
853 1033 432
141 229 98
171 257 98
601 703 359
737 805 444
203 219 57
262 278 102
243 257 90
186 190 65
433 432 190
463 465 183
816 832 487
286 296 80
271 265 80
132 120 28
385 361 150
711 674 302
1557 1638 798
2360 2525 1262
723 948 243
1340 1620 693
3272 3581 2454
3458 3710 2651
865 945 438
238 272 51
202 244 46
337 376 101
405 465 161
178 220 51
250 282 82
241 273 67
454 492 188
774 889 424
405 521 143
282 373 89
287 401 110
160 252 56
244 362 91
795 932 317
638 740 213
409 477 86
666 890 181
1638 2096 819
1822 2410 819
1932 2577 839
2158 2818 1078
1655 2210 828
1277 1847 661
1222 1765 661
1401 1929 790
766 1016 334
341 439 116
414 508 90
473 518 136
188 209 53
198 220 47
130 146 21
243 264 64
505 552 154
531 566 166
267 289 61
265 267 97
168 174 49
169 184 38
659 743 292
1819 1999 1063
613 711 256
271 306 52
866 829 486
1033 983 625
978 922 585
860 795 449
678 631 309
380 371 128
269 264 74
246 246 65
257 258 71
268 272 72
292 299 82
276 280 65
163 130 55
325 273 167
305 263 146
187 156 66
92 73 10
87 77 15
95 115 96
684 771 420
388 456 183
492 532 258
260 283 94
246 238 106
356 334 181
180 173 56
97 92 13
85 86 12
168 196 63
253 394 230
900 1140 547
929 1285 459
1126 1443 634
438 658 188
335 525 122
453 646 211
1060 1251 672
163 254 54
693 838 370
1180 1322 735
437 550 140
399 502 115
654 785 278
1099 1263 677
686 785 326
525 548 204
174 159 61
468 446 186
723 692 330
768 893 371
2553 2909 1256
1777 2133 642
1316 1636 489
1979 2219 1189
1935 2122 1189
359 427 114
253 297 62
242 302 56
229 304 48
376 459 133
488 579 190
373 468 115
423 517 158
318 410 95
375 498 131
509 726 173
959 1279 479
1105 1439 585
846 1181 388
555 774 182
310 391 70
281 324 64
339 392 87
815 971 390
1171 1511 599
2015 2529 967
2680 3390 1318
2566 3249 1242
1431 1979 631
784 1277 275
1257 1761 596
2002 2498 1173
934 1129 423
303 371 55
437 508 114
517 571 166
338 364 99
341 364 115
185 204 33
193 204 59
276 263 82
332 305 62
259 244 55
198 187 39
153 151 28
154 151 28
159 164 28
324 355 134
307 307 62
361 341 114
781 740 388
919 860 507
811 748 423
917 878 536
636 608 296
391 373 121
304 291 87
281 276 74
253 255 60
257 259 66
276 280 69
298 295 76
127 96 32
208 166 82
203 162 75
215 175 94
99 75 13
73 66 9
91 96 45
555 590 341
387 427 224
125 138 28
193 190 58
223 214 87
291 278 136
188 183 64
123 123 35
94 92 15
123 147 30
214 351 88
476 735 215
1282 1669 840
874 1233 459
845 1185 479
424 705 214
308 571 91
781 1124 385
527 840 259
2001 2336 1200
1893 2197 1114
824 1094 400
431 639 168
447 634 285
614 790 342
1694 1854 1106
970 996 511
370 360 113
517 485 217
550 526 200
575 702 325
2763 3223 1297
2897 3311 1200
2019 2359 789
1410 1638 628
738 853 330
627 719 262
425 491 153
367 486 118
223 337 49
242 353 58
586 757 271
1017 1289 587
1169 1489 703
491 756 230
817 1180 394
1268 1747 731
1709 2381 928
1936 2667 987
2034 2687 967
1076 1473 361
348 448 109
276 318 63
310 348 70
271 348 122
305 451 152
1629 1991 809
2815 3323 1523
2701 3182 1339
987 1296 360
539 811 139
703 1004 197
1420 1674 574
661 746 190
262 301 40
238 289 45
246 290 47
451 479 138
485 514 159
533 551 226
1249 1243 740
475 437 142
544 502 216
417 388 148
226 200 43
177 155 33
162 140 29
131 114 17
164 143 28
219 192 50
1328 1275 864
1220 1158 752
856 799 454
720 674 337
775 731 398
549 516 214
468 449 192
396 390 135
334 334 101
298 295 76
302 308 89
288 295 66
779 767 411
67 52 7
81 62 10
85 67 11
106 87 23
84 69 13
74 67 9
72 69 0
299 309 143
294 292 126
228 221 84
157 145 30
185 174 60
190 186 59
344 332 172
127 123 28
81 78 7
88 106 22
209 334 121
938 1205 631
920 1264 582
746 1076 395
853 1200 507
441 763 251
479 809 191
1532 1925 796
1958 2386 984
2351 2755 1247
1653 1998 837
747 1031 385
588 833 339
443 648 195
559 724 233
728 862 356
376 399 110
403 390 156
261 240 51
479 477 155
893 1077 411
2909 3369 1339
3034 3496 1235
2427 2731 1113
523 713 188
152 224 134
491 588 216
456 559 155
859 1044 446
483 677 181
282 449 78
357 543 113
897 1215 477
1538 1977 921
835 1210 403
595 957 239
849 1278 375
1897 2628 987
2128 2967 936
2419 3279 899
2128 2791 820
683 935 232
470 550 139
787 828 275
434 491 132
268 344 110
793 1010 304
1197 1420 527
1883 2079 1014
631 799 223
340 509 86
640 799 223
2595 2701 1381
1476 1505 619
324 340 111
316 351 97
272 324 185
737 791 272
1007 1031 448
633 633 256
1208 1203 659
621 583 255
384 344 106
273 240 56
202 174 39
223 188 50
180 157 40
154 132 23
164 137 31
220 186 88
1786 1724 1296
1181 1118 720
897 838 507
521 463 185
670 624 317
534 504 214
495 475 206
468 460 189
406 400 147
339 339 102
354 343 104
724 712 380
1259 1209 803
57 49 7
60 48 8
64 51 7
72 60 6
80 68 8
96 86 15
94 89 9
131 130 23
238 225 78
351 333 171
165 153 48
152 139 36
238 231 95
333 322 165
85 83 2
77 77 9
75 97 36
590 756 397
730 1006 476
321 550 106
533 817 274
775 1119 433
623 986 284
688 1041 239
1544 1953 757
1486 1911 556
1362 1689 622
661 922 230
417 661 178
964 1234 501
720 957 333
719 913 334
435 563 173
176 190 32
208 199 46
181 176 35
507 535 170
1165 1358 422
2629 3043 1262
2299 2659 919
1224 1528 295
359 563 89
170 268 90
259 365 74
518 703 263
1248 1628 769
955 1321 491
574 861 213
432 691 131
784 1109 389
1527 1971 890
1012 1394 491
220 447 187
355 638 263
3167 3891 2090
2739 3598 1219
2303 3162 682
2245 3065 702
1278 1858 295
1394 1734 401
1175 1366 417
601 749 170
369 516 118
504 676 103
357 540 131
566 700 193
303 414 74
256 339 56
914 991 300
3471 3515 2078
1375 1421 594
350 379 143
1189 1273 473
1493 1669 634
1471 1689 662
1314 1462 533
805 886 257
531 523 133
210 191 63
189 169 35
187 165 36
321 295 144
1610 1546 1157
778 729 430
189 152 49
152 125 29
188 161 47
585 522 227
539 484 151
530 469 214
327 287 74
501 457 204
513 480 209
414 395 145
455 436 183
411 405 149
369 359 118
620 586 289
1135 1128 740
503 483 209
67 58 12
68 56 10
71 60 8
89 79 11
169 157 55
296 289 102
282 282 111
244 225 78
266 240 91
183 155 36
127 108 21
123 104 19
258 241 128
175 162 58
82 76 9
96 89 22
80 102 51
869 1042 647
419 583 242
251 397 86
365 587 156
796 1119 463
720 1081 380
964 1349 424
2651 3134 1589
1979 2386 1059
696 992 217
384 613 93
587 853 240
971 1238 562
520 728 169
1262 1511 776
324 440 130
178 200 33
135 160 40
182 199 37
492 563 161
1689 1952 897
1476 1784 575
1207 1546 447
1695 2067 657
1347 1700 594
670 909 243
298 430 89
622 884 275
1329 1769 809
1355 1819 798
1083 1523 546
825 1192 349
1067 1419 552
1739 2118 1033
1073 1403 568
271 398 183
339 524 174
2791 3419 1719
3539 4095 1779
2439 3299 702
2199 3066 539
2019 2762 457
1385 1868 384
573 859 191
643 923 191
1222 1530 425
1449 1703 593
572 779 200
428 554 103
282 345 57
315 353 67
897 926 278
2536 2536 1231
1000 1031 243
334 381 139
701 810 287
1279 1571 451
1447 1813 520
1638 1971 617
1716 1894 826
380 388 74
186 174 42
165 149 35
158 142 36
540 505 305
2533 2453 1958
2160 2055 1645
279 233 110
138 104 34
246 202 92
801 735 367
519 460 180
444 400 178
256 224 59
279 248 80
319 286 105
222 204 38
269 254 62
321 297 98
442 406 154
1110 1092 736
425 399 199
174 163 41
70 64 16
78 74 16
95 89 15
132 134 43
586 674 208
1694 1867 876
1658 1831 841
735 740 253
305 265 84
239 205 72
207 184 77
123 104 22
125 111 27
135 121 37
82 76 11
89 81 15
106 128 24
439 544 271
165 259 86
253 364 103
356 556 161
639 964 343
597 950 280
1243 1647 718
1630 2074 952
1152 1532 585
1314 1639 751
515 755 182
559 797 216
542 768 313
388 595 236
2984 3253 2152
1116 1303 602
351 467 100
229 313 53
353 457 103
620 755 206
722 964 237
572 887 295
1523 1868 557
2239 2599 1078
1090 1430 357
624 916 166
488 733 153
756 1052 317
1138 1571 627
1411 1964 848
1469 2049 879
1299 1789 689
1298 1698 722
1502 1866 919
663 876 329
210 306 77
270 451 111
1900 2503 828
2858 3679 1219
2286 3086 628
2051 2879 414
2038 2762 476
1142 1614 300
633 984 255
906 1236 236
1874 2215 770
2029 2279 859
1727 1982 809
1037 1161 419
354 385 106
310 313 109
1805 1796 936
3168 3168 1819
1657 1734 685
539 601 128
909 1108 249
1775 2179 703
2346 2771 1031
2847 3203 1402
1903 2066 920
285 300 127
189 184 46
167 157 44
153 135 40
186 163 62
717 684 417
701 668 432
162 124 62
494 432 242
1326 1230 871
800 734 392
287 245 72
534 498 279
236 211 61
188 168 39
191 179 38
158 144 25
164 149 40
325 300 116
1152 1106 809
549 511 304
125 111 41
107 104 17
71 68 11
89 82 15
126 128 49
230 285 103
1216 1525 508
2510 3057 1255
2863 3306 1513
1740 1785 853
288 239 93
311 278 119
255 226 103
140 121 32
87 73 9
113 99 27
97 83 17
87 76 15
129 157 39
221 291 109
125 200 45
201 302 80
518 719 310
493 815 239
584 950 271
1109 1549 699
643 974 264
617 935 249
1573 1904 1086
415 628 124
421 653 94
1259 1569 699
1141 1366 556
1902 2132 1203
955 1129 395
910 1142 380
440 651 119
461 662 141
970 1181 361
1126 1412 357
1035 1400 460
2537 2988 1289
1421 1798 513
563 867 130
771 1117 262
613 893 234
761 1052 352
996 1401 508
1402 1964 818
1598 2222 941
1570 2114 909
1565 1985 941
963 1257 523
241 359 100
312 452 90
935 1271 308
1806 2295 734
2831 3499 1294
1816 2422 568
1932 2582 501
1900 2540 564
1670 2155 531
1796 2220 696
2359 2759 1019
2537 2844 1063
2435 2609 1063
2339 2504 1242
1054 1154 475
256 274 103
304 318 75
430 434 131
611 651 200
1102 1226 370
1421 1614 614
1819 2153 695
2589 3014 1173
2811 3175 1294
3000 3352 1511
1620 1788 721
403 424 113
176 169 35
144 133 26
124 116 27
111 98 25
142 118 41
116 87 27
101 78 21
609 556 342
1140 1085 732
380 326 113
272 237 77
562 523 304
202 174 40
170 149 32
146 137 25
175 160 40
424 397 215
908 869 621
658 617 388
165 141 43
96 87 12
89 84 10
79 84 8
108 113 31
449 494 188
1356 1540 696
2765 3295 1498
3377 4038 1711
2646 3012 1231
1411 1433 612
309 271 90
236 204 59
202 175 60
148 124 37
87 73 9
106 91 21
99 86 10
94 85 7
120 133 26
186 220 86
92 125 15
150 226 50
321 502 141
578 903 315
959 1369 579
1471 1894 952
738 1041 366
669 931 321
853 1132 505
401 622 133
1122 1454 527
2168 2495 1242
1956 2199 1149
1028 1229 514
626 816 188
1128 1368 510
647 884 190
321 513 131
1049 1296 353
1893 2293 731
2074 2549 830
3626 4095 1989
1376 1824 505
979 1384 299
844 1218 339
247 476 109
184 393 103
530 872 216
1002 1494 482
1782 2406 1039
1459 1966 837
1119 1466 607
313 465 139
129 189 56
450 648 139
1195 1566 543
1413 1834 458
1991 2400 924
1252 1601 443
1159 1485 343
1200 1531 356
1915 2305 828
2319 2759 1039
2599 3049 1104
2435 2762 981
1936 2034 731
1086 1195 443
371 437 160
297 310 112
426 441 141
214 232 77
249 310 102
1018 1235 356
2959 3332 1427
3311 3704 1532
2994 3318 1415
1693 1929 658
1238 1385 403
840 916 236
674 710 271
231 229 72
131 120 24
122 108 24
118 105 27
125 99 35
128 98 25
113 91 16
152 129 32
258 223 64
285 243 75
246 220 54
600 561 330
239 210 59
158 135 23
153 143 30
579 552 331
1042 1010 750
340 311 140
286 262 104
195 175 56
109 100 21
94 93 17
268 312 114
349 374 131
595 645 286
1044 1248 518
2155 2535 1116
3048 3365 1739
1392 1549 512
576 543 142
336 288 101
310 270 115
252 226 91
206 173 64
127 105 16
106 88 6
423 404 253
374 356 210
117 124 23
104 119 22
104 121 24
215 276 86
312 489 143
780 1076 474
1214 1591 763
1371 1674 847
724 982 357
361 547 131
229 360 71
245 396 121
1658 1958 899
1534 1778 751
505 675 189
292 422 89
376 539 112
840 1055 330
829 1066 286
436 642 152
1018 1279 321
1988 2409 749
1803 2305 550
2607 3146 1180
1886 2410 710
1630 2088 722
781 1133 326
175 365 107
243 458 60
903 1308 423
925 1368 366
1443 1862 784
914 1267 466
385 575 130
158 253 62
118 192 37
459 699 116
1077 1412 371
1302 1697 385
1495 1923 446
1260 1590 366
605 811 135
570 745 131
681 893 178
1174 1494 440
2442 2815 1180
2624 2900 1249
895 983 304
191 248 133
188 228 103
484 504 150
456 473 155
288 349 100
316 439 185
975 1279 348
3229 3684 1532
4043 4095 1948
1560 1784 612
376 469 122
321 388 118
400 456 209
387 408 107
171 164 37
147 138 32
146 134 36
177 154 57
573 542 346
367 332 153
228 200 64
152 129 32
177 161 36
273 247 88
220 192 38
500 475 246
337 311 113
162 146 16
205 189 43
642 618 375
295 272 104
99 86 3
265 249 113
192 180 62
100 94 13
88 87 13
482 573 224
385 418 160
148 173 42
118 167 44
472 551 178
1087 1133 439
761 714 211
437 378 89
220 177 73
245 210 54
294 254 104
373 338 174
237 204 68
151 126 22
442 404 211
404 379 194
138 138 24
90 99 15
133 144 34
421 468 232
574 719 353
815 1032 503
623 830 297
799 1015 404
914 1119 504
296 427 93
131 216 76
188 293 131
1120 1319 519
884 1068 366
415 567 152
427 583 152
384 555 112
597 797 183
881 1106 348
687 922 168
1135 1420 366
1897 2321 701
1667 2105 533
1745 2227 616
1959 2498 819
1719 2229 839
659 1002 254
217 411 79
409 669 114
962 1276 485
828 1124 348
857 1167 376
327 528 150
220 348 92
220 340 64
214 371 109
1044 1393 404
1330 1696 510
1504 1899 501
2184 2579 818
2455 2762 1063
1365 1579 454
692 801 242
504 588 196
284 368 63
1138 1279 433
2058 2193 1096
534 621 216
179 243 113
452 540 135
702 812 233
621 790 180
1005 1243 414
939 1227 356
1523 1858 649
3110 3377 1494
1958 2188 829
410 531 147
400 500 175
1049 1146 380
1757 1818 938
463 490 178
163 161 30
181 182 53
244 226 91
457 416 185
955 910 566
662 617 306
312 279 89
159 143 30
159 150 30
243 230 64
246 226 61
381 367 152
397 380 166
290 278 102
232 216 63
264 259 89
214 204 61
104 95 5
274 267 132
219 208 77
88 87 9
88 87 13
163 208 31
98 103 0
96 92 14
104 100 22
167 140 63
493 434 137
796 698 313
591 523 155
445 396 108
473 421 149
276 241 61
391 348 147
246 210 52
438 416 154
468 448 129
375 367 93
187 193 52
127 138 31
136 142 26
256 281 85
318 367 101
250 309 131
149 247 97
581 766 366
966 1215 527
315 441 111
215 319 91
374 496 119
1242 1418 723
621 771 224
860 1011 418
697 844 295
614 781 205
547 749 139
555 758 118
726 952 179
1302 1587 495
1543 1871 574
979 1313 395
1533 1919 470
2087 2557 909
1779 2295 869
647 922 195
324 466 98
571 763 221
513 680 192
339 493 100
314 467 100
206 336 82
263 392 79
267 398 71
715 950 303
1483 1800 685
1429 1789 509
1678 2053 606
2040 2470 722
2461 2761 984
1873 2069 837
498 567 154
309 363 93
188 225 35
436 488 173
556 613 217
237 286 80
276 356 78
745 904 286
1512 1903 654
1777 2273 781
2093 2647 948
2113 2569 889
1676 2019 600
1000 1209 295
351 468 80
341 440 112
1919 2049 1089
2975 3060 1691
2470 2502 1329
634 652 205
203 200 48
250 252 82
1122 1108 731
3559 3471 2785
4095 4086 3320
2933 2817 2212
852 811 476
206 194 44
184 175 36
205 200 46
205 200 37
266 256 74
294 287 93
281 278 102
149 143 19
140 140 23
198 194 71
101 97 5
242 241 116
189 184 69
94 94 11
97 102 16
144 184 32
84 86 10
91 82 18
110 97 23
213 169 42
644 555 244
873 747 351
654 585 195
964 894 434
919 879 454
235 213 124
258 224 45
332 313 86
832 854 347
1528 1608 774
947 1057 334
809 904 308
406 444 138
157 159 35
298 304 98
411 428 156
278 328 124
240 337 89
1229 1429 719
1506 1705 889
533 677 181
500 647 178
591 728 216
847 971 452
304 403 87
532 656 222
407 527 135
674 820 238
1385 1647 677
878 1159 289
1059 1322 371
1457 1753 638
766 988 176
1093 1305 316
2449 2680 1214
2596 2921 1277
1987 2256 963
596 702 231
466 493 118
596 621 206
333 360 120
250 312 77
599 758 246
506 673 193
278 428 96
233 372 70
661 857 249
1254 1527 556
1274 1587 546
1239 1569 440
1787 2119 695
1663 1894 690
958 1103 386
435 503 128
168 206 60
246 305 76
316 372 125
203 234 55
188 230 54
318 397 82
898 1119 440
2360 2938 1180
2467 3115 1133
2427 3014 1031
2049 2519 820
1123 1457 307
777 996 222
280 368 116
274 365 85
1323 1442 681
2289 2376 1273
1915 1968 973
581 595 168
348 343 90
651 647 339
3803 3781 3095
4095 4095 3457
4095 4095 3396
2189 2123 1452
535 506 200
303 310 100
235 242 62
233 240 63
225 231 50
280 280 85
262 268 80
222 235 63
109 111 12
86 91 8
94 95 7
97 97 13
105 107 16
100 107 16
116 117 24
116 117 19
184 211 43
89 83 14
87 78 14
110 93 20
303 247 108
990 869 500
947 825 410
549 480 94
491 459 114
444 420 132
318 309 79
641 612 256
339 342 91
524 580 274
1854 2034 971
1655 1925 681
1356 1511 569
581 652 201
167 182 111
733 759 361
513 547 159
319 370 69
563 681 219
1503 1688 880
1406 1578 758
613 778 208
1082 1239 606
887 1040 438
302 380 57
373 457 114
381 466 109
257 343 57
456 572 180
2315 2507 1479
1279 1493 663
1340 1611 550
2118 2394 1104
1144 1296 411
638 673 299
1275 1320 531
1254 1318 491
1077 1131 421
291 312 189
548 523 184
984 975 501
567 543 182
376 424 95
719 871 325
428 584 123
261 414 70
237 398 71
386 572 119
670 873 190
341 506 152
374 523 141
1142 1325 525
646 797 266
395 509 137
349 425 101
199 263 42
220 289 55
298 370 109
261 306 70
304 367 81
437 519 132
1185 1412 444
2324 2888 1108
2414 3049 1002
2387 2994 1051
2266 2751 1031
1968 2319 899
1129 1335 489
242 308 92
212 272 54
395 467 104
606 674 144
1148 1213 560
520 540 151
412 411 114
656 674 297
2105 2063 1513
2419 2365 1712
1790 1758 1151
609 580 236
391 397 109
308 326 105
242 260 72
267 290 84
280 301 93
281 305 89
217 237 57
180 186 36
122 127 16
87 92 10
101 102 13
109 110 18
104 105 18
105 107 18
127 130 34
135 140 31
165 188 38
96 90 18
88 79 14
106 84 25
431 356 185
1054 935 546
838 719 276
585 531 129
942 1005 327
878 958 346
1069 1104 499
1573 1551 845
325 346 61
290 373 311
1376 1573 641
2264 2537 1170
1299 1460 550
424 524 89
372 468 121
1101 1210 523
1374 1476 658
1180 1310 548
580 708 173
789 948 379
835 987 406
764 911 353
894 1049 475
715 848 339
333 386 79
848 925 457
399 460 123
267 343 63
274 367 72
812 947 409
848 1064 321
1831 2107 880
2778 3084 1508
2260 2396 1193
442 476 146
356 359 68
620 649 231
753 766 304
456 443 133
508 496 130
935 921 440
609 600 179
523 580 164
376 501 90
336 490 74
434 609 129
303 467 66
589 799 254
1277 1528 669
289 417 100
192 297 70
385 512 126
225 314 89
259 365 68
209 298 46
175 258 31
175 260 31
211 281 49
317 371 95
552 624 252
482 527 147
846 1011 263
2201 2678 1036
2324 2867 983
2189 2640 920
2118 2475 941
1599 1879 699
507 627 156
205 235 78
214 248 47
246 277 63
514 547 185
662 695 228
550 557 155
543 534 153
429 439 115
267 271 112
248 255 165
308 309 88
346 351 79
322 334 82
210 234 45
165 187 21
162 183 14
201 231 39
268 297 87
190 217 37
143 153 17
140 148 31
116 119 16
130 129 25
140 140 33
126 131 26
108 110 15
114 117 18
129 141 19
80 95 5
82 80 12
86 75 14
107 84 25
551 454 265
1391 1241 845
1365 1221 714
1005 942 327
2122 2310 950
2628 2997 1174
2066 2292 881
1069 1129 434
433 455 131
339 415 308
1442 1555 818
1339 1499 639
442 576 166
571 713 145
1055 1250 393
1358 1569 485
2128 2353 1074
2268 2458 1270
715 827 246
310 391 86
264 372 88
356 475 109
395 511 143
242 311 47
214 251 70
575 638 294
344 408 111
375 457 145
328 399 107
295 380 99
998 1210 381
2336 2553 1287
2553 2770 1427
2028 2122 1107
465 500 143
223 248 31
382 419 107
524 551 184
580 617 222
789 824 308
1768 1841 994
957 1063 367
505 626 98
513 668 124
479 655 141
352 524 91
252 410 84
931 1166 390
1339 1580 690
334 454 107
201 302 54
266 375 69
247 360 70
219 330 51
177 270 32
168 265 28
176 271 31
214 285 50
301 354 81
637 697 343
306 327 72
597 611 135
2097 2194 941
2440 2514 1133
1650 1679 583
1337 1366 576
657 679 221
218 221 71
219 220 44
252 256 62
173 183 29
363 366 130
495 497 157
1121 1121 598
1075 1071 553
525 543 167
790 823 338
697 719 253
453 495 113
329 365 57
302 335 63
204 234 42
163 199 29
184 217 37
202 241 37
245 282 65
215 254 49
164 191 30
143 160 20
147 155 21
160 172 31
185 193 38
185 193 38
155 158 28
136 149 24
329 370 137
79 84 15
78 74 14
81 74 14
103 84 21
373 302 149
1439 1320 909
1196 1063 578
1134 1044 375
2601 2818 1278
3658 4095 1841
1350 1570 512
325 377 74
956 1005 541
568 621 272
599 679 286
429 502 150
197 268 70
811 982 351
2141 2469 1138
2391 2719 1215
2372 2700 1195
1660 1907 706
577 703 229
574 718 205
303 432 159
1340 1552 703
1080 1272 539
248 326 101
211 255 58
201 233 47
172 214 57
221 275 64
188 226 50
270 323 146
1752 1829 1016
2107 2151 1187
1109 1162 476
844 888 343
331 370 82
288 340 63
601 694 224
376 462 96
292 366 85
696 830 225
2533 2727 1425
1873 2107 835
1334 1678 434
1521 1790 620
841 1054 283
228 385 63
419 588 123
970 1191 444
568 736 206
181 263 88
190 288 40
250 363 60
280 392 83
198 309 46
171 261 32
179 283 33
188 287 37
283 342 90
308 317 95
281 268 66
222 199 43
365 329 93
1199 1109 519
1665 1532 807
1382 1244 642
791 697 295
447 389 127
321 278 74
388 341 119
284 266 67
171 168 22
184 180 35
179 180 63
298 306 88
378 385 99
342 382 48
637 747 224
894 996 319
747 867 229
472 583 103
325 383 81
248 311 52
245 305 53
273 339 70
256 329 64
273 339 62
284 354 77
236 315 56
179 237 33
181 238 63
319 383 123
333 399 151
304 356 102
283 341 79
201 263 52
434 527 173
75 80 15
73 69 12
75 69 11
95 78 16
233 168 50
824 687 353
970 834 384
1062 970 434
1509 1584 641
2705 2858 1458
540 652 173
210 246 47
423 466 183
231 257 54
190 222 55
293 338 95
344 444 124
1607 1960 883
2546 3066 1543
3178 3719 1999
2964 3477 1798
1227 1639 687
1412 1787 679
1634 2053 799
1384 1802 641
2661 3181 1535
2472 2844 1443
616 763 326
275 343 102
207 265 69
198 246 76
194 241 68
118 143 58
291 309 155
1492 1513 984
799 828 353
399 413 101
291 324 66
268 316 61
389 491 105
920 1086 404
741 903 285
247 338 62
696 848 252
2077 2314 1093
2332 2686 1028
2765 3249 1220
2840 3306 1420
1948 2237 877
538 716 164
370 519 94
661 840 281
483 639 212
126 213 86
234 362 67
270 403 68
247 360 67
205 320 51
192 292 37
203 300 42
211 311 43
236 281 59
382 373 157
253 231 73
178 158 36
238 200 51
446 383 127
1110 1003 602
1299 1140 729
661 553 252
316 257 73
382 316 102
883 819 483
416 378 122
197 180 32
187 183 44
158 157 32
152 157 27
197 209 39
304 358 50
795 943 314
1576 1750 807
1677 1872 869
1210 1415 537
752 890 252
297 405 99
332 444 85
318 435 80
300 425 69
339 464 71
306 432 77
516 724 217
938 1303 415
1025 1473 371
1935 2401 942
2256 2753 1034
1869 2259 839
810 1150 384
524 853 188
871 1265 311
72 82 14
71 68 9
87 82 20
133 115 46
191 138 27
683 560 257
865 731 347
698 616 241
601 588 179
830 858 370
215 252 67
152 188 34
179 217 47
186 231 59
197 245 59
249 304 82
1084 1288 599
3195 3722 2184
3379 3938 2199
3499 4095 2286
3180 3793 2034
2429 2989 1368
1684 2227 815
1485 2001 633
2219 2778 1140
2532 3034 1318
2646 2975 1508
1735 1915 941
998 1155 533
685 828 342
693 814 355
410 458 209
155 165 112
191 192 50
239 236 91
202 204 49
275 295 88
195 234 50
306 372 112
792 969 303
1406 1669 677
1089 1292 501
296 392 107
313 416 76
669 870 265
1268 1532 516
1607 1911 667
1811 2229 690
2175 2547 1006
665 887 239
220 360 92
389 535 90
848 1054 385
260 428 217
363 588 108
805 1119 346
1021 1305 434
393 565 176
183 269 45
208 295 47
226 307 54
226 267 56
280 255 95
207 187 54
145 125 22
139 119 21
302 247 79
679 578 266
889 771 433
683 591 278
325 257 79
420 352 114
1005 925 556
578 539 215
230 216 47
188 183 44
147 151 30
116 128 15
134 148 30
485 558 167
979 1143 482
652 844 285
617 839 299
994 1244 362
1327 1590 565
1038 1333 390
529 762 147
331 519 86
548 805 204
993 1302 405
413 680 166
846 1273 372
1646 2342 859
1650 2419 760
2079 2898 919
3809 4095 1991
3868 4095 2172
2679 3478 1379
1055 1778 312
1098 1832 401
164 186 59
78 80 0
95 91 17
118 100 27
152 111 29
614 505 245
781 657 336
699 635 344
430 422 172
185 208 61
113 154 26
166 221 40
186 246 58
185 251 57
283 405 128
702 880 258
1665 1948 969
3338 3883 2306
3339 3938 2199
3519 4095 2306
3218 3878 2079
2584 3202 1562
1419 1958 626
1394 1921 697
1932 2538 1053
1777 2261 889
1138 1374 498
908 1091 475
1242 1427 723
1284 1509 769
1508 1642 938
559 620 268
228 233 75
165 168 50
117 119 27
145 152 30
283 315 104
357 419 148
1486 1658 839
2240 2498 1233
1969 2222 1048
957 1133 432
238 307 84
200 244 40
293 399 91
376 555 139
635 851 118
1511 1847 602
1063 1374 385
222 421 70
231 373 105
371 519 148
1133 1457 466
1466 1931 637
1665 2234 755
2361 2996 1290
1936 2515 940
1406 1807 617
533 671 217
193 246 37
209 258 51
227 241 71
215 202 72
160 145 32
158 143 31
223 190 58
505 449 215
720 636 296
949 853 510
1141 1032 656
630 539 225
526 438 164
871 790 414
691 641 283
445 432 151
200 197 43
160 166 32
141 151 30
123 141 26
407 468 147
444 588 156
303 490 108
816 1111 299
881 1226 220
881 1234 229
1236 1589 520
938 1296 366
353 632 147
849 1207 303
1484 1913 722
687 1105 200
887 1394 334
1105 1765 446
1244 1997 501
1476 2305 564
2429 3241 1185
2569 3319 1264
2401 3142 1229
1448 2225 518
1047 1846 326
367 432 144
216 249 90
102 109 22
77 71 2
115 90 15
496 417 185
603 508 237
456 393 159
207 200 48
129 153 25
153 202 38
176 256 51
176 280 53
291 481 136
1143 1476 619
996 1322 443
732 1041 259
1784 2322 1049
1793 2373 977
2000 2586 1192
2137 2750 1300
1526 2099 793
1018 1570 425
901 1444 358
1058 1587 493
1032 1494 479
458 617 263
161 234 93
372 454 133
904 1019 444
1040 1128 584
218 236 98
298 298 133
157 154 46
126 129 29
135 142 29
239 261 81
1043 1167 552
2668 2953 1662
2322 2568 1220
1234 1456 550
359 486 185
147 190 104
214 251 53
295 381 78
475 663 143
1689 2009 740
1436 1745 607
274 507 141
177 360 73
225 378 77
327 538 143
1503 1913 643
1985 2496 869
1872 2435 869
2155 2805 1108
1820 2470 858
2189 2693 1173
1566 1717 876
195 213 47
156 161 28
128 130 10
168 158 48
174 164 48
224 204 72
299 268 96
681 622 354
701 617 301
670 573 255
969 875 531
691 600 274
572 481 185
764 688 330
566 519 176
415 403 83
389 397 126
226 233 78
169 183 40
155 180 35
190 242 45
298 432 79
1019 1367 312
2245 2713 975
1550 2027 477
901 1302 200
739 1135 121
766 1193 164
640 1047 203
1916 2460 858
841 1279 317
338 711 173
339 757 129
651 1236 209
833 1527 283
979 1682 334
923 1634 287
1448 2225 536
1987 2843 873
1288 2077 386
776 1543 327
801 1004 366
812 948 452
165 194 109
90 91 122
168 143 28
471 404 188
423 362 128
268 233 57
147 157 33
160 197 49
172 250 56
188 293 54
193 362 130
875 1251 451
1529 2009 889
556 906 152
392 681 122
1305 1896 653
1779 2458 971
1526 2196 793
1185 1803 550
729 1264 263
674 1218 248
590 1102 220
753 1295 322
932 1403 488
422 601 263
161 189 109
148 157 50
637 646 307
467 450 173
164 148 85
332 335 164
132 127 29
124 127 24
197 221 47
409 486 139
988 1148 414
2212 2423 1259
1175 1393 460
499 667 96
306 451 151
280 383 77
226 291 60
298 375 53
1532 1784 733
2675 3125 1305
721 1047 283
201 418 62
198 401 49
275 484 96
629 942 243
1982 2487 920
2043 2498 879
1054 1514 449
1493 1991 682
1759 2292 909
1513 1894 740
563 671 197
143 152 46
151 148 30
106 104 11
139 134 36
144 135 33
209 187 62
332 300 126
566 509 249
679 578 256
584 478 164
685 584 236
567 468 155
707 618 262
613 539 197
568 556 127
741 777 196
1329 1418 619
534 574 191
170 200 62
162 200 33
164 215 43
626 852 238
2719 3356 1272
3575 4095 1541
2970 3645 1195
2018 2659 659
2295 2935 978
2333 2970 1138
1411 1984 485
2478 3138 1339
1305 1841 455
583 1017 251
245 569 132
301 745 129
699 1415 246
979 1734 368
755 1468 226
1150 1931 403
1853 2770 825
1516 2381 511
1047 1825 316
1281 1548 640
1060 1164 674
239 278 114
135 149 23
217 201 47
459 415 177
444 412 170
193 190 37
222 270 200
816 947 553
275 408 107
188 326 71
480 806 206
1359 1909 809
1405 1932 731
816 1227 317
757 1168 304
2044 2680 1292
2057 2782 1257
1564 2198 885
965 1549 422
587 1129 210
783 1352 320
647 1175 239
618 1135 242
822 1286 401
413 601 272
165 181 117
206 204 62
819 795 443
656 601 289
435 394 156
487 479 247
170 176 43
134 164 35
355 443 135
1466 1689 829
1091 1308 460
829 1036 321
498 705 308
1189 1476 548
1551 1855 848
1091 1394 531
476 702 166
252 373 115
1086 1376 398
1889 2308 760
763 1133 266
419 749 190
311 607 95
567 871 191
1543 1943 676
2158 2659 1059
1855 2254 859
1155 1522 523
1165 1494 523
1412 1709 690
724 914 304
196 231 87
154 152 25
137 138 23
99 96 9
125 113 24
118 111 18
143 126 27
313 289 128
406 366 140
833 734 358
1199 1049 508
1345 1195 593
948 819 278
855 763 246
653 618 208
1430 1533 555
2360 2639 983
1825 2079 702
596 736 195
189 251 46
174 223 39
173 259 79
1330 1777 609
3830 4095 1886
3544 4095 1524
2659 3358 1027
2198 2877 786
2422 3064 1064
1218 1745 460
501 907 179
649 1131 397
2844 3519 1596
1644 2221 883
248 590 164
322 763 193
698 1371 251
1007 1719 423
700 1379 251
717 1402 197
974 1744 243
1531 2402 487
2219 3119 843
572 813 347
203 293 94
153 195 47
156 181 33
239 239 61
407 410 161
421 424 167
197 238 58
425 533 247
1346 1528 1014
397 585 191
339 584 169
1345 1841 818
1215 1716 646
1023 1457 488
829 1211 406
687 1127 279
1650 2330 1027
1331 2046 758
893 1517 405
808 1439 327
1176 1854 617
1305 1975 697
1031 1666 485
729 1271 291
920 1412 483
362 539 240
172 192 78
234 229 84
882 843 487
780 700 380
1037 998 578
679 687 362
531 622 208
794 989 394
1359 1579 749
1811 2069 983
639 855 178
386 584 156
891 1208 335
2058 2577 1180
1758 2288 889
1552 2063 791
1137 1605 541
439 696 179
330 501 168
1383 1853 555
2214 2897 952
1827 2449 751
1318 1792 454
1412 1784 557
1657 2067 752
1120 1446 441
1144 1420 473
1794 2112 897
1354 1646 583
595 739 200
234 279 100
184 187 40
178 170 39
168 160 36
138 134 26
123 111 21
125 113 21
129 117 23
181 152 43
261 223 74
928 822 357
2507 2353 1309
2359 2239 1049
1605 1623 578
1218 1314 348
1457 1611 588
3390 3663 1841
3725 4095 1799
2616 3045 1093
1216 1526 503
280 441 123
271 399 143
225 376 146
1751 2301 772
3865 4095 1895
2146 2798 687
1630 2321 428
1736 2455 484
1352 1959 495
449 865 255
477 880 143
1605 2276 741
2126 2785 1054
819 1395 502
778 1395 275
1331 2020 563
990 1667 372
605 1218 225
572 1159 180
587 1226 180
919 1727 239
2091 3009 843
3202 4095 1464
352 609 114
176 272 59
142 196 33
145 185 33
230 261 73
252 297 77
222 270 59
164 223 46
225 326 115
354 493 163
343 534 132
1189 1608 699
1689 2184 1031
482 843 190
410 711 131
223 421 115
534 924 367
1166 1819 661
827 1485 381
735 1383 311
985 1678 500
1421 2164 805
1449 2211 799
1401 2116 780
994 1607 491
950 1401 526
218 373 123
189 216 34
242 229 92
701 670 330
500 425 150
1481 1429 920
1159 1189 529
1345 1665 744
1334 1719 727
1937 2322 1177
1905 2282 1078
627 910 253
461 729 110
996 1431 389
1608 2209 829
1408 2024 665
1217 1848 567
1207 1802 567
943 1402 423
168 364 174
1449 1938 649
2360 3208 931
2532 3369 1046
2373 2885 1166
801 1118 292
349 518 105
277 404 248
670 896 182
2193 2489 1096
1263 1495 530
332 417 101
202 233 41
152 157 18
166 158 31
178 171 39
174 167 33
150 134 23
137 126 20
150 133 30
165 143 35
218 193 66
1214 1138 498
3852 3788 2093
3195 3358 1395
2153 2410 809
1739 2001 606
1296 1554 463
1783 2037 824
2192 2527 1002
2165 2531 953
1666 2108 688
855 1311 279
1286 1778 542
1216 1735 536
2403 3125 979
2732 3534 957
1893 2717 493
2286 3116 728
2249 3039 772
1981 2743 694
1260 1906 456
812 1407 368
1490 2185 507
1471 2202 443
1994 2804 809
2559 3439 1219
2507 3338 1173
1367 2082 527
558 1116 191
437 932 129
409 987 218
1390 2266 532
1671 2576 644
1659 2473 609
963 1278 556
150 241 43
92 143 13
85 127 10
150 204 38
175 248 46
176 258 49
164 248 39
150 255 43
168 287 64
498 728 246
2222 2731 1460
2083 2630 1274
430 771 159
307 567 98
126 289 64
564 978 278
910 1578 467
827 1477 381
919 1620 450
1268 2046 705
1458 2248 826
1524 2315 876
1551 2303 859
1323 1956 701
608 966 281
215 373 60
280 384 91
264 295 52
701 670 321
348 291 107
1234 1199 687
1506 1580 775
1272 1665 652
1243 1689 637
1319 1709 669
1314 1698 662
941 1295 398
711 1033 219
1115 1560 464
1238 1848 571
1204 1834 536
1041 1648 425
1123 1702 498
1318 1839 641
280 510 260
1619 2105 771
2421 3167 993
2545 3187 1139
1084 1481 379
296 460 150
296 440 122
681 949 223
1714 2077 714
2447 2872 1071
1504 1775 646
313 388 146
251 284 52
158 158 15
147 138 14
239 229 56
270 245 73
196 181 39
177 163 35
160 152 32
177 163 41
211 194 72
1764 1784 935
3847 3990 2148
2851 3123 1327
1832 2082 616
1805 2145 652
916 1172 326
485 725 207
818 1139 259
1325 1695 444
1511 1945 550
1520 2154 517
2249 3142 789
2802 3776 957
3422 4095 1305
3457 4095 1252
3457 4095 1341
3063 3847 1166
2767 3586 1096
2985 3754 1305
2436 3150 1009
1597 2305 493
1350 2050 329
1388 2108 313
2480 3319 1113
2284 3103 995
1943 2686 838
1200 1801 496
350 742 159
250 626 135
714 1381 271
1277 2087 467
590 1276 422
843 1580 383
1127 1525 696
153 255 48
83 134 21
67 110 2
131 198 41
212 317 72
327 469 137
217 336 63
184 302 57
178 290 80
775 1049 399
2442 3043 1614
2407 3054 1517
1181 1702 581
656 1095 287
184 439 105
596 1054 267
968 1620 500
1033 1744 541
1199 1949 643
1394 2174 770
1514 2353 886
1669 2459 995
1491 2163 799
1006 1458 498
434 722 204
431 656 140
724 940 353
338 463 87
527 570 210
344 327 71
955 969 472
1168 1274 535
1122 1497 556
1176 1626 593
1053 1434 507
751 1159 253
1006 1393 470
626 955 171
1129 1580 460
1200 1819 562
1096 1728 454
1036 1642 403
1189 1802 520
1630 2137 868
757 1053 246
1796 2225 790
2414 2823 1166
1349 1693 588
328 553 165
249 380 109
683 951 236
1734 2134 838
2577 3151 1228
2867 3454 1172
2401 2670 1013
587 652 213
285 306 51
175 171 20
159 145 11
355 334 113
381 349 120
205 186 24
203 177 32
202 190 37
220 203 52
240 242 101
1207 1268 607
1663 1850 964
1941 2204 616
2245 2571 887
1915 2228 696
2029 2399 846
845 1103 429
375 604 246
1086 1475 380
817 1152 313
1509 2191 519
3104 4095 1199
3492 4095 1199
3795 4095 1462
3895 4095 1626
3394 4095 1218
2778 3556 932
2158 2872 762
1791 2463 527
2681 3468 1037
2245 2959 870
2064 2769 758
1912 2646 697
2070 2841 865
1018 1620 476
549 1017 267
405 767 165
239 530 116
223 585 107
1235 2026 506
1937 2843 869
1502 2321 484
1854 2730 670
1482 1882 946
471 657 228
258 383 119
129 216 46
219 327 89
477 629 278
1122 1332 779
968 1164 634
447 603 223
187 305 76
656 926 300
2069 2713 1385
2311 3101 1462
1986 2776 1253
1541 2302 862
839 1515 411
946 1564 378
1227 1879 574
1577 2311 815
1616 2379 854
1458 2286 809
1620 2499 956
1881 2610 1153
708 1060 313
179 344 114
246 461 80
903 1200 503
1374 1688 822
668 884 281
327 433 84
393 422 91
1039 1069 519
942 1025 336
781 1067 295
1071 1406 566
851 1134 409
467 763 124
947 1236 427
519 767 109
1129 1486 498
1353 1945 651
1263 1880 588
1195 1815 536
1314 1934 628
1457 1886 695
1018 1296 348
1240 1530 507
798 1062 246
409 617 125
305 452 84
317 460 68
1123 1427 469
2299 2719 1179
2537 3110 1207
2691 3187 1200
2410 2618 1024
1138 1152 386
343 318 90
239 203 31
240 203 26
341 293 68
368 308 80
335 286 74
335 306 90
269 250 55
230 210 46
300 321 80
848 976 308
1144 1424 477
1794 2172 652
2276 2699 934
1686 2087 517
2499 2915 1177
1091 1385 489
324 533 261
1121 1528 444
333 626 183
1444 2142 434
3272 4095 1252
3962 4095 1490
3810 4095 1376
3399 4095 1201
2939 3824 851
3022 3829 1116
1408 2015 548
1170 1845 533
2717 3468 1144
1695 2337 526
2046 2769 705
2010 2735 724
1569 2204 564
634 1054 237
492 853 141
323 659 107
243 570 105
349 807 239
1775 2681 724
2465 3519 1035
2508 3549 1022
2377 3307 911
925 1254 475
720 956 363
553 751 266
227 368 91
267 398 104
180 293 82
350 487 189
470 620 249
284 420 107
148 268 53
434 694 143
1129 1764 520
1577 2403 880
1539 2373 833
1521 2336 833
1503 2336 778
1465 2162 697
1670 2349 825
2569 3256 1355
2133 2844 1066
1717 2499 956
1589 2351 919
1133 1634 567
323 541 173
164 286 71
201 381 67
565 805 267
1255 1547 725
1179 1482 648
485 643 154
471 522 137
1016 1056 495
748 790 263
434 534 74
533 696 149
450 584 121
300 449 83
546 728 181
347 516 126
539 755 215
756 1070 331
1018 1431 467
1223 1655 601
1270 1693 601
686 978 226
805 1031 292
597 795 155
504 726 112
566 809 148
607 829 160
611 798 156
952 1227 358
1514 1853 679
1197 1501 473
1195 1421 380
1448 1533 543
1362 1303 651
665 602 244
756 687 350
848 761 419
724 635 295
643 556 228
663 590 248
588 520 188
524 463 132
378 342 130
583 635 191
1373 1639 746
2169 2629 916
2346 2875 881
1947 2438 677
1472 1951 472
1238 1689 443
797 1151 284
675 1057 347
1560 2064 646
924 1389 367
2044 2872 714
3160 4095 1064
3929 4095 1592
3279 4095 1150
2667 3623 708
3481 4095 1218
2555 3256 952
1076 1664 373
1975 2766 806
2181 2850 909
1303 1967 527
2434 3233 854
1974 2644 760
554 984 277
295 607 124
276 590 99
294 659 97
481 959 180
952 1678 300
2220 3218 903
2303 3325 854
2601 3586 1022
2697 3577 1082
583 810 281
572 780 276
462 662 204
272 450 106
384 565 165
156 258 87
86 145 19
111 180 46
160 271 53
613 956 300
1468 2090 846
2000 2839 1257
1593 2445 887
1539 2409 815
1519 2360 840
1501 2306 768
1557 2273 733
1605 2238 734
2024 2623 983
1339 1881 541
1155 1688 523
1054 1577 485
794 1242 303
411 651 203
182 305 107
214 382 60
195 372 65
624 867 281
1296 1631 770
1065 1335 562
518 594 143
659 654 236
757 747 300
551 553 151
429 448 70
442 463 104
274 334 50
253 370 53
460 645 152
701 969 375
414 669 248
257 458 204
469 688 206
931 1175 348
615 839 228
237 364 66
365 570 143
1439 1868 688
1743 2238 857
2030 2499 1034
1439 1811 624
636 888 221
597 819 197
257 366 170
379 428 89
551 540 168
445 391 107
324 273 54
408 339 111
417 344 176
457 373 121
536 444 165
529 454 148
613 551 198
789 718 278
935 909 270
1392 1584 704
2427 2989 996
2971 3585 1213
2576 3203 975
2202 2845 812
2133 2811 829
1287 1836 323
1272 1836 398
1177 1740 362
1654 2317 566
2288 3079 823
2862 3777 1050
3194 4095 1047
3503 4095 1167
2733 3737 888
3211 4095 1030
3846 4095 1614
2272 2970 698
1568 2250 542
1959 2617 773
933 1502 371
2180 3039 964
3045 3884 1268
1901 2517 778
492 911 218
281 566 141
240 550 86
524 969 186
1772 2591 819
2539 3498 1159
2499 3533 995
2333 3368 828
2490 3512 928
2336 3241 905
355 496 155
189 329 69
245 423 56
547 776 223
1230 1487 748
463 639 264
130 215 61
169 277 53
564 851 280
1514 2220 894
2351 3280 1561
2172 3086 1352
1519 2395 840
1519 2342 804
1519 2360 822
1557 2373 815
1530 2219 697
1569 2128 734
1166 1557 469
474 775 184
317 619 106
766 1191 361
1083 1542 604
647 996 366
235 397 206
208 367 135
139 283 35
270 440 79
974 1236 535
1469 1764 928
411 489 180
368 337 88
494 405 109
555 473 131
915 869 419
596 583 215
223 280 48
216 325 52
734 993 348
1438 1832 848
1161 1571 604
647 944 228
809 1083 331
948 1192 426
651 851 239
160 262 80
383 599 151
1932 2411 1074
2815 3416 1635
2815 3457 1511
2331 2805 1244
827 1168 243
1024 1321 397
919 1152 392
379 478 139
404 444 109
384 363 85
268 235 44
213 172 39
185 144 33
282 215 83
775 678 301
440 360 107
332 302 36
347 359 36
1143 1194 575
2029 2452 1093
2913 3611 1126
2839 3599 1076
2524 3262 909
2320 3065 795
2238 2989 751
1855 2574 543
1734 2395 566
1660 2298 512
2032 2735 687
3115 4038 1166
3307 4095 1166
3434 4095 1167
3516 4095 1183
3655 4095 1252
3599 4095 1358
3846 4095 1658
2850 3571 1133
1437 2003 657
735 1234 284
1303 1999 608
3008 3877 1368
2229 2917 891
2267 2934 952
1341 1861 503
433 798 149
274 600 111
512 951 197
1376 2082 568
2438 3379 1059
2539 3578 1039
2372 3413 867
2439 3487 933
1671 2436 608
102 181 15
137 252 50
287 487 113
849 1126 404
1133 1446 617
388 618 145
192 338 86
384 632 100
1210 1834 669
1772 2686 1105
1938 2841 1185
1702 2571 1014
1429 2276 741
1444 2245 748
1725 2550 990
1825 2671 1015
1512 2137 706
926 1319 408
338 607 123
231 477 102
197 465 73
359 747 152
780 1260 414
848 1249 449
556 792 294
272 433 168
183 328 64
192 335 54
604 761 288
1094 1238 668
315 339 129
405 354 108
668 565 253
724 630 319
470 401 155
216 213 49
197 263 48
203 326 46
479 760 221
1071 1537 576
1051 1494 501
935 1293 412
596 836 198
595 792 200
459 626 125
253 413 57
325 548 111
1050 1405 397
1815 2249 884
1891 2343 931
1975 2390 959
2004 2399 959
2659 3059 1519
1788 2145 931
520 718 306
730 851 230
702 757 275
321 308 73
199 166 30
173 140 32
511 438 160
2434 2240 1427
1151 1031 500
370 370 85
504 603 206
1767 1984 1305
3174 3852 1376
3074 3878 1161
2507 3319 779
2591 3438 880
2522 3289 884
2608 3421 914
2288 2997 773
1832 2499 496
1953 2632 599
2112 2789 646
3359 4095 1252
3669 4095 1376
3775 4095 1341
3880 4095 1476
3759 4095 1636
2272 3067 762
2239 2947 971
1105 1571 509
599 1014 309
1054 1628 627
2823 3613 1393
1665 2198 635
1144 1703 392
2311 3003 967
2346 2932 1234
992 1453 391
425 790 101
391 771 101
383 790 173
1283 2027 495
2528 3479 1113
2429 3398 967
2286 3163 971
903 1559 255
59 116 5
161 275 44
410 621 131
1356 1676 776
1194 1541 602
488 797 187
609 968 233
961 1526 458
1495 2333 921
1579 2490 947
1802 2713 1078
1411 2276 758
1068 1862 467
1383 2149 687
1575 2336 887
1986 2738 1176
1131 1671 513
230 467 154
189 397 56
361 729 143
453 864 218
435 842 203
663 1105 338
794 1190 419
794 1104 369
581 781 333
273 403 169
203 327 51
303 392 82
543 583 216
583 566 247
580 516 228
421 332 124
202 157 34
110 101 8
148 162 31
219 300 55
201 346 45
272 486 89
790 1215 390
1005 1493 507
1025 1449 518
265 477 114
195 357 100
291 478 128
333 534 87
343 589 162
868 1233 267
834 1166 275
395 634 327
772 1100 237
1635 2046 715
1508 1941 520
1642 2118 669
1743 2267 809
1591 2038 724
891 1071 304
328 322 131
216 177 58
232 187 32
621 539 160
2996 2868 1776
1505 1431 789
433 492 149
636 809 244
2140 2663 1044
3074 3825 1215
2942 3724 1027
2555 3340 751
2811 3641 982
2709 3506 965
2721 3473 1002
2621 3340 952
2320 3019 778
2002 2632 599
2287 3023 735
3194 4070 1116
3812 4095 1442
3810 4095 1411
3359 4095 1271
2320 3067 698
1289 1912 385
867 1277 520
549 944 226
838 1342 416
2385 3101 1283
2434 2917 1041
945 1339 378
1271 1700 463
1514 1907 641
1213 1657 525
1131 1603 434
461 815 120
361 703 75
313 631 79
535 930 240
2138 2878 1039
2299 3099 1078
1227 1897 504
677 1339 197
69 128 8
156 259 41
420 617 145
1329 1619 769
926 1302 375
1009 1476 485
1244 1895 678
1514 2343 981
1505 2397 947
1458 2330 880
1539 2427 941
1384 2249 820
1341 2187 758
1465 2234 831
819 1444 300
1523 2145 846
1330 1881 633
380 685 244
188 440 109
546 956 262
876 1343 524
631 1081 325
646 1133 337
813 1199 429
543 795 281
576 800 288
267 408 90
209 337 49
295 369 84
417 428 160
298 274 90
252 212 38
174 140 21
102 89 10
97 92 10
135 151 25
231 316 63
195 334 51
183 365 55
550 950 254
1066 1589 553
1128 1658 559
547 952 271
904 1305 435
918 1313 429
408 725 203
1100 1490 491
1648 2091 787
898 1268 307
362 572 217
513 787 107
1194 1653 384
1564 2136 589
1863 2503 828
2133 2844 1026
2205 2811 1051
1786 2040 829
755 768 263
652 601 226
508 442 120
672 579 139
1778 1740 743
1608 1663 733
550 681 160
648 947 277
2488 3185 887
2872 3655 1009
2743 3522 880
2688 3490 851
2913 3726 1050
2756 3540 1002
2617 3359 955
2503 3227 888
1570 2118 518
1400 1983 524
2352 3100 762
2930 3827 1134
3830 4095 1531
3529 4095 1446
2079 2735 751
1692 2329 481
945 1425 275
695 1132 245
1053 1603 602
2162 2842 1250
2629 3144 1200
1832 2271 661
1031 1355 364
617 903 210
693 968 200
677 997 141
852 1183 278
617 946 143
442 725 104
287 519 78
277 478 79
829 1177 270
1385 1853 559
599 1055 244
622 1158 204
127 222 92
146 253 76
353 532 129
635 918 247
885 1268 401
1298 1900 734
1335 2108 818
1365 2202 883
1358 2238 880
1278 2145 786
1305 2208 794
1412 2324 875
1412 2300 869
1243 2002 705
443 993 168
1300 1913 688
1718 2272 967
804 1278 429
397 790 190
687 1155 367
771 1263 424
598 1054 296
617 1116 301
811 1214 449
291 456 169
181 291 50
150 251 29
180 281 55
168 231 35
235 273 106
376 404 174
247 237 64
239 225 71
136 124 19
100 91 1
127 135 12
197 268 54
200 324 52
192 342 45
389 710 158
1140 1689 610
1678 2356 920
1999 2699 1159
2407 3115 1415
2539 3158 1460
1305 1852 643
2070 2653 1015
2324 2820 1048
2229 2732 1078
877 1281 395
1243 1720 486
2118 2732 1022
2051 2709 959
1895 2527 854
1981 2629 876
2259 2818 1039
1458 1715 605
383 397 83
526 489 165
731 692 255
985 931 388
1390 1364 506
1799 1852 653
1794 1947 541
2369 2747 892
3087 3757 1216
2671 3424 818
2872 3691 968
3014 3794 1050
2955 3741 1085
2717 3490 988
2483 3180 875
1880 2400 688
931 1268 316
1701 2288 496
2721 3440 1018
3220 4003 1200
3521 4095 1554
2919 3486 1305
2078 2645 681
1744 2351 559
896 1361 218
1252 1804 733
3047 3992 1658
3121 3675 1442
2010 2391 923
1844 2183 734
803 1048 220
588 822 168
801 1068 233
1170 1449 501
1376 1639 682
1143 1410 485
575 810 152
266 449 49
280 419 67
539 776 153
1335 1788 658
523 910 232
294 670 193
533 776 220
267 441 133
231 396 55
394 650 102
781 1159 300
1475 2169 867
1335 2108 780
1213 2019 742
1098 1957 670
1093 1993 661
1303 2209 842
1421 2330 926
1339 2247 843
996 1781 538
407 927 135
1542 2167 927
2289 2911 1433
1463 1974 859
720 1184 367
761 1253 414
687 1171 355
590 1074 288
654 1150 337
695 1078 375
226 380 106
113 196 27
64 120 229
85 140 3
112 165 36
820 924 535
1906 2006 1345
330 344 109
217 209 57
222 214 77
213 211 67
373 377 143
258 302 82
205 308 55
212 351 51
301 551 79
1350 1953 746
2386 3119 1464
2387 3155 1415
2548 3216 1435
2199 2816 1138
1932 2508 873
2527 3143 1272
2680 3260 1272
2553 3201 1257
1764 2364 723
2073 2715 953
2164 2860 1054
1444 2044 539
1177 1684 356
1566 2065 624
1815 2276 846
689 917 220
243 331 113
750 875 320
455 513 236
538 519 125
1275 1268 444
1753 1778 635
2559 2680 975
3192 3510 1252
3539 4095 1448
3324 4095 1183
3083 3895 1067
2783 3572 938
2678 3424 925
2612 3343 957
2206 2836 850
1332 1700 451
905 1255 382
2437 3145 922
2970 3691 1167
2795 3455 1016
2538 3106 952
1723 2188 962
1839 2383 656
1860 2420 658
1399 1967 559
2011 2699 1446
3858 4095 2013
2439 2820 1314
1160 1448 435
1085 1327 334
783 1023 184
1108 1367 455
845 1060 300
1059 1244 530
853 1014 353
605 747 159
363 542 80
273 432 55
265 384 55
414 594 154
1669 2154 941
601 981 275
481 877 248
1366 1786 615
1257 1600 552
716 996 222
437 705 228
1393 1863 724
1562 2295 955
1265 2027 742
1275 2091 797
904 1696 504
1027 1876 625
1431 2313 938
1384 2276 901
1244 2164 780
1036 1779 641
384 835 143
1063 1524 630
1635 2122 1066
575 987 339
339 716 141
602 1065 299
697 1193 394
672 1159 362
732 1203 401
449 769 234
181 327 71
125 231 33
78 141 6
70 118 1
143 203 66
1483 1685 985
2949 3130 2095
485 514 215
126 123 23
127 123 15
144 138 15
311 302 101
268 274 78
249 316 81
278 416 99
242 407 124
1270 1689 689
2209 2783 1350
1880 2382 1031
1313 1783 606
1412 1947 561
2885 3457 1620
2752 3358 1405
1944 2531 770
2000 2659 880
2446 3105 1223
2248 2880 1096
1769 2413 786
1587 2187 661
1218 1684 466
632 1001 188
551 841 207
248 437 151
434 638 143
2096 2400 1000
1013 1128 422
390 396 107
663 659 233
1426 1466 401
3614 3761 1816
3334 3687 1288
3546 4095 1323
3652 4095 1341
3218 4014 1151
2662 3456 795
2548 3295 827
2645 3376 1038
1604 2129 540
1585 2089 711
1496 2074 429
2987 3708 1235
2936 3606 1150
3069 3616 1216
2321 2822 935
888 1248 395
1004 1427 214
2123 2698 835
1967 2471 765
1614 2146 970
2959 3458 1619
1028 1358 1119
850 1071 307
714 935 159
810 1012 246
926 1155 326
583 762 174
262 347 99
393 468 88
495 608 97
502 683 127
380 566 131
265 421 64
519 746 178
1244 1716 616
508 883 220
314 696 225
1988 2328 1039
1999 2319 939
1343 1829 562
1119 1642 422
1630 2227 916
1335 2089 734
1383 2173 828
1032 1757 588
331 782 180
677 1329 372
1504 2401 1051
1343 2229 895
1225 2082 800
1038 1705 705
316 617 178
287 515 112
363 605 147
199 407 90
161 353 48
219 469 75
375 668 162
638 994 350
784 1105 474
226 425 155
147 305 42
173 294 40
336 455 150
113 183 28
170 238 94
2091 2275 1443
2605 2792 1769
389 420 154
120 125 32
92 94 18
81 87 11
106 105 21
149 159 32
198 243 61
329 435 144
152 234 40
386 512 154
527 699 232
410 617 215
671 1035 287
1938 2465 1015
2694 3241 1484
1743 2311 742
930 1457 337
1969 2638 891
2381 3048 1200
2145 2823 1054
1907 2568 880
1653 2252 715
1779 2292 880
858 1213 331
318 593 170
949 1241 389
2096 2515 857
3019 3359 1499
1087 1200 456
978 933 278
2520 2466 1305
3007 3061 1648
3139 3316 1464
3168 3603 1061
3546 4095 1234
3739 4095 1446
3348 4095 1271
2848 3655 1020
2612 3327 1022
2190 2916 867
1502 2056 451
1526 2148 533
2621 3390 968
3299 4057 1305
2608 3184 1067
1537 1919 664
832 1105 422
696 1012 268
1007 1429 236
1862 2384 731
1949 2413 786
748 1082 244
843 1182 669
668 883 737
688 879 164
588 768 118
606 791 114
891 1066 299
499 631 164
215 264 110
344 385 78
724 855 235
1278 1524 572
784 995 274
378 575 133
622 889 266
1958 2493 1038
1790 2353 869
817 1340 260
950 1295 434
776 1155 220
1476 1972 733
1494 2082 723
1400 2067 724
1513 2286 878
1729 2499 1106
687 1254 489
159 404 140
318 706 159
1511 2193 1106
1480 2229 1019
1021 1639 636
556 941 298
231 446 99
224 415 51
187 357 46
148 309 47
139 285 41
130 269 35
141 288 46
209 388 70
381 582 182
178 315 87
142 277 36
270 427 104
1383 1557 765
238 325 95
156 213 40
1106 1197 706
993 1055 591
123 140 47
104 113 26
88 94 21
87 89 19
96 98 13
169 176 57
159 194 30
194 254 59
101 145 11
109 150 20
115 177 45
332 520 171
1476 1886 807
1981 2439 1086
1725 2155 890
703 1023 200
778 1192 300
1802 2471 928
2077 2801 1105
1956 2653 1015
1697 2330 789
941 1395 341
649 1047 206
827 1174 251
1127 1478 400
2739 3178 1339
3436 3809 1676
1601 1801 652
1110 1141 458
3394 3298 2044
3028 3066 1765
1735 1783 575
2061 2304 665
3264 3827 1181
3700 4095 1323
3481 4095 1323
2564 3279 1071
1988 2584 856
1926 2614 718
1660 2341 473
1473 2099 437
1743 2430 504
3450 4095 1448
3779 4095 1541
2627 3194 1184
929 1228 319
723 972 214
1131 1544 343
1379 1850 429
1693 2258 634
1757 2263 688
644 963 200
572 834 171
859 1103 284
667 854 155
718 896 194
794 970 232
1041 1175 441
415 524 93
363 419 75
349 403 76
389 486 169
1369 1563 620
1187 1431 459
715 907 219
746 1037 285
2368 2949 1318
1957 2543 909
1689 2359 679
225 414 131
1046 1458 505
1659 2187 868
1362 2000 666
1362 1991 705
1561 2215 927
1195 1740 686
575 978 262
256 535 112
159 408 71
924 1295 571
1026 1412 642
419 715 191
216 419 79
181 369 50
243 432 73
584 804 335
208 371 121
131 279 71
121 258 38
124 263 32
123 252 30
145 273 28
150 273 37
147 271 38
297 439 131
821 964 461
149 202 54
100 131 17
140 170 32
123 147 25
72 89 12
84 95 16
92 100 21
96 105 21
106 115 23
129 149 60
173 214 48
154 205 39
108 154 31
107 146 29
105 161 58
545 751 295
700 1018 291
613 914 233
392 608 147
273 439 125
608 965 223
1523 2145 817
1570 2248 817
1467 2110 687
1439 2010 670
603 932 298
440 739 287
1702 2065 778
1516 1826 599
1899 2146 770
1575 1767 687
858 963 594
3300 3300 1995
2324 2324 1233
839 895 270
1513 1676 364
2370 2726 728
3087 3652 1093
3949 4095 1629
2555 3256 1018
1585 2193 607
1630 2311 429
1834 2584 566
1819 2569 581
1452 2133 459
1723 2468 527
3816 4095 1706
3861 4095 1680
2593 3168 1079
1844 2288 675
1218 1591 333
1339 1802 405
1588 2111 583
2201 2785 959
1464 1941 538
690 1032 155
776 1087 207
599 841 122
534 733 107
800 956 241
838 1001 291
580 713 200
756 896 262
857 967 347
318 363 62
238 304 109
1341 1492 670
878 1039 366
541 682 149
427 588 119
665 926 282
1162 1638 438
1789 2399 740
123 254 40
1091 1486 586
1429 2029 781
1295 1953 705
965 1533 446
476 755 263
318 501 206
568 824 246
688 952 380
286 510 137
206 400 91
227 414 94
166 302 47
108 216 24
123 242 22
266 430 123
1094 1338 744
445 654 271
241 404 113
147 305 49
128 270 46
123 246 36
134 247 30
153 270 43
141 235 44
122 189 24
86 124 6
64 84 3
73 90 12
77 95 12
72 89 10
75 94 16
88 104 29
106 121 40
122 140 37
149 193 109
481 602 197
681 864 311
583 734 310
311 423 99
124 200 111
105 186 123
482 709 213
502 806 222
349 629 143
175 349 79
199 357 78
404 683 123
721 1133 291
1059 1512 470
1449 1966 761
1524 1975 846
429 711 225
976 1302 334
1706 2037 770
527 763 308
602 785 193
1103 1191 567
2379 2434 1281
2127 2208 1063
1129 1189 391
1230 1391 374
3119 3486 1449
4095 4095 1956
2627 3194 1030
2924 3672 1061
2063 2783 815
2111 2846 703
2080 2868 662
1972 2747 621
1847 2639 590
1422 2164 414
1903 2735 640
3825 4095 1858
3754 4095 1728
2436 2994 922
1974 2489 789
1650 2133 609
1001 1442 204
1543 2072 538
1733 2229 724
819 1209 267
1030 1408 378
1648 2010 685
818 1068 233
784 985 195
1276 1438 619
560 657 157
365 468 144
1251 1448 569
1143 1288 512
244 295 81
224 250 72
620 651 226
364 382 81
319 344 63
271 308 51
277 364 139
842 1222 271
1892 2527 818
82 183 77
605 944 253
1359 1909 761
1445 2021 839
928 1337 501
308 417 162
517 583 195
473 616 201
976 1223 642
936 1216 626
332 477 167
140 236 36
107 187 18
84 149 10
56 111 119
63 115 7
150 246 41
395 582 232
644 890 456
450 639 308
268 409 152
185 310 89
154 263 53
130 209 34
70 113 2
51 71 3
52 68 7
52 65 7
58 75 8
65 85 9
71 99 2
119 162 44
318 396 155
375 484 126
301 418 186
469 691 177
1852 2218 953
2114 2523 1067
1953 2322 1002
1521 1768 780
624 787 321
219 367 285
1376 1796 848
1432 1965 770
1376 1864 731
517 756 278
158 319 82
341 580 88
399 654 106
469 728 180
1027 1339 531
861 1123 400
417 643 214
1655 1966 771
2010 2362 914
1236 1506 524
2557 2791 1445
3874 4001 2582
1415 1506 469
1260 1355 315
1226 1343 318
1630 1828 600
2991 3270 1486
2860 3164 1465
1623 2064 566
2044 2628 681
1919 2623 592
1875 2632 504
1985 2773 630
1875 2695 535
1610 2378 406
1378 2164 355
1915 2775 649
3092 3861 1554
2951 3659 1285
2610 3217 1037
1879 2367 661
1614 2043 617
1398 1819 437
1666 2073 715
1050 1456 296
584 894 229
1420 1806 705
2547 2911 1263
926 1167 232
1279 1476 536
1480 1659 749
596 687 143
674 811 278
2066 2304 1139
914 1089 375
293 355 81
208 216 82
705 705 309
748 715 329
451 438 113
302 325 95
296 370 76
774 1077 257
2329 2921 1142
169 308 214
485 811 111
805 1131 330
1321 1600 723
1353 1541 701
701 738 315
388 391 180
133 163 61
450 564 233
783 946 539
308 404 155
75 135 2
150 236 51
256 359 115
103 172 25
56 91 0
50 81 8
105 177 30
541 747 347
843 1107 622
772 993 578
476 572 325
181 254 73
71 104 6
45 62 3
49 60 7
50 65 9
49 65 8
57 74 3
89 123 9
381 448 159
510 607 226
805 1046 410
1738 2193 993
1831 2292 941
2127 2620 1104
2292 2701 1146
1988 2339 999
2154 2478 1153
1968 2249 1078
1225 1398 665
586 815 293
2066 2620 1391
2090 2732 1200
1935 2421 1128
646 835 367
112 216 76
589 799 267
775 962 385
125 209 130
182 275 59
305 416 99
450 632 147
855 1143 279
1341 1635 518
1094 1319 400
3146 3373 1925
2155 2397 1133
1597 1802 643
1852 2054 829
765 871 183
882 1004 222
1450 1607 535
1575 1815 592
1631 1993 543
1638 2237 535
1871 2623 559
2158 2954 714
2272 3095 790
1906 2695 535
1620 2400 397
1385 2167 331
1413 2219 403
1910 2667 724
2329 3104 864
2495 3155 971
1241 1614 364
863 1069 229
700 918 180
925 1119 341
642 837 172
354 494 173
1079 1279 548
3161 3365 1896
1202 1385 449
1893 2101 1045
1041 1152 390
605 713 150
496 642 138
914 1114 369
424 566 132
460 531 169
339 360 141
515 518 191
945 920 485
961 985 500
757 804 372
364 431 108
381 580 162
1915 2449 973
1345 1609 818
1148 1486 601
724 963 352
757 846 306
796 815 375
280 275 115
125 125 30
101 111 28
102 123 20
98 124 16
82 118 9
70 121 5
194 273 65
376 482 169
286 379 123
77 122 5
52 79 10
50 81 8
94 147 23
330 448 169
619 772 429
272 344 152
93 134 20
48 63 3
45 55 6
46 60 7
50 65 7
56 73 7
84 111 9
394 463 183
543 631 247
192 277 109
805 1065 463
2131 2732 1262
2360 3064 1283
2620 3212 1411
2098 2478 1049
683 882 312
715 892 303
558 665 249
258 349 111
348 513 213
2135 2701 1443
2159 2815 1270
1656 2038 972
416 545 221
88 150 31
442 568 241
498 591 264
91 136 36
95 137 28
240 326 91
642 839 216
1195 1494 470
1007 1261 313
583 835 184
1975 2258 959
1236 1444 467
613 793 285
903 1061 240
846 955 189
1184 1215 359
903 931 247
669 807 171
903 1207 253
1345 1888 359
2611 3481 1096
2750 3672 1113
2490 3404 880
2044 2970 583
1823 2751 495
1727 2639 447
1663 2543 495
2077 2970 704
2355 3187 887
1967 2573 733
953 1189 228
641 713 104
592 653 161
541 592 143
507 539 123
334 385 87
484 562 165
1009 1140 452
1183 1330 394
1821 1997 993
690 779 173
433 559 90
307 462 49
348 505 72
309 452 58
413 516 146
365 406 116
239 269 45
469 496 149
663 696 263
585 625 241
285 344 81
267 372 146
1905 2250 1057
2113 2479 1373
1839 2209 1159
1679 1928 1069
437 484 196
175 175 62
109 111 25
84 91 21
92 100 30
83 94 22
79 94 19
128 170 45
174 247 57
180 264 49
238 345 74
352 465 166
134 199 33
49 75 2
48 69 9
56 78 11
60 79 8
71 92 23
56 72 2
52 68 8
46 60 6
47 61 7
54 66 11
60 79 10
82 111 32
130 178 47
213 272 82
103 154 19
102 144 46
674 908 394
2025 2681 1187
2123 2851 1153
2379 2939 1319
1371 1695 666
206 318 86
151 199 54
120 163 41
123 161 39
164 239 85
1552 1904 1013
2161 2525 1455
888 1058 493
164 232 58
92 132 20
95 137 15
114 163 25
97 139 30
89 131 44
354 454 150
735 918 299
1123 1394 470
1079 1340 365
1486 1761 614
2213 2529 1126
764 1009 183
775 978 286
1218 1440 403
1631 1794 635
2162 2190 983
1264 1281 458
514 651 222
572 889 204
1196 1738 429
2070 2905 701
2235 3150 728
2387 3336 795
2238 3189 701
2091 3013 642
2185 3184 728
2434 3439 916
2481 3423 977
2349 3119 917
1087 1439 327
752 826 207
829 837 241
696 669 184
545 519 114
800 776 315
563 585 177
358 415 78
360 454 89
1119 1283 458
1109 1229 449
481 590 106
312 468 48
352 524 64
385 558 97
306 458 59
217 349 47
196 300 40
191 290 44
276 376 59
268 345 53
221 300 99
163 231 48
220 297 141
1370 1483 715
2049 2449 1349
2094 2467 1415
1585 1820 1022
168 199 100
114 121 36
94 103 28
70 79 17
72 81 17
78 86 23
64 80 14
80 116 9
140 212 49
278 427 113
433 605 179
429 601 200
236 333 78
71 114 11
45 69 0
46 63 6
55 67 12
56 69 12
53 64 11
50 64 11
51 60 9
53 65 11
59 73 10
90 123 32
335 466 154
560 723 288
539 693 304
287 413 143
187 286 130
546 798 220
1473 1971 751
2059 2659 1140
1476 1972 705
480 760 197
201 331 52
143 203 38
104 137 29
125 157 39
120 158 36
353 449 178
714 819 390
223 294 81
83 139 8
103 155 26
110 171 41
119 182 36
147 223 66
223 316 69
630 743 295
580 720 160
696 852 173
1009 1200 321
1734 1953 809
1626 1876 678
1815 2145 799
2783 3171 1431
2659 2979 1319
1439 1659 500
1639 1802 712
977 1097 303
1195 1466 326
1630 2108 575
1606 2223 470
2066 2913 677
2369 3296 789
2370 3302 779
2403 3382 789
2352 3365 824
2539 3529 952
2535 3531 941
2385 3320 880
1746 2293 581
725 831 244
699 678 156
1053 1004 395
871 803 287
780 720 236
1004 956 394
965 999 389
893 999 342
1023 1155 388
1244 1402 538
680 826 154
465 622 90
379 567 71
422 626 88
372 572 84
323 500 78
205 343 42
170 290 36
178 290 40
210 329 45
218 329 49
283 400 63
284 377 62
254 326 67
395 428 115
1609 1916 1057
2101 2410 1500
829 1019 516
105 126 47
96 106 28
79 89 20
65 75 16
58 67 12
71 83 23
78 92 20
85 123 24
415 549 224
1131 1368 671
988 1234 541
486 695 186
506 667 230
197 277 81
71 108 12
53 73 5
59 71 12
56 68 12
49 63 7
52 68 9
60 73 12
63 78 12
78 93 11
185 236 47
904 1096 529
1230 1497 748
1534 1810 963
1472 1709 889
491 665 213
474 681 114
880 1293 412
2059 2599 1179
616 1063 260
358 621 150
320 530 86
281 432 108
143 194 80
111 134 24
103 129 21
99 129 21
94 142 6
151 238 46
226 318 80
232 339 66
460 594 147
480 604 123
847 967 314
770 875 274
815 910 334
626 703 160
922 1027 317
810 893 222
1832 1948 906
1058 1227 279
2629 2980 1304
3332 3786 1709
1972 2286 790
914 1118 260
908 1125 287
851 1074 229
2540 3029 1223
2180 2788 893
1931 2591 711
2484 3396 1037
2168 3014 711
2219 3099 728
2557 3510 934
2557 3529 934
2607 3623 977
2582 3512 965
2340 3196 891
1251 1605 395
449 496 160
524 502 148
967 906 320
855 783 259
968 881 329
931 881 287
1063 1111 418
1263 1402 548
1345 1476 536
1512 1678 624
1415 1650 537
988 1241 366
629 907 173
651 908 206
599 817 204
279 458 51
190 353 38
176 319 34
150 286 35
158 290 53
249 383 115
905 1126 424
709 897 274
335 419 85
250 274 38
502 683 430
958 1160 710
261 383 165
97 121 27
93 106 28
75 89 20
61 70 14
54 63 10
63 73 12
91 104 30
235 281 117
956 1114 641
1140 1372 684
724 961 308
677 897 273
1144 1331 660
316 414 167
106 147 23
90 112 25
61 75 10
67 78 12
62 77 12
69 89 18
89 111 23
112 135 35
271 288 89
348 414 100
695 859 315
765 973 315
654 875 188
906 1133 468
371 550 179
835 1068 307
2256 2670 1221
2012 2478 1001
643 1001 168
709 1049 251
935 1302 440
1049 1328 557
370 461 181
156 184 41
105 133 21
96 133 24
194 274 88
394 506 185
139 237 55
573 724 211
710 865 249
623 789 219
1120 1279 429
938 1062 333
660 729 176
907 1005 340
1086 1177 425
2229 2333 1286
1562 1638 762
599 729 194
1197 1448 437
1047 1296 454
767 988 200
718 944 164
605 827 139
1304 1693 533
2266 2787 947
1339 1915 308
2081 2769 846
2158 2889 870
1583 2255 479
2128 2868 772
2717 3567 1050
2663 3513 1014
2604 3394 1027
1897 2402 591
1781 2179 670
1038 1250 341
467 505 126
602 583 145
884 815 251
1083 1027 413
1087 1005 400
885 831 226
1135 1171 447
1850 2012 941
1202 1358 375
1831 2107 746
2828 3171 1528
1583 1873 682
1087 1362 463
715 978 239
390 614 137
201 376 141
181 338 42
170 328 38
156 304 39
166 309 66
663 927 253
2233 2637 1234
1411 1641 602
652 747 195
293 322 93
178 328 65
178 283 82
129 212 121
186 260 124
104 134 43
66 78 7
57 67 12
58 67 12
58 68 12
78 91 23
114 150 36
246 333 123
465 615 219
650 825 312
836 1022 416
790 939 397
206 299 80
108 149 25
104 130 39
64 79 3
74 92 16
81 116 47
281 367 178
383 477 145
346 421 89
699 781 347
583 681 256
789 979 400
1333 1609 793
853 1093 355
605 839 284
203 370 172
1240 1464 643
2856 3246 1752
1589 1975 810
773 1121 241
1698 2174 978
2306 2872 1355
1796 2118 1005
415 507 160
215 258 62
162 199 47
172 218 67
571 679 335
199 281 91
256 362 182
986 1136 477
482 657 208
828 1035 263
1324 1594 611
1026 1143 424
725 768 214
1096 1184 478
1388 1456 616
1892 1964 1063
714 774 267
377 490 141
395 523 111
349 504 119
433 608 102
778 1038 226
1235 1584 417
1913 2369 817
2155 2732 891
1967 2538 768
2180 2806 964
1517 2044 470
1559 2023 463
1947 2490 694
2752 3449 1119
2293 2875 864
1676 2108 550
785 1030 282
506 669 235
515 635 158
847 891 271
960 919 337
831 758 174
1189 1126 473
1153 1081 437
965 897 262
872 897 253
1427 1571 665
1466 1630 550
2725 3016 1385
2898 3171 1573
1048 1286 419
661 919 285
873 1161 371
605 848 219
225 409 48
181 347 42
159 323 37
192 355 52
365 591 151
1753 2189 827
2542 2915 1199
1636 1768 706
956 1007 404
286 312 105
241 423 101
162 304 169
659 889 400
1530 1731 1039
416 491 250
68 82 2
65 75 14
61 72 14
61 72 10
78 91 20
104 143 30
86 142 18
173 287 64
275 412 56
465 616 182
297 430 97
138 219 45
74 113 1
91 114 29
95 117 40
81 107 17
219 327 122
1765 2074 1198
1197 1505 638
657 811 242
584 699 250
519 638 195
784 999 389
2087 2430 1449
1476 1819 813
1196 1494 624
437 622 236
875 1095 385
1067 1276 504
574 796 312
304 516 125
1031 1421 483
2123 2610 1254
1326 1636 630
307 417 141
237 332 101
652 830 304
928 1118 443
545 687 244
114 177 123
613 731 366
864 1012 353
1489 1717 755
1817 2023 940
859 1049 333
351 453 137
345 406 148
1096 1138 451
2055 2076 1177
804 842 296
996 1040 442
988 1031 428
433 481 77
412 484 77
429 548 81
745 995 213
1676 2048 705
2187 2694 1034
2191 2724 971
2118 2675 928
1650 2075 584
1468 1777 495
1778 2087 726
1753 2121 618
2604 3082 1137
1303 1599 368
835 1106 218
480 654 143
352 506 174
808 971 287
840 847 187
795 774 166
1079 1000 352
1364 1279 593
1457 1381 676
1195 1113 452
534 549 112
871 952 283
1628 1749 760
2061 2167 1004
1357 1484 546
463 604 143
255 391 107
828 1030 353
795 1006 376
248 423 67
199 376 52
202 382 53
286 482 81
775 1080 313
2305 2801 1129
2066 2292 891
805 878 242
383 415 80
199 219 67
236 429 83
604 873 311
1790 2188 1149
1806 2088 1118
260 331 155
80 95 11
70 84 17
65 80 14
61 75 10
79 98 11
132 182 31
159 250 46
387 542 146
268 414 85
145 277 90
123 218 37
120 191 31
72 109 3
83 103 12
133 161 60
86 118 23
517 645 316
1469 1798 905
1775 2141 1034
893 1069 432
258 361 94
326 429 131
899 1143 506
1470 1890 972
1185 1576 676
695 947 281
914 1146 454
776 988 376
135 218 92
150 212 47
144 241 35
250 406 93
735 1000 282
908 1191 326
436 608 175
1384 1681 659
2539 2919 1519
2589 3014 1578
1310 1579 696
299 419 103
571 739 230
673 802 218
2043 2237 1220
931 1054 352
301 412 109
273 342 58
900 950 393
2175 2175 1312
1142 1142 483
665 652 141
1340 1321 703
1862 1821 1139
715 687 213
508 497 126
481 534 114
811 1060 278
1696 2044 771
1753 2153 743
1475 1823 563
1356 1708 480
1571 1880 678
2191 2445 1141
1932 2175 948
1399 1688 469
1811 2103 660
1939 2252 723
1079 1355 267
458 656 157
1438 1689 571
2691 2856 1365
1505 1533 518
1161 1144 366
1204 1131 452
1095 1009 388
1408 1349 627
1040 992 388
400 403 74
578 582 104
939 926 230
763 751 150
481 500 135
287 336 60
201 259 44
286 387 135
352 543 91
357 551 81
303 508 98
496 731 195
496 731 151
1397 1770 641
2313 2636 1128
1365 1502 518
425 458 154
302 321 64
273 278 75
217 416 88
1455 1782 897
2021 2427 1253
644 874 315
91 150 77
95 119 25
81 100 18
69 87 15
66 83 7
109 150 19
275 366 79
375 525 146
627 830 256
701 933 301
451 646 180
279 462 153
258 373 106
125 184 43
118 154 45
131 165 39
103 140 22
241 330 104
368 516 126
730 904 354
343 465 159
95 167 27
171 275 51
712 925 384
844 1115 491
531 756 263
277 465 81
527 747 247
463 643 255
84 130 46
111 158 31
133 209 33
127 250 97
422 686 194
1302 1642 541
875 1201 188
2439 2810 1327
2919 3399 1599
2831 3358 1578
2128 2480 1161
720 906 197
531 708 211
424 562 225
813 935 334
416 485 116
240 312 45
560 624 251
2212 2256 1419
964 977 448
572 579 135
1393 1402 799
1471 1402 799
1195 1129 545
736 673 224
457 404 118
350 350 75
626 739 212
1305 1514 543
1591 1822 703
1030 1184 300
909 1054 243
1543 1711 723
2192 2350 1236
1284 1432 518
748 956 342
2110 2403 880
2220 2465 940
1357 1610 365
1385 1663 473
3957 4095 2100
3449 3626 1746
1275 1293 394
914 879 274
1183 1127 477
1169 1059 467
860 779 275
542 501 118
409 399 76
649 645 150
1926 1873 921
2225 2151 1059
898 888 281
288 310 71
189 219 32
186 259 128
940 1223 433
1194 1570 553
901 1263 325
1009 1352 447
836 1165 296
2021 2318 1027
2175 2361 1115
518 568 135
344 347 70
402 407 122
317 315 89
260 443 109
1492 1746 939
1057 1350 502
362 622 204
293 458 126
186 293 158
122 177 75
77 109 36
67 98 2
132 196 33
383 506 144
931 1107 435
987 1248 496
1228 1576 715
1162 1527 626
1109 1449 630
421 638 185
341 520 127
498 673 281
226 326 130
83 129 45
80 127 1
84 144 4
98 166 12
69 138 0
114 212 35
171 295 52
257 420 68
270 440 92
157 296 58
180 318 58
306 455 123
226 356 132
113 203 113
197 316 186
190 331 79
533 817 233
1658 2131 935
2292 2805 1284
1541 1962 531
2499 2909 1229
2687 3161 1402
2739 3218 1519
1778 2201 836
1035 1392 373
872 1117 270
846 982 287
469 549 187
440 504 105
425 468 133
1646 1667 931
955 973 430
319 337 88
298 324 58
765 770 343
1059 1017 478
941 892 366
651 584 200
358 300 61
231 200 52
221 219 64
627 664 245
1105 1138 520
571 590 110
831 831 250
1765 1774 873
1895 1895 891
1110 1219 425
2557 2791 1288
2276 2565 1040
1125 1356 360
1857 2124 771
3057 3328 1570
3368 3653 1837
1347 1458 511
371 401 199
340 328 91
1050 977 448
1091 971 472
578 496 120
426 385 73
718 663 237
1253 1195 539
1894 1811 826
3610 3439 2034
1587 1547 727
372 349 66
219 224 40
324 406 91
1883 2218 1036
1698 2168 778
1067 1486 323
890 1247 229
965 1263 269
1362 1580 543
1234 1323 522
318 308 103
265 250 61
231 221 49
231 212 40
148 258 41
386 540 134
597 815 260
1203 1559 690
1381 1790 775
1180 1541 641
760 970 394
172 248 110
74 108 2
125 185 31
364 481 144
742 888 336
416 647 103
710 1073 239
1234 1698 553
1329 1849 659
490 931 311
1325 1830 718
2128 2678 1418
1439 1810 889
223 319 125
112 172 32
80 131 12
65 113 3
91 175 21
238 390 73
468 648 200
242 407 90
257 433 68
184 323 60
148 265 39
202 333 68
161 286 84
800 1103 520
1219 1588 769
307 563 227
1138 1514 611
2292 2925 1431
2599 3171 1494
2103 2527 944
2739 3099 1480
1751 2211 706
1697 2165 679
1412 1850 473
1055 1459 326
1047 1313 351
1079 1200 400
666 705 161
705 698 194
1445 1425 731
1412 1421 780
308 335 91
248 276 43
289 313 60
900 900 439
1294 1225 631
1109 1048 462
726 626 183
584 500 162
328 280 51
325 286 65
263 240 55
346 325 63
609 580 204
1620 1551 839
2680 2616 1653
2124 2113 1066
2233 2311 1087
2478 2619 1279
1044 1200 321
657 856 284
1486 1691 649
879 1038 266
613 724 143
285 324 114
217 230 42
364 334 78
925 840 393
916 811 391
563 465 130
527 458 108
1068 965 436
1249 1132 497
1124 1030 353
1799 1672 847
732 644 181
406 351 87
296 265 52
499 559 227
1989 2354 1057
1541 1965 543
1861 2275 809
1899 2288 800
1901 2184 839
1081 1260 348
506 509 141
239 215 43
149 132 17
122 106 13
337 284 89
126 197 20
166 264 41
228 404 92
883 1239 438
1381 1841 735
1243 1669 606
796 1040 308
199 294 138
96 143 41
88 130 12
133 210 28
166 270 96
578 835 316
1957 2428 1172
2049 2712 1096
2038 2639 1075
1418 2019 590
2049 2650 1096
2419 3103 1412
2480 2994 1563
767 952 439
137 206 81
117 193 24
109 189 24
136 239 35
295 467 105
845 1094 496
538 731 261
306 496 125
139 259 51
120 219 33
121 229 33
170 324 99
1392 1737 921
2056 2526 1421
1239 1669 679
1049 1394 491
1371 1772 733
1786 2196 995
932 1270 380
1125 1434 463
1475 1876 482
1629 2101 561
1660 2118 641
1349 1754 485
1002 1227 292
1098 1184 368
1155 1138 449
1108 1072 401
2476 2443 1636
543 548 204
270 310 58
551 596 203
317 335 70
718 718 291
1452 1431 807
1693 1598 814
1517 1392 711
998 892 424
489 419 110
344 311 87
228 195 38
278 252 71
570 536 201
1735 1682 1005
1948 1904 1079
1452 1442 602
1142 1180 436
676 706 183
389 449 116
405 483 93
511 615 143
380 477 105
314 372 83
218 245 72
225 245 73
540 508 200
796 704 309
789 660 274
572 459 148
1138 990 476
1848 1662 995
1171 1019 463
862 715 249
896 765 325
466 363 95
436 348 95
512 427 124
761 813 369
1739 2043 890
1964 2373 839
2455 2942 1121
2394 2742 1043
2689 2942 1354
1904 2069 963
563 538 151
272 231 60
143 115 18
117 89 23
436 351 202
85 146 46
149 245 42
222 404 99
987 1402 513
1375 1911 758
1264 1689 651
875 1148 348
612 768 219
417 514 141
249 330 93
133 201 55
118 204 45
399 614 201
1759 2209 1033
2135 2721 1067
2324 2909 1214
1914 2504 869
2197 2763 1129
2000 2486 1015
1633 1979 897
778 952 389
131 199 57
188 284 51
203 307 57
188 304 46
295 453 98
622 884 303
1152 1498 657
1016 1298 590
141 259 95
109 209 30
141 261 42
339 562 103
864 1194 454
1100 1429 579
1375 1719 818
533 795 233
347 599 179
488 733 165
393 579 160
700 937 197
2038 2410 914
2619 3099 1259
2077 2553 857
2498 2939 1239
1924 2143 905
1420 1402 599
1252 1164 493
2218 2167 1360
1831 1770 1013
409 414 74
556 588 206
547 605 206
249 288 41
247 274 44
639 635 207
2145 2034 1150
1609 1492 761
1010 903 429
587 496 186
234 186 43
204 184 40
209 194 40
377 351 105
1197 1135 633
917 883 375
506 514 115
363 384 89
358 378 83
335 384 87
274 342 65
263 318 44
291 365 75
195 277 54
201 253 263
313 337 106
658 613 226
841 749 321
829 696 313
386 295 67
1448 1283 744
1771 1597 995
824 688 303
524 411 123
699 570 253
402 290 89
539 415 131
586 461 133
427 402 165
850 884 305
1513 1707 520
2298 2629 931
2815 3068 1291
1924 2087 787
1136 1210 449
591 536 146
562 500 249
260 223 87
122 89 23
393 300 190
251 315 71
219 325 64
463 719 211
1397 1955 879
1578 2235 950
1709 2275 990
1452 1866 751
1729 1962 981
1105 1324 533
350 479 118
168 284 47
196 332 63
193 363 96
639 943 277
1688 2057 848
1759 2179 848
1497 1962 646
1576 1994 735
1166 1483 480
412 596 169
275 376 68
192 281 65
236 333 96
348 460 143
276 398 95
244 390 76
760 1055 392
1744 2143 1159
599 854 264
129 246 105
110 219 33
203 357 64
784 1089 359
1096 1521 506
999 1359 389
424 695 98
390 658 160
981 1311 422
465 685 173
534 684 137
960 1194 342
2518 2858 1279
2905 3356 1411
2458 2919 1140
2897 3249 1635
1905 2029 952
1053 979 288
1844 1756 975
2440 2355 1551
1289 1251 564
671 671 195
335 366 56
268 308 53
326 387 85
915 1031 357
1934 2000 884
2419 2269 1291
867 729 206
828 696 281
503 419 142
195 148 50
174 151 29
199 190 41
318 300 89
410 394 116
393 391 104
325 329 71
293 314 72
312 346 93
287 347 84
231 297 47
216 295 79
337 496 197
820 1138 343
1166 1505 470
800 975 274
809 796 260
925 840 357
921 802 422
352 251 170
1049 903 527
913 771 414
301 220 40
303 220 59
568 453 160
567 404 132
2023 1762 1124
1077 869 398
531 420 107
1049 913 335
1620 1532 604
2225 2307 920
2740 2804 1327
1039 1020 380
314 293 88
292 250 57
424 368 165
306 251 108
122 84 16
371 279 174
323 386 82
244 363 68
1021 1355 657
1674 2313 1129
1627 2326 1001
1570 2163 908
1049 1486 446
1398 1745 761
833 1195 325
746 1090 317
578 909 252
258 473 124
153 320 45
170 353 76
539 783 195
785 1068 288
688 980 232
585 822 153
376 513 131
284 400 60
247 349 60
205 272 56
150 210 85
429 538 194
279 393 91
153 264 101
626 875 300
1164 1498 622
525 733 197
177 313 67
122 248 39
355 553 140
1269 1651 689
2086 2478 1141
1746 2045 928
429 635 107
665 928 244
1152 1410 552
371 546 141
547 663 131
1007 1168 397
1614 1798 706
1430 1653 509
1358 1596 466
1134 1287 330
1094 1085 317
1227 1079 373
2459 2292 1475
1448 1362 666
899 855 273
806 803 295
385 412 86
288 322 57
688 793 281
2259 2488 1210
2444 2526 1222
1210 1110 434
1189 1035 489
1074 904 469
589 482 196
293 242 69
199 170 33
215 200 46
304 294 92
263 269 69
263 269 66
235 245 50
232 251 59
259 291 78
242 302 64
246 362 164
696 1041 273
1388 2122 569
1999 2818 939
2127 2966 961
2131 2650 952
1123 1236 390
859 789 299
921 802 422
346 259 56
613 513 239
514 413 178
285 204 53
299 224 70
556 428 156
1166 969 491
1646 1402 807
970 749 278
1289 1091 555
2080 1852 1180
1698 1502 760
1257 1181 466
1832 1728 879
543 451 122
291 236 55
201 160 30
167 125 18
131 97 16
130 91 21
371 263 98
225 284 52
183 266 48
538 762 288
1179 1569 789
1442 2025 889
878 1376 434
635 1058 219
887 1394 362
1340 1967 752
1820 2455 1094
1359 2019 780
661 1068 303
153 338 100
134 293 38
184 382 73
399 652 98
364 614 86
326 541 67
203 312 52
226 330 51
212 308 54
163 216 33
184 228 47
358 435 145
240 317 76
157 260 76
672 890 309
1094 1324 558
781 987 377
218 343 123
165 300 65
543 738 238
1467 1739 812
2328 2482 1365
2017 2144 1187
480 591 198
318 423 67
410 535 93
299 387 74
440 504 90
932 969 317
925 988 279
555 689 181
1430 1546 652
1244 1279 443
1614 1504 697
2093 1936 1096
1748 1609 908
1086 1000 421
964 919 366
1279 1249 604
893 898 375
580 600 192
701 776 224
1921 2044 1005
1500 1521 672
563 465 250
1655 1439 919
1091 895 490
533 420 146
429 358 113
359 313 80
247 225 38
263 250 61
237 239 56
238 248 56
200 213 42
185 210 38
189 217 41
204 278 74
1028 1400 476
2002 2771 950
2225 3135 990
2306 3296 1011
2231 3151 880
2407 3057 1025
1305 1476 524
580 532 247
867 765 385
339 248 181
818 696 390
757 649 375
356 273 99
247 177 51
498 387 171
1538 1339 826
1119 903 423
1005 781 290
1502 1274 721
1549 1349 769
1148 996 479
445 341 121
1088 947 488
568 471 181
275 211 48
201 160 33
144 109 25
117 84 16
168 126 34
622 508 235
122 156 16
85 126 16
194 318 74
561 860 276
428 808 190
237 546 137
354 733 169
999 1605 485
1382 2154 760
1509 2279 829
1161 1932 615
952 1533 485
226 468 107
134 308 58
183 386 96
583 867 229
366 626 136
583 815 250
187 277 86
189 267 43
158 218 29
135 179 21
169 223 42
168 230 38
125 196 55
182 309 81
699 931 294
1082 1310 518
787 956 363
381 477 127
363 455 122
622 731 261
946 1015 423
1282 1315 702
605 619 290
238 262 65
208 242 58
400 465 150
440 513 134
443 493 110
810 860 266
1394 1494 578
615 767 224
1021 1142 351
1439 1421 605
1893 1766 966
1630 1485 800
779 690 275
512 449 141
563 526 143
1166 1136 615
759 741 317
805 815 411
423 440 104
1334 1325 697
1030 964 418
665 574 260
1082 933 538
555 419 140
394 298 81
573 481 102
659 576 150
369 332 65
263 259 55
248 252 61
249 253 67
214 237 51
185 204 39
176 208 34
262 356 94
1650 2098 859
2353 3171 1104
2299 3218 899
2447 3378 990
2640 3458 1126
2911 3445 1284
1659 1827 740
318 297 269
597 505 200
421 329 173
847 738 419
433 350 150
231 163 44
251 187 55
340 253 61
935 737 321
1143 908 414
1402 1146 612
1402 1194 651
783 605 213
819 679 321
253 178 83
776 681 433
834 754 465
285 218 63
261 201 59
238 193 65
120 83 10
281 218 88
1283 1117 728
79 95 12
71 107 12
209 349 90
321 652 117
599 1059 321
336 762 190
463 952 212
1012 1710 501
1143 1905 590
1133 1895 581
1048 1819 514
1205 1877 651
360 640 215
205 417 58
394 651 178
1684 2045 1039
963 1283 439
852 1108 470
138 192 100
136 174 20
127 169 14
196 252 62
150 213 33
134 205 41
148 261 96
566 804 253
1185 1494 603
940 1206 394
539 679 183
235 291 95
355 409 125
362 416 122
341 379 97
250 257 82
140 158 39
109 127 21
125 152 31
452 504 265
595 666 308
530 609 164
1689 1874 800
2932 3189 1691
1384 1616 548
834 910 192
1204 1168 479
834 753 258
772 695 317
331 277 77
259 222 54
584 541 236
429 383 197
321 292 69
274 246 58
340 302 73
763 709 326
1015 921 475
794 675 317
587 472 184
339 246 81
551 449 154
1502 1377 666
1559 1420 640
515 464 120
296 286 65
248 252 61
220 228 48
220 237 51
204 233 50
195 232 48
246 336 76
780 1084 356
1724 2343 762
2311 3023 928
2539 3258 1059
2419 3019 1019
2414 2762 1063
1192 1348 403
467 456 180
493 434 141
575 493 201
908 800 482
294 231 122
193 145 37
296 228 71
588 478 181
1264 1066 583
1298 1053 537
1748 1496 921
1446 1203 667
1006 804 390
483 362 125
207 148 45
316 249 102
408 333 138
386 311 105
349 267 75
468 397 190
154 109 27
261 202 69
884 751 358
93 103 15
148 195 40
510 689 288
824 1259 474
1657 2363 1146
1519 2249 970
1454 2167 897
1215 1986 655
1063 1834 526
1006 1778 470
1040 1832 501
1329 1999 760
553 865 265
463 729 149
809 1124 366
1876 2222 1173
1010 1277 487
430 555 169
106 139 32
119 145 18
151 194 38
288 345 114
155 227 49
170 272 81
520 763 207
1574 2010 798
1291 1671 586
752 1030 235
729 899 330
115 177 20
187 240 40
316 371 135
184 226 51
160 183 27
245 287 106
171 203 60
125 151 35
283 330 136
450 507 198
947 1078 394
2835 3160 1645
2719 3147 1391
1829 2109 829
1226 1310 491
1233 1195 601
796 735 339
521 465 197
229 192 49
202 177 49
958 897 534
865 799 428
335 305 89
408 355 150
735 648 334
917 812 435
1630 1481 973
938 794 422
313 233 60
316 240 71
371 288 70
967 844 378
1105 1015 470
497 458 133
308 300 79
245 248 60
200 205 38
207 230 46
204 252 51
452 567 186
521 689 212
248 485 122
689 1038 129
1485 1911 470
2172 2553 933
1614 1944 614
1105 1375 321
1275 1476 523
827 879 260
298 321 65
307 272 95
541 474 233
229 187 64
242 194 48
558 478 207
1274 1142 707
1755 1551 1017
1489 1259 709
2001 1760 1170
1355 1102 617
1540 1327 909
379 271 78
209 150 31
197 143 28
250 184 40
697 597 308
706 604 302
683 566 298
229 171 63
134 105 38
468 447 187
142 146 36
225 271 90
343 491 155
1172 1642 763
1811 2585 1245
1759 2568 1146
1719 2478 1082
1195 1958 636
1038 1829 514
1048 1819 504
1152 1932 595
1452 2098 848
775 1096 338
638 910 226
967 1264 474
954 1229 460
332 489 149
230 287 60
103 137 7
129 165 28
110 141 15
140 185 32
185 253 49
446 610 161
1330 1722 653
1786 2251 855
1006 1320 408
835 1063 354
913 1065 481
191 254 35
214 266 55
176 225 39
114 157 16
109 143 12
162 200 37
217 258 81
209 249 78
214 248 74
343 395 104
981 1190 385
2264 2752 1164
2575 3029 1363
2201 2455 1100
1509 1588 729
722 713 265
491 448 166
302 271 85
171 158 42
128 115 70
1229 1188 795
1074 1019 599
588 533 224
1122 1030 663
735 648 334
1230 1126 710
1691 1584 1081
547 435 168
248 188 37
326 265 98
300 240 65
343 290 67
329 285 63
349 342 89
295 306 84
264 279 71
227 254 56
232 291 60
248 370 122
1160 1458 585
1098 1385 509
1131 1453 548
1117 1465 457
729 1017 139
887 1159 295
733 1001 244
1047 1356 378
1514 1778 724
873 1018 343
333 406 84
218 237 53
234 207 50
186 164 57
665 612 317
802 719 380
978 879 451
1334 1166 651
2088 1880 1279
1480 1251 766
841 646 296
733 594 278
355 267 74
286 220 60
230 174 44
265 206 63
893 786 471
1458 1317 911
559 418 179
222 166 52
118 101 23
348 395 151
171 168 55
137 169 33
159 273 54
899 1349 534
1830 2547 1251
1862 2595 1235
1503 2138 889
780 1354 338
678 1244 251
1161 1796 634
1415 2103 829
1345 1841 789
520 758 206
531 739 169
628 890 224
435 657 130
237 368 53
165 233 40
123 164 16
183 219 50
99 131 14
94 124 6
235 302 69
506 641 159
1173 1441 514
873 1117 380
287 424 139
176 258 32
135 198 29
197 261 48
204 262 51
113 169 13
96 150 12
96 145 15
110 164 17
152 200 34
168 222 51
167 206 46
351 430 89
1612 1873 816
2586 3051 1348
2197 2553 1059
1665 1852 766
1205 1244 558
323 321 91
216 208 52
176 162 39
134 124 29
141 129 36
411 376 152
541 495 218
439 385 114
1669 1584 1166
1422 1309 889
1452 1340 920
1176 1069 654
718 613 273
284 227 70
267 225 71
267 240 69
267 242 69
246 234 53
293 313 96
365 429 162
417 509 145
347 461 107
322 496 92
729 1086 249
2759 3258 1619
1593 1983 670
749 1071 244
776 1079 271
469 747 113
337 614 160
526 845 259
884 1185 251
785 1008 209
679 848 189
313 404 73
257 301 51
239 246 48
431 407 157
764 715 406
393 336 120
609 513 187
1789 1598 1027
1925 1709 1124
878 696 330
484 383 143
329 261 80
289 224 65
219 172 36
206 165 36
254 196 63
807 703 388
1548 1397 1001
465 331 102
243 188 51
130 125 17
269 320 115
238 214 101
96 98 4
225 326 86
619 937 291
1421 1837 929
1655 2056 1103
600 886 295
393 629 201
240 493 152
513 820 211
1193 1537 748
482 733 295
156 289 54
288 504 84
609 908 224
771 1054 310
330 541 101
251 395 77
239 348 67
178 250 60
101 138 18
139 176 33
265 329 85
590 714 281
670 815 269
445 563 129
282 358 143
133 181 47
129 191 21
429 507 192
249 316 101
105 155 18
96 150 12
98 154 17
118 175 25
142 203 32
164 224 45
192 254 46
448 584 131
1513 1778 730
2078 2406 1006
1334 1527 535
830 893 252
495 536 137
288 311 91
344 362 102
239 254 80
129 128 32
133 123 29
406 371 160
770 715 385
1053 980 610
1817 1719 1277
1284 1166 760
962 864 469
1365 1254 809
2022 1912 1414
367 305 116
250 216 63
256 229 64
277 258 83
543 600 247
2386 2721 1653
2732 3125 1946
2154 2549 1442
1179 1546 581
909 1364 334
1530 2263 706
3200 3911 1659
2229 2787 947
679 1078 237
490 829 155
419 784 197
959 1439 295
1793 2318 778
1511 1957 581
689 965 193
555 745 116
392 526 95
366 461 76
500 535 181
504 496 188
423 389 124
412 368 82
941 846 371
2012 1840 1220
1552 1365 828
575 444 147
296 233 61
326 267 115
242 194 55
162 129 14
162 135 19
220 179 35
426 352 114
1320 1190 773
611 493 217
339 304 67
275 293 56
453 521 111
267 242 142
98 95 10
247 306 109
525 660 265
523 659 232
426 522 211
145 208 106
139 196 36
138 209 37
203 290 51
308 408 131
112 171 49
105 190 29
668 947 264
1299 1689 599
1126 1541 454
669 1013 183
646 999 183
867 1225 351
583 848 188
274 405 132
172 242 49
223 289 50
323 425 159
295 395 72
578 679 229
839 939 444
245 286 83
241 311 68
793 894 429
637 759 312
167 245 61
125 180 28
130 193 29
136 194 29
154 203 32
217 280 54
419 539 159
822 1045 351
1327 1594 577
1540 1743 705
602 724 208
599 652 170
390 430 84
446 476 135
942 957 450
715 740 320
246 231 51
138 127 29
304 271 122
876 828 485
1274 1217 822
1541 1448 1034
1249 1152 731
1385 1274 839
1653 1538 1057
2806 2688 2189
451 403 187
250 223 63
233 207 50
252 242 77
2009 2229 1429
3970 4095 3086
3459 3863 2427
2381 2782 1505
1645 2073 885
1340 1853 617
1769 2538 768
3358 4095 1659
3104 3837 1368
2028 2789 778
1319 2029 408
1319 2062 351
2118 2935 836
2557 3416 1132
1858 2638 725
1092 1541 363
605 912 151
647 883 175
804 982 291
611 703 200
402 465 94
575 608 164
1032 1064 452
1709 1618 899
1862 1686 1004
1044 908 428
550 444 161
263 202 51
304 261 114
206 172 41
195 169 31
259 227 60
236 194 55
367 308 91
1194 1049 584
670 599 255
426 481 77
426 519 97
450 551 129
168 153 75
78 73 7
205 222 82
321 355 159
130 152 27
109 116 26
100 111 23
117 130 37
100 116 18
113 127 20
105 117 16
132 144 28
197 283 106
967 1274 444
1800 2245 869
1353 1818 553
1038 1514 400
1054 1524 395
1162 1610 438
1171 1619 457
957 1318 362
385 551 129
160 253 95
285 434 99
431 605 106
615 801 162
700 833 262
232 300 55
294 378 82
508 590 207
441 540 173
491 596 239
309 406 120
173 239 43
143 197 33
196 249 56
371 436 158
719 887 323
1191 1443 570
1238 1514 552
926 1141 347
654 790 198
709 775 288
356 400 81
363 408 89
522 562 159
595 628 204
507 498 185
263 233 64
310 278 87
566 506 232
550 496 195
1359 1270 849
1979 1882 1396
1841 1724 1238
1105 1019 585
1057 981 609
393 347 141
331 295 110
233 215 54
252 276 84
2721 3029 1903
3417 3806 2414
2286 2667 1391
1590 2002 840
1488 1906 748
1346 1828 601
2119 2771 1014
3474 4095 1756
2823 3538 1185
3085 3837 1408
2564 3419 1133
2083 3007 815
2248 3177 854
2362 3296 876
1950 2843 725
1058 1719 304
880 1375 313
1753 2267 828
1285 1639 461
761 1041 193
592 851 139
913 1175 278
1871 2143 1001
1911 1922 941
1620 1471 760
765 669 265
394 334 96
248 211 55
220 195 57
173 153 30
226 201 50
273 242 59
321 284 89
639 551 203
914 819 298
1068 1189 278
1819 2114 758
1879 2158 819
1072 1242 340
98 89 38
66 61 12
105 106 37
106 112 35
66 71 3
79 82 16
71 72 13
77 78 15
72 73 15
74 76 15
91 91 15
266 268 103
550 632 226
1228 1494 633
1616 1974 798
947 1357 296
679 1105 165
622 1060 145
774 1200 217
979 1429 291
1095 1566 398
630 1006 246
236 472 152
745 1098 229
1006 1401 319
1034 1415 341
756 1011 206
498 597 126
281 351 57
205 263 76
131 190 108
719 838 413
576 698 287
227 300 61
153 209 36
138 189 32
256 317 85
589 722 246
914 1140 423
788 1027 291
587 805 172
629 761 205
512 583 156
264 321 48
257 313 46
391 438 96
512 551 146
511 518 178
271 256 59
263 242 49
422 389 128
350 308 124
736 683 335
1831 1747 1312
1637 1555 1074
1109 1043 638
445 402 143
276 251 64
311 296 89
253 253 70
253 314 87
2252 2647 1502
2480 2909 1639
1419 1781 776
706 1048 248
617 963 195
999 1431 391
2615 3274 1374
2582 3196 1096
1111 1694 362
2029 2716 776
2127 2932 840
2083 3025 796
2146 3064 789
2174 3140 762
2164 3086 828
1375 2149 521
1448 2154 599
2044 2757 1061
1243 1843 388
893 1452 225
1495 2126 583
2103 2710 990
1807 2351 799
1210 1458 357
957 918 287
519 472 150
257 224 70
263 242 59
198 189 35
171 172 36
212 211 35
259 248 47
661 639 267
955 905 339
1217 1318 353
1979 2399 740
2306 2892 869
2447 3014 1011
1485 1893 534
85 75 30
72 66 20
62 59 12
61 55 7
75 73 15
109 101 38
72 69 12
65 66 12
69 66 14
69 70 14
85 84 13
280 282 114
501 572 194
513 676 198
884 1156 376
917 1358 357
493 914 346
405 807 275
1268 1752 536
2314 2855 1195
2459 3045 1307
1825 2409 884
1000 1531 348
1439 1966 536
1410 1953 476
1279 1805 410
1051 1359 318
1059 1154 434
266 332 76
224 286 68
104 155 44
281 348 135
465 549 228
280 348 95
148 195 40
96 131 18
128 162 22
277 334 68
419 555 127
454 622 133
488 668 165
516 673 185
378 462 95
263 339 63
213 289 45
285 369 69
538 643 204
452 538 129
308 387 67
776 878 327
1429 1545 730
1194 1264 513
518 543 152
867 827 433
811 763 391
618 576 266
314 301 91
218 224 46
222 243 46
236 287 66
368 531 124
1996 2420 1204
1743 2136 1036
749 1064 338
481 820 127
583 933 189
1327 1803 559
3300 3911 1777
3378 3991 1718
1200 1744 343
1223 1855 407
1810 2663 661
1930 2877 697
1930 2877 661
1992 2933 670
1769 2664 661
1253 2032 448
997 1680 275
1201 1897 395
1366 2072 511
1261 1993 441
1476 2201 586
1686 2420 705
1524 2201 583
1374 1900 545
608 767 295
210 218 101
349 355 137
600 609 266
366 395 101
331 378 79
405 452 120
270 297 47
563 575 176
1281 1347 436
1533 1966 526
1871 2546 655
1924 2610 647
1900 2596 658
1666 2237 651
83 74 27
80 70 27
68 59 15
71 59 12
147 130 63
196 182 99
120 107 39
68 62 14
66 66 14
67 67 14
81 80 12
186 185 64
239 289 76
222 295 59
395 579 154
1400 1848 762
1402 2026 649
1394 2037 642
1876 2582 928
2635 3319 1385
2343 2934 1105
2183 2728 1091
1150 1682 446
1226 1719 379
1561 2079 583
1400 1905 514
1452 1768 612
1234 1345 505
257 322 76
178 227 39
80 115 11
95 125 12
280 325 121
233 279 84
96 114 17
95 107 26
132 141 32
211 227 55
270 328 62
385 497 125
468 587 187
390 504 122
373 468 108
287 380 78
165 252 41
190 287 44
524 657 200
848 1008 371
804 959 315
805 980 288
1899 2155 904
2933 3166 1536
1486 1627 677
324 353 62
208 227 35
215 228 39
198 221 37
215 287 38
463 615 171
568 831 209
870 1252 339
2019 2477 1105
1575 1983 805
839 1231 304
1144 1561 484
1227 1644 584
1847 2445 869
2830 3358 1600
1298 1720 535
400 724 281
770 1341 288
1723 2559 644
1930 2877 751
1912 2877 642
1841 2788 642
1152 1968 346
1479 2332 679
1427 2184 617
1305 2017 514
1253 1931 448
1331 2027 487
1271 1967 496
1024 1693 313
1173 1826 414
1267 1911 470
875 1244 300
397 513 79
604 705 219
535 640 210
452 567 103
489 633 148
643 789 270
283 365 55
670 771 243
1303 1575 443
1505 2155 491
1597 2379 538
1575 2318 488
1702 2463 615
1488 2063 591
99 90 39
113 101 46
97 85 30
89 77 19
213 186 97
459 401 246
394 357 240
90 81 25
66 62 12
66 66 16
79 81 15
114 122 26
175 207 47
208 252 46
259 373 113
1552 1972 905
2148 2967 1249
2038 2934 1067
2286 3144 1200
2623 3413 1427
1505 2097 513
1270 1778 380
1348 1888 504
2172 2724 1105
2167 2694 1034
1745 2227 780
1561 1893 702
1132 1298 438
328 433 147
109 149 75
79 94 10
70 78 5
138 147 44
106 116 17
77 84 7
110 111 20
247 241 94
313 305 124
179 191 34
168 220 44
159 226 40
143 210 49
304 389 106
340 451 109
179 273 44
187 282 40
317 447 82
533 696 180
594 752 204
396 542 116
860 1105 273
2343 2609 1127
1509 1719 699
245 332 121
217 303 69
288 402 106
278 404 60
299 473 81
479 799 148
1113 1675 516
1590 2220 780
1905 2477 990
1938 2465 1015
819 1189 267
700 1061 278
809 1184 321
1462 2054 608
2295 2841 1374
1102 1520 543
755 1229 236
1217 1906 454
1876 2770 786
1858 2806 751
1823 2753 697
1493 2369 549
885 1622 287
1514 2350 731
1453 2219 687
677 1309 225
1364 2138 506
1853 2604 843
1013 1647 332
863 1503 232
1035 1678 325
1218 1871 452
1055 1519 351
672 944 168
728 995 234
777 1060 257
592 852 148
702 1004 245
621 913 185
339 561 145
538 776 111
1349 1841 482
1514 2292 523
1402 2204 458
1429 2241 485
1590 2395 589
1260 1887 417
161 145 88
188 176 100
165 144 69
144 118 47
460 373 198
1327 1189 923
707 635 449
110 89 21
73 70 14
66 69 16
73 74 16
77 83 12
109 122 10
194 212 54
241 339 87
893 1313 393
1731 2540 921
1816 2679 880
2044 2954 1041
2314 3161 1166
1260 1854 542
1805 2377 822
3158 3759 1939
3622 4095 2256
2459 2909 1268
1580 2013 676
1289 1628 508
1209 1489 519
656 794 276
135 168 108
98 98 17
80 86 15
89 92 19
95 98 26
130 126 47
225 216 99
361 341 171
289 278 116
157 171 33
105 139 16
100 137 18
83 125 10
148 226 41
246 349 68
279 406 71
323 444 87
248 360 50
217 347 67
293 425 78
329 465 71
435 592 139
1229 1473 546
896 1141 461
203 373 89
1155 1486 550
1630 2015 829
481 800 137
401 760 152
939 1531 373
1561 2276 771
1753 2458 914
1788 2390 950
1341 1852 653
309 559 263
306 602 204
599 1022 162
846 1343 271
1962 2568 1082
954 1334 605
1055 1639 336
1799 2557 916
1490 2252 728
1007 1783 336
1185 2008 378
1152 1959 395
914 1647 315
1514 2332 748
914 1536 394
348 878 255
1716 2610 751
1980 2789 898
937 1551 362
898 1551 228
1022 1655 316
1152 1769 408
796 1252 236
511 889 133
679 1111 184
2030 2557 1132
1580 2108 780
1076 1579 396
952 1434 326
1105 1592 460
1058 1549 380
1501 2109 589
1429 2204 520
1279 2086 395
1347 2120 446
1459 2232 549
1601 2315 661
205 193 129
264 239 158
286 253 158
535 429 243
1365 1234 907
1580 1389 1008
568 487 298
119 104 32
79 73 17
68 68 14
72 73 16
71 76 11
97 104 5
212 227 47
279 383 79
493 901 200
1494 2292 752
1932 2861 984
2201 3143 1148
2091 2935 1027
1442 2017 480
1955 2463 959
3560 4071 2272
3873 4095 2553
1539 1829 778
795 1050 258
1133 1394 501
1365 1587 677
1199 1359 695
349 386 156
132 136 38
105 99 27
94 88 22
92 86 17
99 85 13
206 190 71
316 287 130
273 254 102
186 198 52
153 180 43
192 245 64
127 180 48
243 322 81
273 386 67
595 770 233
837 1019 377
298 421 69
194 311 42
289 419 72
373 523 121
218 360 54
380 578 166
695 996 205
1019 1430 375
2326 2892 1213
2732 3332 1469
675 1202 230
1066 1719 458
1646 2380 846
1693 2446 865
1595 2284 843
1218 1810 591
458 832 151
277 585 326
1085 1636 517
1446 1984 731
1177 1671 510
1698 2271 885
758 991 693
499 957 229
833 1407 367
485 1020 201
629 1326 282
1168 1984 419
1442 2198 721
644 1170 296
818 1391 351
465 943 264
737 1422 240
2037 2953 971
2360 3288 1115
2434 3196 1133
1469 2129 509
1032 1615 315
961 1536 299
975 1519 311
1572 2172 652
909 1444 316
1376 1941 466
1700 2276 762
1142 1673 326
1456 2010 607
1938 2540 940
1110 1686 342
1194 1828 375
1270 2024 431
1185 2004 367
1210 2004 392
1338 2125 507
1319 2012 500
186 173 109
223 200 119
270 226 105
1117 987 700
1563 1379 981
1093 936 584
364 291 121
119 102 27
92 89 20
82 81 17
77 79 17
80 83 14
114 118 14
245 256 57
341 454 106
852 1279 408
2019 2858 1143
2051 2991 1110
2063 2991 1115
1980 2843 990
1193 1671 486
674 971 229
1889 2201 1091
2183 2409 1335
607 744 217
476 608 135
450 630 138
696 831 283
631 706 301
208 225 65
108 108 21
78 76 11
121 117 39
200 183 74
263 241 110
354 326 163
280 252 101
185 164 40
285 287 74
690 731 371
703 766 377
317 387 61
467 601 183
373 551 121
1288 1631 638
1782 2055 937
240 344 145
177 275 45
202 322 66
290 420 80
210 355 91
838 1164 343
1866 2401 958
2219 2798 1059
2030 2577 878
1532 2118 614
1541 2211 669
1671 2434 873
1634 2416 836
1607 2369 846
1485 2201 751
963 1539 386
672 1147 267
466 925 143
1475 2091 759
1757 2309 914
1119 1621 453
1496 2088 704
831 970 554
267 582 296
471 957 132
619 1218 218
1039 1791 359
1227 1987 484
1054 1696 519
333 635 161
264 519 89
436 886 150
1439 2219 644
1984 2806 929
2596 3481 1260
3639 4095 1899
3143 3877 1639
1118 1718 347
792 1289 333
1636 2332 661
2674 3435 1405
2687 3398 1382
1453 2010 591
806 1288 287
1152 1655 378
2063 2656 1022
2248 2896 1124
1417 2086 480
1329 2032 431
1185 1945 367
1152 1943 353
1193 1975 403
1252 2062 450
1017 1678 331
106 96 38
155 136 63
274 218 87
1094 972 646
1347 1185 783
925 783 490
389 324 152
154 137 43
126 121 34
104 110 35
99 100 20
99 101 15
125 136 26
238 248 58
368 489 115
1186 1648 588
2134 2915 1238
2051 2898 1091
2172 3010 1181
1926 2495 990
1031 1355 397
937 1174 362
1028 1275 370
557 741 259
672 795 216
774 884 267
246 377 52
164 240 33
113 127 16
103 103 20
101 96 21
89 83 15
244 237 115
437 407 224
391 361 179
395 368 185
257 223 68
275 252 69
606 601 285
950 1006 552
667 726 295
515 622 157
656 869 291
607 892 236
1841 2313 993
2641 3011 1549
218 334 111
130 225 82
315 481 143
395 588 135
326 558 256
1889 2359 989
2680 3307 1297
2681 3253 1207
1550 2073 641
948 1490 356
1788 2484 903
1569 2311 761
1421 2201 697
1539 2300 796
1341 2054 616
949 1517 325
928 1431 407
632 1136 240
1253 1837 558
1462 2010 722
760 1234 293
1119 1680 413
889 1089 614
245 531 489
938 1598 271
2303 3085 1170
1688 2419 783
1310 2070 517
937 1544 378
287 580 218
229 449 162
536 1001 204
1439 2168 694
1184 1855 463
948 1552 558
1686 2354 618
2604 3302 1247
1375 1935 511
1182 1749 370
1923 2576 864
2065 2789 977
2572 3315 1314
2211 2769 1152
1527 2077 592
1275 1745 486
1360 1828 542
1448 1998 541
1769 2484 697
1597 2266 635
1294 2062 434
1193 1975 386
1236 2004 408
1277 2070 450
1055 1735 352
98 87 35
142 125 51
296 247 99
1170 1043 721
961 844 485
596 500 229
285 238 59
229 255 71
359 451 149
639 780 300
388 467 129
176 213 54
129 154 37
173 206 71
444 592 143
1302 1788 623
2096 2820 1143
2191 2896 1124
1932 2453 1002
1261 1532 541
779 974 244
1020 1268 428
1394 1680 670
1226 1508 511
1135 1341 437
682 858 227
513 700 147
287 383 78
102 113 13
129 131 39
127 124 38
115 111 28
245 231 112
427 398 212
404 375 189
355 329 140
388 352 130
551 516 178
538 549 171
602 655 241
504 573 178
460 594 147
443 688 167
581 900 171
1179 1568 529
1356 1651 699
305 468 85
330 505 97
886 1152 476
1099 1417 569
1511 1956 770
3704 4095 2280
3543 4095 1837
2548 3075 1153
636 1024 263
401 806 197
1218 1844 496
1402 2109 705
1385 2145 634
1349 2072 634
1323 2054 574
1543 2152 749
944 1479 368
837 1327 380
674 1126 282
536 995 225
887 1368 336
1448 2058 575
1118 1591 590
445 821 744
2137 2933 941
3618 4095 1719
2559 3368 1185
1841 2628 822
1510 2198 704
923 1482 341
1001 1536 409
449 892 94
505 1002 150
778 1385 318
1515 2288 543
1613 2354 510
1940 2661 670
1863 2540 728
1493 2078 486
1676 2303 644
1592 2202 627
1597 2249 687
1682 2215 738
1532 1989 592
911 1192 266
789 1076 257
1300 1860 469
2830 3631 1445
1671 2402 661
1292 2033 403
1218 1975 403
1144 1866 373
975 1703 295
1103 1818 357
100 94 36
162 152 70
368 323 146
1058 968 613
780 689 346
625 576 209
608 666 220
943 1248 390
1608 2109 829
1881 2487 1082
1484 1991 751
479 669 173
251 405 102
337 510 160
911 1161 393
1740 2173 913
2264 2830 1152
2549 3121 1303
1503 1874 597
760 930 244
265 339 139
208 341 134
795 1063 308
1714 2124 914
1467 1886 685
1067 1457 362
975 1249 371
485 586 146
159 169 38
263 261 128
191 182 78
142 135 48
218 204 75
381 354 161
361 336 131
269 252 65
698 688 312
734 744 259
597 632 202
605 695 214
780 970 299
706 987 286
854 1213 332
1340 1720 726
926 1207 413
416 631 115
300 500 68
246 414 72
794 1054 375
1831 2212 1069
1873 2298 1045
2209 2660 1146
1844 2342 770
1146 1614 466
323 662 152
350 714 156
634 1131 213
1288 1940 591
1349 2054 653
1393 2099 670
2031 2766 1015
1645 2271 777
809 1253 328
906 1370 488
595 1011 257
1336 1954 534
2274 2862 1137
2198 2770 1126
2216 2968 857
2169 2875 793
3695 4095 1620
3834 4095 1725
3047 3837 1272
1268 1959 435
894 1475 343
865 1415 331
1541 2185 745
603 1082 207
555 1082 339
1957 2798 858
3009 3865 1431
3525 4095 1714
3391 4095 1676
3549 4095 1716
2586 3283 1137
1710 2320 660
1520 2096 576
1289 1841 454
1250 1769 429
1549 2049 609
1252 1567 512
610 892 208
1298 1858 389
1984 2699 875
1217 1890 364
1544 2335 549
1336 2129 467
916 1576 287
375 843 165
523 1148 251
112 117 36
199 197 88
476 452 240
1074 1042 676
853 800 448
978 959 470
1521 1650 701
2184 2610 1173
2154 2785 1087
1932 2694 936
2049 2771 1034
1411 2051 593
1236 1784 483
1590 2089 734
1655 1956 753
1731 2051 884
1740 2041 799
2469 2785 1362
1181 1446 431
569 684 152
207 274 71
245 416 111
939 1305 452
1816 2342 1005
1849 2389 999
1506 1962 657
1049 1310 409
472 551 146
316 319 136
376 381 197
245 227 99
204 191 73
336 331 129
1100 1118 622
797 809 386
289 294 52
706 716 324
841 852 345
490 544 130
663 839 224
1502 1850 698
1685 2186 759
1449 1870 684
754 1055 290
329 564 104
403 631 107
435 661 121
305 495 73
434 655 209
639 891 282
440 751 227
1456 1909 674
751 1152 283
622 1032 157
1295 1874 570
872 1350 370
434 861 172
1288 1915 591
1557 2263 778
1743 2458 825
2026 2750 965
1926 2568 1009
1095 1527 631
792 1185 414
585 973 218
1869 2539 793
2568 3064 1320
2088 2628 1131
2252 3146 929
3143 3970 1298
3180 3951 1260
3852 4095 1777
2973 3706 1241
1710 2421 660
1247 1855 488
674 1219 257
1125 1739 450
918 1543 376
1854 2621 734
2735 3557 1179
2989 3857 1322
2611 3352 1041
2266 2868 1133
3645 4095 1948
3336 3992 1735
1578 2121 626
2101 2699 1068
1273 1793 446
758 1195 211
1079 1490 410
1404 1834 519
1287 1727 456
1862 2454 731
1682 2386 617
1682 2455 600
2285 3177 1041
1746 2539 723
595 1162 222
254 626 193
959 1711 352
154 183 60
244 271 118
504 509 258
1139 1112 748
674 656 311
950 955 441
2123 2275 1142
2199 2579 1100
2187 2694 1074
1905 2534 895
1924 2648 914
2024 2719 944
2141 2776 1002
2362 2987 1132
1762 2077 752
695 841 197
427 543 152
1009 1171 393
862 1021 274
604 731 159
259 405 109
728 1011 275
1364 1900 715
1669 2225 868
1719 2266 890
1500 1976 734
562 728 148
281 322 70
328 335 135
359 355 174
303 288 137
296 271 119
752 741 421
1685 1748 1033
742 787 318
260 277 78
564 578 227
1044 1055 524
533 609 148
629 839 224
1556 1984 701
1582 2048 687
920 1251 347
306 512 101
286 495 72
511 751 185
612 854 232
414 644 126
211 404 53
178 356 171
1279 1698 615
1425 1903 615
736 1168 178
1177 1675 470
2595 3119 1485
819 1241 348
634 1069 191
1085 1603 425
1493 2119 670
1720 2355 833
1488 2167 679
1414 2032 627
1308 1803 732
684 1009 331
502 821 198
2109 2806 911
2140 2750 835
2111 2661 1167
2311 3175 916
3311 4095 1354
1639 2272 502
2364 3034 1058
1548 2206 575
1236 1851 449
1327 1943 527
538 1057 252
1283 1978 449
2094 2953 806
2717 3665 1161
3043 3967 1285
3025 3929 1303
2116 2845 779
590 945 314
1123 1475 542
1611 2087 734
940 1385 270
1834 2399 829
1333 1868 460
1257 1769 519
971 1399 290
1802 2352 635
1561 2062 676
1448 2008 526
1424 2033 493
2119 2951 887
2303 3214 984
2409 3255 1129
892 1528 465
289 762 177
1442 2318 583
142 207 52
173 223 59
272 287 99
789 769 460
563 540 264
1024 1005 543
2143 2143 1113
2093 2292 967
1958 2372 944
1796 2351 799
1848 2553 857
2122 2816 1002
2362 3026 1113
2518 3079 1199
1513 1813 665
203 277 106
299 356 72
605 721 232
1180 1328 575
907 1090 371
800 1031 291
1391 1791 638
1571 2157 770
1561 2113 770
1800 2373 981
1329 1758 659
217 272 166
165 183 36
302 305 113
277 268 98
303 288 131
375 346 181
721 703 438
983 990 556
298 321 65
206 224 39
468 485 181
749 781 320
651 751 227
772 987 291
1017 1327 444
978 1337 390
433 675 147
153 306 79
160 322 64
274 458 70
386 600 115
354 571 83
202 381 131
952 1248 485
2507 3003 1512
1821 2339 890
560 937 203
841 1235 351
1222 1611 516
1004 1390 446
776 1143 311
594 963 225
519 907 172
764 1215 259
522 953 183
1243 1844 650
1200 1647 695
536 818 174
462 760 158
1872 2541 687
1423 2063 463
2735 3351 1449
3177 3994 1152
3405 4095 1468
1038 1603 609
824 1349 273
789 1312 322
550 1032 214
614 1091 184
810 1392 351
2032 2862 829
2681 3599 1058
2804 3722 1041
3315 4095 1394
3205 4095 1285
3320 4095 1394
867 1290 408
273 458 395
489 770 164
555 888 166
1275 1737 526
1327 1904 484
1292 1852 453
2428 3143 1015
3161 3793 1718
853 1247 393
1388 1979 519
1465 2099 486
1904 2629 793
2330 3137 1046
2796 3626 1427
1563 2318 652
871 1537 367
1658 2522 723
158 236 59
159 225 51
216 245 74
386 383 154
282 273 112
935 903 484
2193 2122 1139
2138 2239 959
1909 2265 887
1880 2410 916
1909 2527 964
1952 2499 1014
1119 1533 460
1044 1289 441
765 871 307
165 198 62
261 291 65
1038 1143 595
1124 1229 504
898 1041 349
1971 2205 1031
2689 3196 1312
2087 2681 961
1658 2215 798
1936 2402 1079
795 970 385
144 164 63
165 177 33
405 427 159
266 277 77
283 265 101
322 304 135
402 385 200
352 347 144
177 176 36
172 189 39
225 245 59
357 397 135
649 740 270
366 530 127
370 564 149
749 993 329
300 503 91
118 255 67
123 257 51
147 300 60
240 405 56
780 1017 327
629 878 244
924 1200 462
1329 1659 649
768 1113 325
282 563 188
1050 1421 479
988 1366 370
782 1128 279
549 883 179
458 778 157
402 756 100
622 1051 148
930 1466 322
2648 3334 1371
2020 2610 1090
476 818 472
753 1190 287
1352 1983 488
1023 1595 248
3048 3697 1523
3857 4095 1702
3233 3939 1394
956 1481 511
882 1443 233
1199 1765 420
687 1207 166
439 905 180
1519 2223 592
2523 3428 1044
3074 4004 1179
2819 3724 939
3559 4095 1431
3670 4095 1522
3820 4095 1713
1636 2188 701
277 514 305
382 675 105
440 788 136
652 1082 229
1434 2017 617
1584 2228 626
2351 3010 1054
1494 2029 709
745 1162 452
1844 2488 800
1768 2438 755
1247 1871 407
1415 2041 510
1502 2103 584
1111 1710 275
1151 1799 375
1805 2646 786
204 321 84
307 417 139
295 331 114
401 398 189
365 351 156
767 725 353
1811 1770 1004
2107 2179 1063
2184 2507 1153
1956 2440 1046
1925 2440 1057
1421 1798 740
250 320 108
223 232 70
215 215 50
206 203 62
284 270 89
638 624 281
513 495 143
638 629 199
1497 1627 657
2953 3149 1552
2180 2392 994
1645 1841 723
1475 1538 680
449 444 129
281 275 95
174 173 37
265 274 81
252 259 77
283 257 101
310 282 126
329 310 150
212 206 78
145 145 36
169 192 54
133 162 32
164 210 38
256 342 74
211 327 53
248 393 133
411 625 165
164 347 109
156 311 81
194 351 57
180 338 48
219 384 52
353 535 119
383 556 119
157 332 168
355 604 139
313 549 107
443 740 152
2197 2608 1265
763 1108 360
350 637 164
298 579 87
485 855 137
555 956 148
1022 1526 316
2776 3452 1292
3639 4095 1639
3798 4095 1798
2116 2752 846
1836 2524 772
1180 1739 364
1061 1595 240
3027 3614 1559
3897 4095 1858
2245 2872 957
882 1414 292
853 1392 197
1558 2175 665
1370 2017 488
542 1032 281
1910 2617 855
2663 3551 1027
3325 4095 1341
3069 4004 1093
3725 4095 1504
3789 4095 1608
3861 4095 1787
2169 2769 1111
525 864 169
583 977 211
447 801 124
652 1082 229
1462 2044 644
1479 2106 531
1087 1638 347
1070 1591 263
1182 1781 315
1094 1653 380
1303 1927 463
1189 1812 409
896 1415 251
780 1254 189
817 1283 226
799 1326 296
1394 2087 484
340 543 165
785 999 474
411 465 190
458 461 238
479 470 244
472 457 193
734 706 321
1171 1235 629
1557 1779 941
1728 2008 1045
1759 2028 1096
705 828 257
122 131 164
131 126 34
171 164 59
179 174 60
180 169 50
237 224 79
233 212 64
437 396 152
781 751 311
938 899 311
800 737 236
923 835 375
602 524 190
296 258 87
333 302 143
185 161 48
159 140 31
258 232 93
370 345 170
468 427 260
302 274 135
149 139 50
114 122 32
110 128 32
76 99 11
134 176 35
311 386 114
308 417 124
148 255 51
237 422 95
313 550 106
368 587 141
270 481 79
281 458 91
267 411 86
128 223 63
229 382 148
1242 1562 661
737 1027 284
286 508 80
546 838 241
1544 1903 839
438 710 217
290 566 143
563 945 141
910 1336 250
1733 2256 669
2713 3338 1152
3519 4095 1678
3028 3703 1080
3978 4095 1798
3872 4095 1877
1889 2507 841
866 1363 282
1501 2069 511
3386 4026 1599
3780 4095 1677
1456 2039 527
659 1116 221
727 1241 268
2094 2747 979
2245 2994 992
606 1111 375
2053 2789 884
2678 3537 996
3659 4095 1557
3432 4095 1305
3670 4095 1486
3043 3857 1141
3849 4095 1867
1844 2384 835
715 1114 248
760 1172 318
499 900 280
382 770 72
692 1166 210
1312 1931 466
1201 1777 389
1070 1622 295
1320 1919 407
1100 1628 359
933 1528 218
1054 1682 290
1263 1959 384
1306 1988 429
918 1370 406
799 1282 229
1523 2202 541
660 932 360
908 1070 546
406 447 206
487 478 281
401 386 208
230 213 70
166 151 80
254 259 89
354 408 193
496 567 235
740 794 364
261 271 149
103 100 29
115 108 30
146 136 53
163 153 67
117 107 25
112 101 24
105 94 18
136 117 28
173 143 47
183 151 91
495 452 247
729 693 450
444 397 204
217 186 69
259 227 111
184 157 61
141 119 37
277 236 105
476 434 258
496 455 271
285 252 113
117 110 30
68 69 9
58 79 15
110 168 52
222 304 71
232 316 66
196 283 81
132 231 51
481 737 224
540 916 235
552 952 236
606 993 273
316 556 123
146 245 68
177 292 82
1965 2313 1094
2684 3065 1520
578 824 260
213 420 40
298 538 83
486 732 213
409 700 161
756 1192 304
1063 1501 393
677 1032 181
2851 3479 1355
3953 4095 1966
2553 3239 1105
2416 3066 928
3984 4095 2002
2750 3270 1244
740 1185 511
681 1133 208
2088 2680 870
3568 4095 1677
3048 3717 1394
1017 1552 436
817 1349 174
1308 1891 504
2789 3459 1358
1931 2591 897
867 1392 627
2787 3581 1288
2855 3742 1113
3743 4095 1577
3725 4095 1504
3828 4095 1616
1526 2094 698
2234 2806 1126
1260 1745 467
528 896 123
884 1347 422
1018 1570 500
649 1177 213
843 1410 433
1698 2449 751
1317 1968 510
1609 2303 609
1603 2304 618
1343 2007 479
1172 1785 388
1221 1930 322
1967 2715 800
1570 2171 651
1205 1694 488
1158 1694 299
1626 2202 627
635 768 380
317 378 132
369 383 190
484 469 284
300 284 126
147 132 51
138 129 48
160 151 44
151 137 18
219 207 55
318 295 144
155 142 40
104 97 25
119 111 40
104 97 26
154 143 60
134 123 41
85 76 13
79 67 11
113 96 25
171 146 51
191 160 59
427 390 248
446 410 261
302 268 139
169 142 46
199 167 69
175 149 60
185 152 62
424 375 216
634 591 387
553 510 310
345 319 164
142 136 42
67 83 14
297 404 157
1048 1296 690
890 1129 490
280 432 73
116 233 77
106 245 84
585 986 271
983 1594 527
1207 1873 655
1433 2055 823
719 1086 358
105 198 113
795 1035 366
3239 3623 1895
1129 1429 499
205 412 127
175 373 37
271 512 38
426 718 97
423 728 107
1190 1591 504
1192 1569 568
1113 1540 383
3745 4095 1969
2939 3498 1418
837 1264 551
1705 2175 608
2690 3199 1393
1103 1559 760
474 815 173
939 1407 282
2769 3362 1375
3588 4095 1832
1207 1719 624
511 907 341
1320 1863 384
2381 2981 1093
3255 3989 1636
986 1475 466
1091 1580 587
3169 3967 1503
3164 3951 1268
3495 4095 1485
3688 4095 1541
3876 4095 1731
1032 1444 683
1111 1511 456
753 1141 225
485 870 133
549 948 180
843 1347 389
1341 1976 634
803 1434 394
841 1399 489
1575 2269 644
2180 2968 946
1794 2591 745
1355 2033 441
1249 1871 410
1233 1816 388
1778 2387 779
1141 1692 434
1295 1855 400
2056 2699 840
1207 1695 463
185 209 73
145 145 46
358 358 201
399 380 223
353 325 163
748 711 476
289 272 97
209 198 67
184 160 47
260 234 101
197 176 66
128 113 33
132 117 43
143 126 54
101 92 23
193 177 90
219 204 113
100 92 34
739 695 450
481 444 277
277 244 117
483 447 268
325 300 161
239 207 94
244 211 96
150 130 35
234 206 103
156 130 45
247 215 97
608 565 367
756 704 493
666 612 401
444 404 219
251 258 95
163 207 43
394 535 194
692 938 374
725 957 372
423 611 150
366 591 145
780 1150 399
1153 1703 645
1359 2055 769
1568 2314 875
1719 2391 995
725 1073 353
104 211 108
1480 1770 776
2566 2886 1346
504 739 295
181 374 55
307 543 87
399 658 106
541 833 154
398 653 102
511 767 159
579 863 232
1890 2333 955
3496 3998 1841
1408 1768 660
700 1038 301
992 1355 307
725 1051 311
433 712 256
634 962 189
1904 2399 811
3336 3837 1794
1511 1954 860
398 671 236
1207 1647 472
2589 3223 1231
3311 3933 1543
2280 2872 1079
368 603 346
971 1415 481
3164 3915 1537
3459 4095 1521
2320 2980 932
2716 3299 1288
3868 4095 1924
963 1253 581
644 948 229
343 628 166
433 784 127
401 789 111
783 1255 375
1244 1862 591
1006 1655 463
1723 2454 748
2367 3265 1009
2342 3217 1037
1897 2709 728
1519 2239 479
1347 2009 409
1820 2472 718
1940 2576 738
1794 2421 592
2615 3274 1166
1810 2332 852
939 1375 367
80 77 24
168 164 80
348 345 216
221 209 95
302 276 147
1210 1176 802
831 804 432
444 421 187
591 553 336
466 424 259
200 177 67
164 141 50
205 179 82
158 143 60
101 88 24
117 105 33
214 200 103
178 162 80
918 868 508
739 698 331
289 259 73
280 249 102
183 152 52
129 109 26
243 217 99
155 130 39
204 178 71
213 179 77
326 281 145
602 543 352
686 632 414
684 628 413
444 429 219
267 285 89
187 254 54
173 289 42
195 334 62
258 423 90
534 728 250
920 1195 502
1461 1915 832
1135 1646 613
908 1434 438
1087 1639 563
1299 1778 729
413 689 209
128 262 88
1345 1587 748
1733 2043 845
321 499 173
170 346 81
358 592 119
568 833 224
524 771 178
466 705 141
275 473 68
389 637 152
1636 2070 809
2303 2733 1171
1152 1469 417
1260 1603 567
767 1061 263
329 543 96
292 510 76
1210 1588 584
3028 3394 1677
1461 1778 818
375 557 322
314 495 60
1778 2168 592
3236 3876 1561
3696 4095 1753
1078 1429 619
191 285 370
825 1093 388
3235 3789 1645
3798 4095 1816
1253 1598 542
1245 1459 519
2607 2933 1340
571 755 313
214 389 155
305 583 128
508 884 173
496 907 158
489 963 158
859 1452 348
1913 2824 984
2719 3664 1292
2601 3493 1115
2204 3069 899
1998 2811 762
2297 3080 975
2215 2936 962
2245 2924 1009
2175 2819 922
2116 2699 988
1330 1802 633
874 1282 311
815 1259 170
