P3
713 1070
255
120 140 157
120 137 155
124 139 157
124 138 159
123 139 160
126 142 162
129 148 166
127 146 162
131 153 171
131 153 171
135 158 173
138 161 179
139 164 183
136 162 183
139 164 187
141 164 189
141 169 191
143 171 192
143 173 192
144 173 192
143 171 192
146 175 195
146 175 191
145 178 192
143 176 189
144 176 191
146 177 195
148 178 199
146 175 197
149 177 199
149 176 198
151 177 198
147 178 198
149 180 201
148 179 200
150 179 200
148 178 196
147 180 195
149 180 199
147 177 197
152 183 204
149 182 204
148 183 205
147 182 205
148 184 207
150 184 205
147 182 202
149 185 206
151 186 207
151 183 204
154 183 210
152 182 208
150 184 204
149 184 201
154 185 207
153 185 206
154 185 208
152 185 208
151 186 208
153 188 212
153 188 212
152 190 208
152 190 207
155 186 209
157 184 212
154 188 214
154 191 214
154 192 214
155 193 215
154 189 210
160 192 214
158 190 214
156 192 209
155 195 213
154 190 211
158 192 215
157 192 216
158 191 216
159 190 215
158 192 216
154 193 215
156 193 218
155 190 216
157 197 217
158 194 215
158 194 216
156 190 212
157 194 214
159 196 216
159 196 218
157 193 218
158 196 218
158 195 216
159 195 218
159 196 217
160 195 216
161 197 218
161 198 220
162 200 222
162 196 218
175 210 233
172 209 230
177 210 235
175 207 234
174 209 232
174 211 234
168 208 230
171 211 236
168 207 233
168 210 233
168 209 230
171 208 231
170 203 229
175 205 233
175 205 231
168 203 230
168 205 230
169 206 227
170 205 228
165 204 227
166 204 230
168 206 232
169 207 234
172 207 233
170 204 229
171 205 228
169 204 228
167 205 226
167 205 229
167 206 231
165 208 234
165 207 231
166 208 232
164 207 229
166 209 231
167 208 231
169 211 233
168 209 231
166 208 230
167 209 234
167 209 234
168 206 233
170 209 232
172 208 231
169 207 229
178 212 238
174 207 235
172 205 231
171 206 231
173 207 233
173 210 236
170 209 233
173 209 233
173 208 233
172 205 232
171 207 234
173 210 236
172 209 234
170 208 230
172 211 232
172 212 235
173 210 231
174 211 233
175 210 234
172 208 235
169 210 233
173 213 237
176 213 239
175 210 237
172 209 235
171 210 233
176 213 235
172 212 235
176 216 240
174 216 239
175 216 239
176 214 237
173 211 235
176 214 239
180 214 237
177 213 235
175 216 239
173 215 239
174 214 241
174 215 240
173 213 237
176 211 235
174 212 237
177 214 237
178 214 233
179 211 234
178 211 237
177 214 238
175 215 237
173 217 241
172 216 239
178 216 240
181 213 238
180 211 237
178 214 239
182 224 250
184 225 253
185 224 253
188 225 253
184 225 249
184 227 248
186 224 248
187 221 247
189 224 252
182 219 244
184 225 247
184 225 243
186 222 245
185 216 244
187 219 248
183 219 244
185 223 245
183 221 244
182 223 245
183 224 250
180 221 249
180 221 250
182 219 248
183 219 247
180 218 242
177 219 240
180 221 242
181 217 240
183 218 240
183 218 239
182 219 243
180 219 241
178 219 241
177 217 241
180 219 247
181 218 247
179 216 244
181 218 243
179 219 243
174 220 241
181 221 243
179 221 242
179 224 242
176 219 240
181 219 246
179 219 245
179 220 244
179 220 243
181 222 244
180 217 238
181 217 238
180 222 244
177 220 241
180 216 238
183 215 241
179 216 240
179 220 244
180 217 243
179 217 242
180 218 239
183 219 238
182 218 239
181 217 238
181 217 239
182 219 241
180 217 238
181 218 241
181 218 240
177 217 238
177 219 237
181 220 238
182 219 240
187 217 238
183 217 239
182 216 238
184 215 236
183 214 236
183 215 236
186 216 240
181 218 240
178 219 239
180 220 238
182 217 239
184 220 241
186 217 240
185 216 238
183 216 235
180 217 235
180 218 236
182 220 240
182 218 239
184 216 236
183 217 235
180 217 231
178 217 231
178 216 234
180 215 233
183 215 233
180 213 231
181 213 232
192 224 244
185 225 241
186 223 237
190 220 237
186 218 233
181 218 232
182 216 231
184 216 231
184 216 231
183 215 230
183 212 227
180 212 228
181 212 227
179 210 221
179 210 221
174 203 212
172 200 208
173 194 204
171 191 205
168 188 201
169 190 199
169 189 198
169 189 197
168 185 193
170 186 195
167 185 194
166 188 196
164 188 194
169 189 197
170 187 197
174 190 202
176 189 199
177 188 198
179 187 196
174 186 192
171 187 190
169 181 185
172 181 185
165 177 180
165 178 181
164 177 180
161 173 179
157 170 177
158 172 179
155 170 176
156 173 179
155 169 180
159 170 182
162 170 181
162 174 181
155 170 178
158 174 183
156 171 182
159 172 183
161 172 183
161 172 181
162 174 182
160 173 180
160 173 182
158 168 179
158 167 177
155 165 175
150 164 172
149 165 174
148 163 173
148 160 174
149 159 171
145 155 164
144 152 164
144 150 163
141 150 162
140 151 163
138 150 160
138 150 157
140 151 156
138 149 157
138 147 159
141 148 160
141 148 160
138 148 159
138 148 160
137 146 158
138 148 157
139 147 157
138 146 154
138 147 153
137 146 151
136 144 151
137 143 151
137 142 150
136 140 148
137 139 148
140 141 150
136 140 148
135 140 147
134 140 147
133 138 145
132 137 144
130 136 143
129 134 142
134 138 145
132 136 144
132 136 145
130 136 143
127 137 144
130 137 145
128 135 143
127 136 143
127 135 142
127 132 140
124 131 141
121 131 138
122 130 137
121 128 135
119 125 132
120 127 134
119 125 132
116 125 133
117 125 133
116 124 132
116 123 132
119 123 133
120 123 132
119 123 130
118 124 131
119 124 133
117 122 133
117 124 133
116 124 132
118 127 134
116 127 134
116 128 134
117 128 136
116 125 134
114 127 135
116 129 137
118 127 135
120 125 134
119 125 135
117 125 134
117 124 133
116 124 133
116 123 132
116 122 133
115 123 133
114 123 130
118 123 130
119 122 129
116 121 129
114 121 130
114 122 129
113 121 129
113 121 130
114 121 129
113 120 127
112 120 127
111 119 127
111 119 127
111 119 127
111 117 125
112 118 125
112 116 124
112 115 124
113 115 124
111 114 123
110 114 123
110 114 123
108 114 122
109 114 123
107 114 122
107 114 122
107 114 121
108 113 121
108 114 122
108 113 121
108 113 121
107 111 119
106 111 118
107 113 120
107 114 120
106 114 120
106 113 120
108 114 121
108 112 120
108 113 121
108 112 120
107 113 120
106 113 119
108 114 121
109 113 122
109 111 123
108 112 121
106 115 120
105 114 119
108 113 121
108 111 121
109 112 122
108 112 120
108 112 118
107 110 117
110 112 120
110 113 121
109 112 121
108 113 120
107 112 120
107 111 121
110 112 121
106 113 120
104 112 118
106 111 117
107 111 119
107 110 119
104 109 117
103 108 115
104 108 116
104 107 113
104 106 113
101 105 113
99 105 112
100 106 113
101 105 112
101 105 113
101 104 112
101 104 110
102 104 110
101 104 111
100 103 111
99 104 112
101 104 112
101 104 111
101 104 110
100 104 110
99 105 110
99 104 111
100 105 111
100 105 112
100 105 113
100 104 113
100 104 112
99 104 112
100 104 114
100 106 114
98 104 112
100 105 112
100 105 111
102 104 112
100 104 112
99 104 113
98 102 112
102 103 113
102 103 112
102 103 112
99 104 112
100 103 110
102 105 113
100 104 112
100 104 114
100 104 113
99 104 113
99 104 112
100 103 112
102 104 115
100 104 114
100 105 113
98 104 113
100 106 114
100 106 113
100 105 113
100 106 114
99 106 114
98 104 113
98 104 113
99 105 114
98 105 112
99 104 111
100 105 113
99 106 113
99 106 115
100 105 115
99 106 115
99 106 115
100 106 115
101 104 114
101 105 116
99 108 117
101 107 116
101 105 114
101 106 114
101 107 114
101 106 114
101 106 115
99 105 115
100 107 117
100 105 115
102 105 115
101 106 116
100 106 115
100 105 115
100 106 115
97 103 113
100 105 114
99 103 113
99 104 113
99 104 113
99 103 113
99 103 113
100 103 113
99 102 112
98 102 111
99 101 110
98 101 109
96 101 109
95 99 107
96 98 107
94 97 105
94 98 106
91 98 104
90 97 103
90 97 104
89 96 103
89 96 103
89 96 102
89 95 102
89 95 103
88 95 102
89 95 102
91 95 102
91 95 102
91 95 103
88 95 103
88 95 105
89 94 103
90 94 102
91 95 103
91 95 104
90 95 103
89 96 102
90 95 102
93 95 103
91 94 102
91 96 104
90 96 104
88 96 103
88 97 103
90 98 104
91 97 104
91 97 104
92 98 106
91 97 106
91 96 106
93 98 108
92 97 105
90 96 105
91 97 106
90 96 106
91 98 106
91 99 106
91 99 107
89 98 105
91 99 107
91 100 108
92 99 109
94 100 110
92 98 108
92 99 110
91 99 110
90 100 109
91 100 108
89 99 108
91 100 109
91 99 109
92 99 108
90 97 105
91 99 109
90 98 108
88 97 106
91 96 106
91 95 105
89 94 104
89 94 102
88 94 101
89 93 102
90 94 102
87 93 101
86 92 102
87 91 102
86 91 99
85 91 98
85 91 99
85 90 98
86 91 99
86 90 98
85 90 98
84 89 97
85 89 97
82 89 96
84 90 97
84 88 96
86 88 96
84 88 95
84 89 98
83 88 97
83 88 96
82 89 96
81 89 95
79 88 95
81 88 96
80 88 94
81 87 95
81 86 94
79 84 93
77 83 92
73 80 88
131 151 169
131 149 169
135 151 170
135 151 169
136 154 174
135 155 175
136 158 177
138 162 182
140 164 183
144 168 186
147 174 191
150 175 195
150 173 194
151 180 201
147 179 201
151 181 205
155 183 205
156 184 205
157 187 208
158 188 212
156 188 211
158 189 210
160 193 210
160 192 211
156 190 209
155 191 209
159 194 213
160 194 211
162 193 213
161 193 214
160 194 215
160 196 216
162 196 217
163 195 218
163 197 220
162 194 218
165 196 219
166 195 217
166 197 218
165 197 222
163 199 222
167 200 222
164 197 221
165 201 226
162 201 227
164 202 225
165 203 226
163 199 220
166 202 223
167 202 222
169 203 225
167 201 224
165 202 224
167 204 226
169 205 227
167 204 228
168 205 232
166 204 231
167 205 230
168 206 229
168 207 231
169 206 231
171 207 231
171 209 231
169 209 230
169 208 232
169 210 236
171 209 234
171 211 231
170 213 232
169 209 229
172 210 231
171 210 232
169 211 234
169 211 235
175 213 240
173 208 234
174 209 237
175 210 238
174 210 236
171 211 237
172 212 240
172 210 240
171 211 239
174 214 239
172 213 235
173 212 238
176 211 237
176 211 237
173 212 237
173 215 241
174 211 240
175 211 239
173 212 238
172 212 236
175 215 240
174 213 238
177 213 239
176 215 239
179 215 240
176 215 239
177 218 242
177 214 239
179 215 242
177 214 240
177 216 241
180 214 241
180 215 243
179 216 244
177 216 242
177 218 242
177 219 243
176 216 243
179 217 244
180 218 245
182 219 248
177 218 247
177 218 244
176 221 243
177 220 243
177 221 246
174 220 248
175 221 247
175 222 249
180 223 250
179 220 246
179 219 244
179 220 243
182 222 245
182 219 246
180 218 248
179 220 248
176 222 247
179 222 245
182 220 245
181 219 246
178 218 243
181 219 246
181 218 247
180 221 249
181 221 248
183 222 248
181 222 246
177 224 246
178 225 248
180 223 250
183 223 250
185 223 250
186 223 250
186 223 251
184 221 249
181 224 247
181 224 245
185 224 248
185 225 247
184 226 250
184 225 250
185 225 251
183 224 249
183 225 251
184 227 251
184 227 248
184 226 246
186 228 250
185 227 250
184 227 252
187 225 251
184 227 253
184 227 253
188 228 254
188 226 252
189 229 254
186 227 255
187 226 255
183 227 255
184 228 255
182 227 251
181 228 252
183 227 252
186 225 254
185 227 255
185 226 253
187 227 255
185 225 253
185 226 255
189 227 253
189 226 253
187 227 253
183 225 249
185 227 251
187 227 253
187 226 251
183 229 250
183 229 251
185 228 253
185 227 251
185 227 251
189 227 255
187 224 253
189 229 252
187 228 253
189 226 253
189 228 255
186 228 255
189 228 254
190 228 252
192 229 254
191 229 255
190 228 254
190 228 254
189 229 254
189 227 249
188 230 252
186 229 252
188 230 255
189 227 254
190 229 255
190 232 254
187 230 252
184 227 253
187 231 255
187 230 252
189 226 253
191 230 255
189 229 255
188 231 255
189 230 254
186 230 253
187 229 251
190 231 253
190 227 251
189 229 253
182 229 251
183 231 255
187 230 254
185 228 251
187 231 253
185 232 254
184 232 255
185 232 255
189 227 254
189 231 255
185 232 251
187 233 251
188 230 250
190 230 255
189 228 255
190 229 255
189 228 253
190 232 255
190 230 254
186 230 253
186 229 253
190 228 253
189 227 253
188 227 254
186 229 255
187 231 254
189 231 254
189 228 250
190 231 254
189 229 251
192 230 253
189 229 250
189 230 250
191 230 251
192 229 250
190 228 250
190 230 251
191 230 250
192 229 250
190 229 250
191 230 249
191 230 247
189 229 244
189 230 248
191 229 252
193 230 252
193 229 250
192 229 251
192 231 251
189 229 250
189 229 251
189 228 250
190 229 252
188 229 251
186 229 248
190 229 248
188 227 247
189 226 246
191 226 249
193 226 249
192 226 248
189 227 248
189 229 245
188 230 244
190 228 243
192 227 245
191 224 243
191 224 243
192 223 242
189 225 243
186 224 239
188 222 236
188 219 236
187 220 237
189 218 234
191 219 236
191 219 236
188 219 233
185 217 233
187 217 233
187 214 230
186 211 228
185 213 227
182 212 223
180 208 218
180 201 213
182 198 212
179 195 207
179 198 209
177 196 207
178 195 205
181 195 207
182 193 207
180 193 206
178 194 205
177 193 204
179 194 207
179 196 210
179 196 210
180 197 210
181 200 211
180 200 204
181 196 199
179 193 198
178 193 200
176 190 199
174 185 194
174 185 191
172 181 189
169 182 188
165 182 187
165 181 188
164 178 188
167 182 190
167 179 187
170 182 192
168 181 190
168 182 191
167 182 191
167 183 192
168 184 193
168 180 190
171 183 193
170 183 192
174 186 196
175 186 195
169 183 195
163 178 189
164 178 185
164 176 182
164 176 184
163 176 188
160 173 186
158 172 182
156 170 180
156 167 178
155 163 176
151 160 172
150 162 173
147 161 171
147 161 171
146 161 171
147 159 170
149 159 169
147 159 167
147 160 169
147 158 166
147 159 165
147 159 165
147 157 165
149 155 164
149 156 164
149 156 163
149 158 165
148 155 164
149 154 164
148 154 162
148 152 159
148 151 159
146 150 159
145 151 160
144 151 159
144 150 158
145 148 157
143 147 156
142 146 155
139 146 154
137 144 153
136 144 152
135 143 150
133 142 149
131 141 147
131 139 147
130 138 146
131 139 147
131 139 148
131 137 147
132 136 145
130 135 143
127 134 142
127 134 143
125 131 141
126 132 139
124 129 137
123 129 138
124 129 138
121 129 137
119 129 135
121 129 136
121 129 136
121 127 136
121 126 136
121 127 136
122 127 137
122 128 137
122 128 137
122 130 138
121 130 139
120 129 138
121 129 138
122 128 137
121 129 138
121 130 139
119 128 138
121 130 139
121 130 136
121 129 136
121 130 137
120 131 138
119 128 136
119 128 137
119 128 138
120 129 137
118 127 134
119 127 135
117 126 134
118 126 134
118 126 134
117 125 133
118 126 133
118 125 133
119 125 134
117 123 133
120 124 135
117 122 133
115 122 132
114 121 129
116 121 130
113 120 129
115 121 130
113 120 128
114 121 128
113 119 126
114 119 126
114 120 127
114 120 128
112 118 126
113 118 126
112 117 124
112 118 126
112 118 126
112 118 125
112 117 124
112 117 125
111 118 124
110 119 123
112 120 126
112 118 126
113 117 126
111 116 125
113 118 127
112 117 126
112 118 127
113 117 127
114 117 127
113 119 127
112 118 126
112 118 126
113 117 126
114 117 126
113 117 124
113 117 124
112 117 124
112 117 125
112 115 124
112 116 125
112 117 125
112 115 122
112 114 122
111 115 123
109 115 122
109 114 120
111 114 121
111 112 122
111 112 123
110 112 121
110 114 121
109 113 120
108 112 119
107 111 119
104 110 118
103 111 118
104 109 116
105 108 114
104 107 113
104 107 114
103 106 113
103 106 114
102 106 114
102 107 114
103 106 114
101 105 112
103 107 114
102 105 113
102 106 114
101 105 113
102 106 115
102 106 113
102 106 113
103 105 114
103 105 114
102 106 114
102 106 114
103 106 116
103 107 116
101 107 114
102 107 116
102 106 115
102 108 114
103 106 114
103 106 114
102 106 114
102 105 114
100 106 113
100 107 116
100 106 115
100 105 113
101 105 114
101 105 114
101 107 113
100 106 113
101 106 114
101 106 114
102 107 115
102 105 114
101 106 116
101 106 116
102 107 116
103 107 116
103 106 116
103 106 116
103 107 117
103 106 116
102 106 116
100 106 115
100 107 115
101 107 117
101 107 117
101 107 117
102 107 116
103 106 115
101 108 116
101 107 116
102 107 115
103 107 116
101 107 118
101 107 117
100 107 116
101 107 116
103 106 116
105 107 117
102 107 118
101 108 119
100 108 117
103 108 118
103 108 116
103 107 116
103 109 116
102 108 116
102 109 118
102 110 119
101 108 117
102 108 117
102 109 117
102 108 118
101 107 118
103 106 116
103 106 115
101 106 115
100 106 114
98 105 114
98 104 113
98 105 114
99 103 111
98 102 110
98 103 112
98 102 110
99 102 109
97 102 110
94 101 109
96 100 109
94 99 107
93 98 105
93 97 104
91 97 104
90 97 103
90 97 103
89 96 102
89 96 102
90 95 104
89 95 102
89 94 102
89 95 102
89 95 102
89 95 102
89 95 104
88 94 103
88 95 102
88 95 102
89 95 103
90 94 103
90 94 103
90 94 103
89 94 103
89 95 103
90 95 101
90 95 101
88 95 103
88 97 104
90 97 104
90 97 105
88 96 105
89 96 105
90 96 105
91 97 106
91 96 106
90 97 106
90 97 107
90 96 106
90 97 105
90 97 105
90 96 105
91 97 106
90 97 105
90 97 104
91 99 107
90 99 106
91 99 107
91 99 108
92 98 108
91 99 107
91 99 107
91 99 108
90 98 107
91 99 107
90 99 107
90 99 107
91 99 108
90 99 107
90 98 107
91 98 106
90 96 106
90 97 107
89 97 107
88 96 106
90 96 105
89 94 104
90 95 104
88 94 102
87 93 101
87 93 101
87 93 102
85 92 101
85 92 101
85 91 100
85 91 99
84 91 99
83 92 99
83 91 98
83 90 98
84 89 98
83 89 97
83 89 97
82 89 97
83 89 97
83 88 97
83 88 97
83 89 97
82 88 96
81 88 97
82 88 96
82 88 96
80 87 95
81 88 96
81 87 95
81 87 94
81 88 94
80 86 93
80 85 93
80 84 92
74 81 88
136 153 174
134 153 173
136 152 172
138 152 175
137 153 177
136 156 178
137 160 180
138 162 183
141 166 188
142 169 189
145 174 192
149 178 196
152 177 196
153 178 197
155 180 198
156 180 198
157 183 198
158 186 206
158 187 209
159 188 213
161 188 212
163 189 212
158 190 211
158 192 213
158 192 213
157 192 211
157 193 214
158 193 215
162 193 217
162 193 215
161 194 213
160 194 212
160 194 213
161 197 216
163 194 217
166 196 221
162 194 219
163 198 220
166 198 220
167 198 223
166 198 222
164 197 216
166 201 220
168 201 224
168 201 224
167 200 222
167 202 223
165 201 221
167 201 224
168 201 225
170 201 225
168 200 227
165 201 227
164 206 229
165 206 228
166 205 227
166 205 231
167 206 232
168 207 231
169 207 231
169 208 232
169 207 235
171 208 235
171 206 231
170 207 230
171 207 233
170 209 234
173 208 233
174 209 233
175 208 233
173 208 231
174 211 234
171 210 232
170 213 234
170 214 237
171 212 237
172 211 238
172 209 238
173 210 238
173 212 237
172 212 235
174 214 240
173 211 238
174 211 238
174 211 236
173 211 238
173 212 239
173 211 238
176 215 241
174 213 239
176 212 240
176 212 240
174 212 240
174 214 239
174 214 241
174 214 240
174 213 240
175 211 238
179 216 242
174 214 240
174 218 243
170 219 242
172 217 239
178 218 242
178 217 241
174 217 243
174 218 243
175 219 240
178 219 241
177 217 243
176 216 246
174 215 245
173 219 246
174 218 242
178 218 243
178 217 243
180 220 246
179 218 242
178 215 240
180 221 246
178 218 243
177 218 246
178 219 247
178 218 246
178 216 241
181 218 243
183 221 243
181 219 240
180 221 244
175 223 246
177 222 249
175 220 249
179 222 249
179 219 245
181 219 246
180 220 244
178 221 246
178 221 246
182 220 246
180 221 246
180 222 246
181 222 248
180 222 246
181 222 248
183 222 249
181 223 251
182 224 248
181 223 246
182 222 247
183 223 251
184 222 251
184 225 249
182 225 247
185 224 250
185 222 250
187 222 246
184 224 246
181 226 249
181 226 251
183 225 254
180 223 251
183 226 251
187 226 250
188 225 251
187 224 251
186 225 251
187 228 254
184 227 254
184 227 252
188 227 251
187 227 249
188 227 250
191 226 252
190 227 255
184 227 253
187 228 255
187 226 251
187 228 253
187 226 252
186 226 253
182 228 252
181 227 250
185 228 251
187 224 250
190 227 254
188 226 252
185 227 251
186 229 251
188 232 255
181 227 249
183 228 253
182 227 250
184 227 249
188 228 252
187 226 255
187 226 255
186 226 251
185 226 252
185 227 255
189 231 255
190 231 253
191 229 254
187 227 253
185 228 252
187 228 252
190 227 252
190 227 253
190 228 253
189 228 252
188 230 252
187 229 252
187 230 255
186 228 255
188 230 255
185 228 255
188 230 255
189 228 255
189 227 251
191 229 252
193 231 255
190 229 255
189 229 252
190 230 255
187 230 253
185 229 252
187 230 254
186 231 253
184 227 250
190 231 253
191 229 253
191 226 253
188 228 253
185 230 252
186 231 254
187 227 251
191 227 252
191 228 253
188 231 255
189 232 255
189 231 255
187 229 255
187 230 255
187 229 253
186 229 253
190 231 255
190 229 253
191 229 255
189 229 254
188 230 254
186 231 254
186 233 255
187 231 255
189 231 253
189 227 249
193 229 255
192 227 253
189 227 253
190 228 253
192 230 253
189 229 251
189 230 252
187 229 251
186 230 251
186 230 252
187 231 252
190 231 252
189 228 250
187 232 255
185 228 250
189 227 251
189 227 250
190 231 252
191 229 249
192 229 248
193 229 248
193 229 250
190 230 252
189 230 251
189 229 248
189 227 247
192 228 249
192 230 251
189 229 251
191 229 251
190 228 250
189 229 251
185 229 248
187 230 250
186 227 249
189 227 246
191 229 248
190 227 246
191 227 246
191 224 246
194 226 246
190 227 242
190 228 243
191 225 242
192 225 243
192 223 241
188 224 239
188 223 239
190 224 242
189 221 238
188 223 239
184 221 237
187 224 239
190 222 238
191 219 236
191 219 235
187 219 234
188 218 233
188 214 231
187 212 228
185 214 226
183 212 221
183 210 219
180 205 217
182 202 214
180 201 210
179 201 210
179 200 209
178 200 210
178 197 208
179 195 207
181 195 209
180 196 209
181 196 209
181 198 211
180 198 211
181 201 214
182 202 214
184 201 214
184 200 209
187 202 209
183 197 204
179 193 200
177 194 200
175 188 194
173 186 190
174 186 191
171 184 189
167 183 188
166 183 190
166 181 192
167 182 190
170 184 194
170 182 193
170 185 194
170 187 196
171 184 196
170 188 198
168 186 195
169 185 194
173 186 196
174 187 196
176 189 199
175 185 198
173 182 195
170 180 190
169 181 190
168 177 184
165 177 185
162 178 185
160 178 186
160 177 185
158 175 182
157 171 180
155 166 177
153 165 176
149 163 172
148 163 173
148 163 171
148 162 170
149 160 168
147 160 169
149 161 168
149 159 168
152 159 169
151 159 167
152 157 168
153 157 168
151 156 166
152 158 169
153 160 169
152 158 166
154 159 167
155 158 165
151 156 162
151 156 162
151 154 161
150 153 161
148 154 161
147 153 160
148 152 159
149 151 160
147 150 159
144 148 156
142 146 155
140 145 154
139 144 152
135 142 150
134 143 148
133 142 147
133 139 147
134 139 147
133 138 147
132 139 146
131 137 145
133 137 145
130 137 144
129 136 144
127 136 143
127 133 141
126 132 139
126 132 138
124 130 137
124 131 138
121 130 138
121 130 138
123 129 137
124 128 137
125 128 138
123 127 137
122 129 138
122 129 138
123 129 138
124 129 140
123 129 139
121 130 139
120 131 139
119 130 138
121 130 138
121 129 138
121 130 140
121 129 139
121 129 137
121 127 136
122 128 139
122 128 139
121 128 138
120 128 137
120 130 139
119 130 138
119 128 135
119 127 134
120 127 137
118 125 137
118 126 138
117 125 136
117 126 134
117 126 133
116 126 133
117 125 133
119 126 134
117 126 132
114 124 132
116 124 134
116 122 130
115 123 130
114 122 129
113 120 130
112 119 127
113 121 128
115 120 128
115 119 127
115 120 127
113 119 126
111 119 127
112 119 128
113 118 126
113 117 126
114 118 127
112 117 127
113 118 128
112 117 126
113 120 128
111 118 125
112 118 126
113 118 126
114 117 126
114 117 126
115 118 126
116 118 127
114 118 127
114 119 126
112 119 125
114 121 127
112 118 125
114 119 129
114 118 127
113 118 127
112 118 126
113 118 125
112 118 125
112 118 125
112 117 125
113 117 125
113 117 124
112 116 123
113 116 123
112 115 122
111 116 122
110 115 121
110 114 122
110 113 123
109 114 123
108 114 122
108 114 122
107 114 122
106 113 121
105 113 120
105 112 118
105 109 116
105 108 117
105 108 115
104 106 114
103 107 114
103 107 115
102 106 115
102 107 115
101 107 114
102 105 113
103 106 114
103 105 114
103 105 114
102 105 114
100 106 114
101 105 114
102 105 112
102 105 112
103 107 115
103 107 116
101 107 115
102 107 114
101 107 114
102 108 115
103 106 115
104 107 117
103 106 117
102 107 116
103 106 114
102 106 113
102 108 114
101 108 114
101 106 113
101 106 115
102 106 115
102 106 114
102 106 115
101 106 116
101 107 115
101 107 116
102 107 116
101 107 116
101 108 117
101 107 116
101 106 115
101 107 116
100 106 114
100 108 114
101 107 114
101 108 116
101 107 115
102 107 117
102 106 117
102 106 118
101 108 117
101 108 116
101 108 116
101 106 115
102 107 116
101 107 116
101 107 116
103 107 118
103 107 117
102 107 116
101 107 116
101 108 118
101 108 117
101 108 117
102 108 117
102 107 117
103 107 118
101 107 118
101 107 117
101 107 116
104 107 117
104 108 118
102 108 118
100 109 120
100 108 119
101 109 120
100 109 119
101 108 118
101 108 117
102 108 118
102 106 117
101 106 116
101 106 117
100 105 115
101 105 115
99 105 114
97 104 114
97 104 114
98 103 113
100 103 111
98 103 111
98 103 111
97 103 110
96 103 111
94 101 110
95 101 109
94 99 107
94 99 106
93 98 105
93 97 105
91 96 104
90 95 104
90 94 103
91 95 102
91 95 102
91 94 102
90 94 102
90 93 101
90 94 102
90 95 102
89 96 103
89 95 103
88 96 102
88 96 103
88 94 102
89 95 103
89 94 102
89 95 102
88 94 103
88 95 103
88 96 103
88 95 103
88 96 104
88 95 103
89 97 103
89 97 103
89 97 104
91 97 104
91 97 104
90 97 105
89 97 105
89 98 106
88 96 106
90 96 107
89 97 105
90 97 105
89 96 105
90 96 106
90 97 105
90 97 105
91 97 106
91 97 107
91 98 108
93 99 109
91 99 107
91 99 106
91 99 107
91 99 106
91 99 107
90 98 106
92 99 108
89 99 107
89 99 107
89 98 108
90 98 108
91 97 106
90 96 105
91 96 106
90 96 105
91 96 106
88 95 104
88 96 105
88 94 103
89 94 103
88 93 103
87 93 102
86 92 102
85 91 101
84 92 100
84 92 100
84 91 99
83 90 98
83 91 99
83 91 98
83 90 98
83 90 98
82 89 96
85 88 96
85 87 96
83 88 97
82 87 96
83 88 96
83 89 96
81 87 95
82 88 95
81 88 95
81 88 96
82 88 97
81 87 96
81 87 95
81 87 95
80 87 93
79 86 92
80 85 91
79 83 90
73 82 89
134 151 169
135 153 172
137 154 173
138 156 177
137 158 179
138 160 179
140 164 182
140 163 183
145 168 187
147 170 189
149 174 193
149 175 195
150 179 198
152 182 200
153 182 202
154 181 201
157 184 202
155 182 201
158 184 204
157 187 208
157 188 210
158 188 209
158 188 208
157 189 208
157 189 208
157 189 209
157 189 210
159 190 212
159 190 212
159 192 210
157 192 210
158 193 211
159 193 214
158 193 214
159 193 215
160 194 217
161 195 219
160 194 219
163 195 219
164 194 219
164 194 219
163 196 218
163 197 218
162 195 215
163 197 215
164 200 219
163 200 218
162 200 219
164 201 221
167 201 222
166 199 222
166 200 227
163 199 225
165 202 228
164 201 226
168 203 226
165 203 227
166 204 229
167 205 231
166 203 229
169 204 231
168 205 233
171 205 234
172 206 233
169 206 230
167 207 232
167 206 232
171 208 232
172 207 232
173 208 232
171 207 231
170 208 232
169 209 233
170 208 234
172 208 233
173 208 235
172 207 236
171 208 234
171 211 234
171 210 232
174 212 236
173 210 234
170 209 234
171 210 235
171 209 235
174 209 235
173 210 234
172 211 234
172 211 233
172 209 235
175 214 241
172 211 240
171 213 240
172 211 238
174 211 238
177 212 242
177 211 239
176 214 240
174 214 242
174 212 241
175 214 242
174 215 242
175 214 244
177 212 240
178 215 243
177 214 242
176 213 246
178 213 245
180 215 243
175 214 243
175 215 245
177 216 245
177 214 243
177 215 245
178 216 245
177 215 244
175 216 241
177 216 240
178 216 243
178 216 244
179 218 247
179 216 246
179 218 248
178 217 246
179 218 248
181 217 247
180 216 243
181 218 246
180 219 247
179 218 247
179 215 247
179 218 248
177 218 248
177 218 250
176 217 246
177 218 245
177 221 248
177 220 248
180 222 251
179 220 251
181 221 251
180 221 251
179 221 248
181 219 250
181 220 249
181 221 250
183 220 250
182 218 247
183 219 248
182 220 251
182 220 251
183 223 250
181 224 251
182 222 248
183 223 251
184 222 251
182 224 251
182 224 250
181 224 249
181 224 249
184 224 252
186 222 253
185 223 253
185 221 251
182 223 253
183 224 253
187 226 255
187 226 252
186 226 253
186 225 254
184 222 250
187 225 253
190 224 254
186 222 252
185 226 253
186 226 254
185 226 253
183 226 251
183 228 255
184 226 254
184 227 253
184 226 251
189 227 252
188 224 251
188 224 251
187 222 249
188 226 253
187 225 253
187 225 251
187 226 254
187 223 255
188 225 252
189 226 253
187 223 252
186 225 251
186 225 251
189 226 251
189 227 253
185 225 251
185 227 251
186 225 250
188 226 252
189 226 254
186 227 253
187 227 253
188 227 255
187 227 253
189 232 255
186 229 253
187 230 255
184 227 253
185 228 254
186 227 255
189 228 255
190 227 255
190 229 255
191 227 255
193 227 255
194 227 255
192 228 255
189 230 255
186 227 255
186 227 255
189 230 255
190 228 255
189 227 255
189 230 255
186 229 254
185 228 254
186 231 255
186 229 253
186 227 252
189 229 253
187 229 255
188 228 254
189 228 255
187 227 253
189 227 255
189 227 255
189 228 255
187 231 255
190 230 255
190 228 254
191 229 255
190 229 255
188 228 255
190 228 255
192 227 254
191 229 255
186 228 252
186 231 254
186 229 253
185 229 251
186 230 251
188 229 255
189 228 255
189 227 253
190 229 255
189 229 253
189 229 252
189 228 250
189 230 252
187 230 252
187 233 255
186 231 252
190 230 254
191 229 255
189 229 252
188 230 252
188 230 251
191 230 253
191 229 253
191 228 252
191 229 250
190 228 249
192 228 251
194 228 252
195 227 252
190 228 251
191 229 251
193 229 251
192 227 250
190 226 248
191 227 248
190 227 248
190 228 248
191 230 249
190 228 248
192 226 248
191 226 250
189 227 248
190 229 247
190 226 244
189 223 242
190 224 243
190 226 243
190 226 243
191 225 240
192 223 239
192 220 236
190 222 238
190 223 241
189 222 241
189 221 241
190 223 242
189 223 241
186 218 236
187 219 237
188 218 233
187 216 231
187 217 230
186 215 226
186 212 226
189 212 226
184 208 220
183 207 219
183 205 217
183 203 216
182 202 213
181 202 212
179 200 208
179 200 209
178 198 209
177 198 209
178 198 210
180 198 209
178 200 209
177 200 208
177 201 208
179 200 208
181 201 209
178 199 207
180 201 210
179 198 208
179 197 206
180 195 203
175 192 197
176 192 196
172 187 192
173 187 195
170 186 194
168 184 192
168 184 192
166 185 193
166 185 195
166 185 193
169 183 192
173 186 196
172 186 195
171 187 196
171 187 197
173 189 197
169 186 193
172 187 195
173 186 195
173 183 194
173 187 197
170 185 197
170 184 194
169 181 192
169 181 190
169 179 190
166 175 185
163 175 184
159 173 181
158 174 182
157 173 180
155 169 177
155 167 175
154 166 174
153 164 173
151 162 170
152 161 169
151 161 171
151 161 169
152 160 169
151 159 167
152 159 167
154 161 169
152 159 167
154 160 168
154 160 167
153 161 168
154 159 168
155 160 168
154 159 167
155 159 164
155 158 164
155 160 165
154 158 163
154 157 163
154 156 163
151 155 162
150 155 162
150 153 162
150 153 159
149 152 160
144 149 157
141 147 155
139 146 154
139 146 153
136 142 148
135 143 149
133 141 147
134 141 148
133 139 146
133 140 146
133 139 147
132 138 146
132 138 146
129 137 144
129 136 143
128 136 143
127 134 141
126 134 140
124 133 138
124 132 138
122 131 137
122 130 137
122 131 139
121 130 137
123 130 137
122 130 136
122 131 137
121 131 137
122 130 137
122 129 138
121 129 138
122 130 138
122 131 139
119 130 138
119 131 138
120 128 136
123 129 138
122 129 140
120 129 139
120 129 137
121 128 137
120 128 137
120 128 137
119 128 136
120 129 137
118 128 136
118 127 136
118 127 137
118 127 136
118 126 134
117 125 132
119 125 134
119 126 135
116 124 133
116 126 134
115 125 133
116 124 133
116 124 132
116 124 132
115 124 132
115 124 132
115 123 130
114 121 128
115 121 128
115 121 128
114 120 127
115 121 127
114 120 126
115 119 127
114 120 127
113 119 126
113 119 128
112 119 127
111 119 127
111 121 127
111 118 126
113 119 128
113 118 128
113 118 126
113 118 126
114 119 128
113 118 127
114 119 127
113 118 125
113 118 126
113 120 128
113 119 127
113 118 127
113 119 127
113 119 126
114 119 127
114 118 127
113 119 129
113 119 129
113 119 128
113 118 127
113 119 127
111 120 126
113 119 125
113 117 125
113 117 124
113 117 124
112 116 124
113 117 125
111 116 126
109 115 124
109 115 124
109 115 122
110 115 122
110 114 122
108 113 121
109 114 123
107 112 121
108 113 121
107 112 118
105 110 118
106 109 119
105 108 117
103 108 116
104 107 115
103 107 115
102 106 114
101 106 113
102 107 113
101 107 114
101 107 114
101 106 113
101 106 113
102 107 114
101 106 113
102 105 114
103 106 116
102 106 114
102 107 114
102 107 115
103 108 115
102 106 113
102 107 114
101 108 115
102 107 115
103 107 115
102 107 115
102 107 116
103 107 116
103 106 115
103 107 115
102 107 114
101 106 114
101 107 113
100 108 114
100 107 114
101 106 114
101 106 114
102 107 114
102 107 114
101 107 114
101 107 115
100 108 115
101 108 116
101 106 116
103 107 116
102 108 117
101 107 116
101 107 117
102 107 116
101 108 117
100 108 117
100 108 116
102 108 116
102 108 117
101 108 118
101 107 117
102 108 119
101 109 118
101 109 118
100 110 118
100 109 118
101 108 118
101 108 117
102 108 116
101 108 116
101 108 116
103 107 117
102 107 117
102 108 117
100 108 117
102 107 117
102 107 117
101 108 117
102 108 118
103 108 118
103 108 118
100 108 117
101 109 120
102 109 121
102 108 119
101 108 120
100 108 118
101 108 118
102 107 117
102 107 117
99 107 116
100 108 117
100 106 116
99 105 116
99 105 115
100 105 114
98 103 113
98 103 113
98 104 113
97 104 113
97 104 112
96 103 111
96 103 111
95 102 110
94 101 109
94 99 106
93 98 105
91 98 105
90 96 103
89 95 103
90 96 104
89 95 102
89 95 103
89 94 102
88 94 102
88 94 103
88 94 103
89 94 103
88 94 103
88 95 102
87 94 102
89 95 103
89 94 103
89 94 102
88 94 101
88 95 101
88 95 102
88 95 102
87 94 103
88 94 102
89 96 104
87 96 104
88 97 104
88 96 103
88 96 105
88 96 104
90 97 105
89 96 105
89 96 104
88 98 105
88 96 104
88 96 106
90 96 106
90 96 105
91 97 106
89 96 105
90 97 106
88 97 106
88 97 106
91 98 106
91 98 107
88 98 106
88 98 106
89 98 107
91 98 107
90 98 107
89 99 107
90 99 107
90 98 106
90 98 106
89 97 106
89 97 107
90 97 107
89 96 106
88 97 106
88 97 106
88 97 106
88 95 104
89 95 105
88 94 104
88 94 104
88 93 103
87 92 102
86 92 100
85 92 100
85 91 101
85 90 100
85 91 100
84 91 100
83 90 99
83 89 98
82 90 98
82 90 98
83 89 98
83 89 98
83 88 96
84 87 97
83 87 97
81 87 97
80 88 96
81 88 97
82 87 96
82 87 97
82 87 96
81 87 95
82 87 95
80 86 95
79 86 95
80 87 96
79 86 94
79 86 93
78 85 93
78 85 92
78 84 91
74 80 88
135 153 171
137 154 173
138 156 175
138 158 177
139 161 180
140 163 181
140 163 183
144 167 187
145 169 187
148 173 191
149 174 193
151 178 197
149 180 198
149 182 200
152 183 202
153 184 203
152 182 200
154 185 202
154 184 202
157 186 205
157 188 207
159 189 210
157 187 211
157 188 210
157 189 209
157 192 209
156 192 208
157 191 210
157 190 212
158 190 210
161 191 208
161 189 209
161 191 213
161 193 214
161 193 215
160 194 215
161 196 218
160 197 218
159 197 221
160 198 222
162 198 223
164 197 220
165 196 219
165 197 218
163 197 218
164 197 219
165 199 220
166 200 222
164 200 222
164 201 222
167 201 223
168 201 222
166 203 226
164 201 226
165 202 228
167 202 228
166 203 227
164 202 226
167 205 231
170 203 232
168 204 232
167 203 232
169 204 233
168 205 232
166 205 231
169 208 234
169 208 235
168 206 233
169 207 233
170 208 234
169 209 235
171 210 234
172 207 232
172 207 234
172 208 235
171 208 235
171 208 235
173 208 233
171 211 234
172 210 235
175 210 236
171 210 234
169 212 236
172 211 238
172 211 237
174 211 236
175 210 235
173 211 237
171 210 233
176 210 238
174 210 239
173 212 240
174 214 240
174 212 239
173 212 238
174 210 236
174 213 239
171 213 239
173 213 240
174 213 243
175 214 243
174 215 242
175 215 243
176 214 241
175 214 241
175 215 241
175 217 245
177 214 242
179 214 240
180 216 241
179 214 239
179 215 240
181 216 244
175 214 243
178 216 246
177 217 245
178 216 243
179 216 246
180 216 244
180 216 243
179 217 246
177 217 246
178 216 246
178 218 247
178 216 246
178 217 247
179 217 245
178 219 246
178 218 248
180 218 248
180 216 242
180 217 243
178 219 247
179 221 249
180 220 249
179 219 248
178 219 246
180 221 247
182 221 248
180 219 247
179 222 248
177 223 248
182 224 251
183 221 251
184 220 251
183 223 250
182 224 251
182 223 251
180 219 247
182 221 251
183 221 250
185 221 251
183 220 249
183 223 251
185 223 248
183 223 251
184 224 251
184 224 250
182 224 250
184 225 254
185 223 255
186 223 255
185 222 251
187 224 254
183 224 254
184 227 255
183 226 253
185 225 251
186 224 253
185 224 253
186 225 255
189 225 252
188 225 252
188 227 255
184 227 253
188 227 255
185 224 250
186 227 253
187 226 255
185 224 253
186 225 250
187 226 249
187 224 251
185 223 250
187 226 255
187 227 253
188 226 253
186 224 252
188 227 255
188 225 254
187 225 254
186 226 252
185 224 251
186 222 251
187 224 251
189 226 253
187 225 250
185 224 249
185 228 254
186 229 255
187 228 255
185 228 255
189 229 255
186 224 252
189 229 255
186 228 255
183 228 254
181 228 255
186 230 255
188 230 255
187 229 255
185 228 255
188 227 254
188 229 255
188 231 255
186 228 253
187 227 253
191 227 254
190 227 252
189 229 255
187 228 255
190 228 255
189 227 255
189 228 255
189 228 254
189 228 255
189 227 254
189 230 255
187 229 253
190 231 255
189 226 253
191 227 255
190 226 254
188 225 252
189 230 255
187 229 255
189 227 253
190 228 253
190 229 254
189 227 255
189 227 255
190 228 255
192 230 255
190 229 255
190 228 255
188 230 255
189 228 255
190 227 253
190 227 253
189 229 255
187 229 255
189 230 255
188 229 252
187 229 253
185 229 253
187 229 255
187 229 252
187 228 253
187 230 255
185 228 255
188 229 252
189 228 250
190 229 252
190 228 252
189 229 251
189 227 247
189 229 250
189 229 251
189 227 249
189 227 247
190 229 251
190 229 253
191 229 254
190 228 253
192 227 252
190 229 253
190 230 251
189 229 248
191 230 248
191 229 249
194 227 249
194 230 251
190 227 246
189 227 246
189 227 246
190 229 247
191 227 245
189 227 245
188 227 247
188 226 248
191 224 247
194 224 245
192 223 243
194 224 245
195 224 244
193 224 242
194 224 243
194 225 242
193 223 240
196 224 240
193 223 240
192 223 242
190 221 241
190 223 243
188 224 240
185 221 235
187 223 237
190 220 236
188 216 231
188 215 232
187 214 234
185 212 228
185 213 226
186 208 222
186 208 221
186 208 221
185 206 219
184 201 216
183 203 215
181 201 211
180 202 210
180 201 210
179 198 209
181 198 210
179 198 209
177 198 208
178 202 211
180 202 212
182 201 212
183 202 213
181 200 211
183 202 213
182 201 211
178 200 210
178 199 211
178 197 209
177 194 203
174 192 198
172 189 195
168 187 194
168 187 193
170 183 191
171 186 194
167 183 192
169 184 194
168 184 194
170 186 195
169 185 194
169 185 194
170 187 196
173 189 196
174 189 195
176 189 195
175 190 197
175 189 197
174 188 197
171 187 196
171 186 196
174 185 195
175 183 194
174 183 193
171 182 192
165 179 188
164 179 188
161 176 185
161 175 183
161 174 182
159 171 179
158 169 178
157 169 175
156 167 173
155 165 173
155 164 173
153 164 175
153 163 174
153 162 172
154 162 171
153 163 168
154 162 169
156 161 170
156 161 170
156 161 170
158 162 171
158 162 169
159 163 170
157 161 168
158 162 170
156 161 167
155 160 165
156 161 166
157 159 166
156 160 166
153 158 163
152 157 161
151 155 162
149 153 162
147 154 160
145 152 159
144 149 156
144 148 157
140 145 153
138 144 151
136 143 151
135 142 150
133 140 148
134 141 147
133 140 146
134 141 149
133 139 147
132 139 147
131 139 145
129 137 144
128 137 143
128 136 143
126 135 143
126 133 141
126 133 140
125 130 139
125 132 140
123 132 141
123 131 140
122 131 140
122 130 139
124 131 140
123 130 139
125 130 138
124 130 137
124 130 139
122 130 139
122 131 140
120 130 139
121 131 137
121 130 137
120 130 138
120 130 138
121 128 138
122 129 137
121 129 137
120 128 136
121 129 138
119 127 136
120 128 137
118 128 136
116 128 136
117 128 135
118 127 136
118 126 134
119 127 135
117 125 134
117 125 134
117 125 133
116 126 133
117 126 134
117 124 134
117 124 133
118 124 133
118 123 132
117 123 131
116 122 130
117 123 130
116 121 129
114 121 129
114 121 129
113 121 128
114 121 127
115 121 128
115 121 129
114 119 128
114 119 129
114 120 129
113 119 127
114 119 127
114 119 126
114 119 126
114 119 127
113 119 127
112 119 126
114 120 127
113 119 127
113 118 128
113 119 127
113 120 129
112 119 127
112 120 128
114 119 127
115 120 126
114 119 126
113 118 126
114 119 128
114 119 129
113 119 127
113 120 128
114 120 129
113 119 127
113 120 127
113 121 127
112 119 127
112 118 127
113 118 126
114 117 126
112 115 125
113 114 124
114 115 126
111 115 124
110 115 123
108 114 122
109 114 122
108 115 122
108 114 121
108 114 122
109 113 121
107 111 118
106 111 118
105 109 118
103 109 117
103 108 115
103 107 114
104 106 114
104 106 115
103 106 114
103 107 114
102 105 113
103 106 115
103 105 115
103 106 114
103 107 114
102 107 114
101 106 114
102 107 114
102 107 114
103 107 114
102 108 116
102 107 115
102 108 114
103 108 114
103 109 116
102 107 116
103 108 117
104 108 117
103 107 115
104 107 114
103 107 115
101 107 115
101 108 116
101 107 115
102 106 114
101 107 114
102 108 116
104 107 115
103 106 114
102 108 115
101 108 116
101 108 117
101 107 116
102 107 115
102 106 115
102 108 116
101 108 116
101 108 116
102 108 117
102 107 116
103 109 118
101 108 117
101 108 117
102 107 117
101 108 116
102 109 118
101 108 118
103 110 118
102 109 118
100 108 117
102 109 119
101 109 118
101 108 117
102 109 119
102 108 118
101 108 118
101 108 118
101 108 116
101 108 117
101 108 118
99 107 117
101 108 118
103 107 119
102 107 118
101 107 118
101 108 119
101 108 118
100 108 118
100 109 119
100 109 118
100 109 118
100 109 119
101 109 120
101 107 118
103 107 119
101 107 117
101 108 117
99 107 116
100 107 116
100 105 116
100 105 116
100 104 115
98 104 114
98 104 113
98 105 114
99 104 113
97 103 113
96 103 112
96 103 112
97 102 111
98 101 112
96 101 109
94 99 106
92 99 105
91 98 104
90 97 104
89 96 102
90 96 103
88 94 102
89 94 102
88 94 102
89 94 103
89 94 103
88 94 102
89 94 103
87 94 102
87 95 102
87 95 102
88 94 103
89 95 102
88 96 102
88 95 102
88 94 103
89 94 103
88 94 103
88 94 103
88 95 103
87 95 103
87 95 104
88 95 102
89 95 103
89 96 103
89 96 104
89 95 104
90 96 106
90 96 104
90 97 104
88 96 104
88 95 104
91 97 107
89 96 105
89 96 105
89 97 106
88 97 105
89 98 106
89 97 105
88 97 106
89 98 106
88 98 106
90 99 107
91 98 107
89 97 107
89 98 107
88 97 106
89 98 107
89 97 106
89 97 106
89 97 106
89 97 106
89 96 106
90 96 106
89 96 105
87 96 105
88 96 104
88 96 104
87 96 103
86 95 103
87 94 103
86 93 102
86 93 102
85 92 101
84 92 100
83 92 100
85 91 99
84 90 98
83 91 98
83 90 98
82 90 98
82 90 96
83 89 97
83 89 97
82 88 97
82 88 98
82 89 98
81 87 98
80 88 97
81 88 97
81 87 94
82 88 96
82 87 96
81 87 96
81 87 96
80 87 96
80 87 95
79 88 95
79 88 96
78 86 94
79 87 94
79 85 93
78 83 92
78 83 91
73 81 88
139 154 174
139 155 176
140 157 177
140 159 179
141 162 181
143 165 184
142 165 185
143 168 185
145 169 186
146 171 190
149 173 193
152 177 196
151 179 197
152 181 199
151 183 201
151 184 201
153 184 202
153 184 201
153 184 203
153 184 205
157 185 205
159 187 207
160 189 207
159 189 206
160 188 209
157 189 211
156 192 212
156 191 211
158 191 212
159 191 210
160 192 209
159 192 210
159 193 214
159 193 215
161 193 217
162 194 217
162 195 217
163 196 219
161 196 218
163 196 220
165 196 222
166 195 221
168 197 221
167 196 219
166 197 220
165 197 220
166 200 222
163 200 222
163 200 223
163 201 224
165 201 224
167 201 224
164 201 224
165 203 228
164 202 227
163 205 228
166 203 228
166 203 229
169 204 230
170 205 230
169 204 231
167 204 230
168 206 234
167 206 233
170 205 232
171 206 233
168 206 230
171 209 233
169 209 234
170 208 231
166 206 227
171 208 230
171 209 233
170 209 233
169 211 235
171 211 235
171 210 234
171 210 235
170 209 236
173 209 236
173 209 236
172 211 236
170 209 233
169 211 236
173 212 238
175 211 236
173 207 232
175 210 234
175 212 238
173 212 238
172 211 237
173 211 241
175 211 239
176 211 239
177 211 238
178 211 240
177 212 240
175 213 241
174 214 242
173 213 242
175 215 245
175 214 243
175 211 239
176 215 240
175 216 241
177 216 241
174 215 243
174 214 243
178 215 241
179 215 241
178 213 240
180 214 241
180 215 243
178 214 243
177 217 246
177 218 243
175 217 244
175 216 244
176 217 246
179 218 244
178 215 244
179 218 248
177 217 246
179 217 248
178 214 245
180 216 248
181 215 246
181 217 245
178 220 247
177 217 246
181 219 247
182 218 246
181 218 247
177 219 247
178 220 248
178 220 247
178 220 247
177 219 247
180 220 251
180 221 251
178 222 251
179 226 255
176 221 251
178 221 249
179 220 246
181 221 251
181 221 248
183 223 251
182 222 251
181 222 251
181 223 248
185 222 248
182 222 247
179 222 246
180 222 248
182 225 248
185 225 249
185 222 249
183 223 252
181 224 253
182 223 253
187 225 254
182 225 247
183 227 250
183 228 251
183 226 251
183 225 251
183 226 250
183 226 252
182 226 253
182 226 255
185 226 253
187 226 254
187 226 254
185 226 255
183 226 253
183 226 253
184 226 251
185 225 251
186 226 251
185 227 251
185 226 250
185 225 252
185 228 255
181 225 250
184 228 250
184 226 247
184 227 249
184 226 249
184 227 248
184 226 250
184 225 251
185 225 252
186 227 254
185 227 253
186 228 254
184 227 251
187 228 254
185 226 252
186 229 254
187 228 255
189 226 253
190 228 254
188 226 253
189 226 253
190 228 255
187 228 255
188 229 255
188 229 255
189 227 253
189 229 253
186 230 253
185 228 251
189 229 255
187 227 254
188 227 255
188 229 255
190 229 255
191 229 255
189 228 255
189 228 255
188 228 255
187 228 255
187 229 255
187 228 253
187 229 255
189 226 253
188 226 252
187 229 253
190 228 255
193 227 255
191 225 254
190 227 254
185 227 253
187 228 254
188 229 255
188 227 254
189 227 253
188 229 253
188 231 255
188 229 255
187 230 255
187 231 253
189 231 255
188 229 255
189 228 255
190 230 255
189 229 253
192 230 255
190 228 253
190 228 253
189 227 253
189 226 251
190 229 253
188 230 253
190 229 252
191 228 252
189 229 251
187 230 253
186 227 251
190 229 253
190 228 253
190 228 253
190 227 253
190 227 251
190 227 251
192 230 253
191 226 249
192 228 251
192 227 251
191 227 250
189 229 251
188 229 249
193 231 253
194 227 250
195 229 251
194 228 249
193 226 246
193 229 248
193 228 248
194 228 247
193 227 247
193 228 246
192 228 246
192 228 249
195 227 246
195 226 243
195 228 245
192 227 243
188 225 242
194 226 246
194 224 244
195 223 242
198 223 241
196 223 238
196 222 238
197 223 240
196 219 236
199 221 239
198 222 236
195 223 237
193 224 238
193 223 240
193 220 240
191 219 239
192 219 241
192 219 237
188 218 233
190 218 233
192 216 232
191 213 232
191 213 231
189 214 231
187 211 227
188 210 226
187 210 224
186 212 224
185 208 220
184 205 218
184 203 216
183 201 213
185 202 215
183 201 213
183 201 213
182 199 212
180 201 212
180 203 214
181 204 215
181 204 218
183 205 219
183 203 216
184 201 214
182 201 214
180 201 212
180 199 210
180 199 208
177 195 205
176 194 201
175 190 196
173 189 197
172 185 195
174 184 196
170 184 194
168 185 193
167 183 192
168 184 191
170 185 194
170 186 194
170 186 194
172 185 195
170 188 194
171 189 196
172 189 198
172 189 198
175 190 200
174 187 197
172 188 197
171 186 194
172 185 194
172 185 194
171 185 194
168 184 193
166 182 191
165 180 190
164 178 187
162 176 184
162 175 183
163 174 183
160 173 183
159 171 180
160 168 178
161 168 178
159 165 176
158 165 177
157 165 177
156 165 174
156 165 174
157 164 173
157 164 174
158 164 175
160 164 174
159 163 172
160 164 170
161 164 168
161 163 169
161 164 170
159 162 168
162 165 171
161 163 168
161 162 168
158 162 169
155 160 167
154 161 167
153 158 162
152 157 163
152 157 162
149 155 161
146 153 161
143 151 157
142 149 155
141 148 154
138 144 151
139 144 152
136 144 151
136 142 150
137 142 149
135 141 148
135 141 149
134 141 148
133 139 146
133 139 146
132 139 146
132 138 143
130 136 144
128 134 142
127 133 141
128 133 141
128 132 141
127 131 140
126 132 141
124 132 139
125 132 142
125 131 140
124 131 140
124 131 140
125 131 138
126 131 138
125 130 139
124 131 139
122 131 140
122 131 139
123 131 138
123 129 138
121 131 139
120 130 138
121 128 138
118 128 138
118 129 139
119 129 139
118 130 138
118 129 137
119 128 136
119 129 137
117 128 135
118 128 135
118 128 135
118 127 135
117 126 134
117 126 134
116 125 134
117 125 134
117 125 135
117 124 135
117 123 134
117 123 133
116 124 134
116 123 133
117 123 132
116 122 132
117 122 131
115 122 129
115 121 128
115 120 129
117 121 130
115 120 127
115 120 127
116 121 128
114 120 127
113 121 128
112 120 129
114 120 129
115 119 127
116 120 127
114 119 125
114 120 125
113 120 127
113 121 129
114 119 128
113 119 127
112 120 126
111 121 127
112 120 127
113 120 127
114 120 127
113 119 127
114 120 128
114 120 128
113 120 128
112 121 127
114 121 128
114 120 128
114 120 128
113 120 128
113 119 127
114 120 127
113 120 127
113 120 128
112 119 126
112 120 127
112 119 128
111 118 126
112 117 125
112 116 124
111 115 123
110 114 123
110 114 123
109 114 123
109 114 123
110 115 123
109 114 122
109 112 120
108 112 119
107 111 118
106 110 116
104 109 115
103 108 115
103 108 115
104 107 115
103 107 116
102 106 114
103 106 115
103 106 115
103 107 116
102 106 115
102 107 114
102 108 115
102 107 116
102 106 116
101 107 116
102 107 115
103 107 116
103 106 115
103 108 116
103 109 116
103 108 116
102 108 116
102 108 116
101 108 116
101 108 116
102 108 116
103 108 116
102 108 116
101 108 116
101 108 116
101 108 116
101 108 116
101 107 115
101 108 115
102 108 115
103 108 115
102 108 115
100 108 116
101 108 117
102 108 116
102 108 116
101 108 116
102 108 117
101 108 117
101 108 117
101 109 118
101 108 117
102 109 117
101 108 116
102 109 118
102 109 119
100 109 118
101 109 118
101 110 120
101 110 121
100 109 119
102 110 120
103 111 121
102 109 119
101 110 120
102 109 119
102 108 118
102 108 118
101 110 120
99 109 119
99 109 119
99 109 121
100 109 119
100 109 119
100 109 118
100 108 118
101 108 119
102 109 119
101 109 118
100 108 118
101 109 119
102 108 120
100 108 118
101 109 119
101 109 119
101 108 118
102 108 118
102 108 119
101 107 118
100 107 117
99 106 116
99 106 116
100 105 115
99 104 114
99 104 115
98 104 114
98 105 114
97 104 113
97 104 113
97 104 112
97 104 112
95 103 111
95 103 110
96 101 110
94 100 109
92 97 106
91 97 105
91 95 104
90 95 104
90 94 103
89 94 103
88 94 103
88 94 104
88 94 103
89 94 103
90 93 102
89 94 102
88 94 101
89 94 102
89 93 102
89 95 103
88 94 102
88 95 103
87 94 103
88 94 102
88 94 102
88 94 102
87 94 103
87 95 103
87 94 103
88 94 104
88 94 104
88 95 104
88 95 104
88 95 103
90 96 103
90 95 103
89 96 103
89 97 104
89 97 105
88 97 105
88 97 105
88 98 106
89 97 107
89 96 106
88 97 106
88 97 106
89 97 106
90 97 106
90 97 106
88 96 104
89 97 106
90 97 106
89 97 107
89 98 108
89 97 107
88 96 107
89 97 107
88 96 106
88 96 105
88 96 107
89 95 105
89 95 105
89 95 105
88 95 104
87 95 104
87 95 104
86 94 103
86 94 103
86 94 103
86 94 103
85 93 102
86 92 102
84 91 100
83 91 100
83 91 100
83 90 99
83 90 99
84 89 98
84 89 97
84 89 98
83 89 97
82 89 97
82 89 96
81 89 96
82 89 97
81 88 96
81 87 96
82 87 96
82 87 96
83 88 96
83 86 94
82 87 95
80 87 95
80 87 94
81 87 94
80 87 94
80 87 95
80 87 94
79 87 94
79 85 94
79 83 92
78 83 92
73 81 89
139 156 175
138 157 176
140 159 178
141 162 180
140 163 182
140 164 183
141 167 185
144 168 186
144 170 187
147 171 189
149 172 192
150 174 194
151 177 197
151 177 197
153 179 197
152 179 196
152 181 199
154 181 200
154 184 205
154 183 205
155 184 206
155 185 207
156 186 207
157 185 208
160 187 209
159 189 210
156 188 207
158 191 211
157 191 212
158 192 212
161 192 214
160 192 215
160 191 218
163 193 221
163 192 218
162 194 216
162 194 217
164 195 218
164 196 220
164 195 219
166 196 219
166 196 220
164 197 218
165 199 220
167 198 221
166 198 222
165 198 223
166 199 224
166 200 224
167 201 224
167 202 224
165 201 224
167 201 223
169 203 227
169 202 227
165 204 227
169 202 227
168 202 225
167 203 226
167 205 229
171 206 230
168 205 231
167 204 228
169 206 232
169 206 233
167 206 232
170 208 231
170 207 230
171 206 231
170 207 231
171 209 231
171 210 234
172 208 234
170 207 232
172 208 233
172 207 233
171 208 234
169 209 231
171 210 236
171 209 235
171 208 233
173 210 236
172 210 236
172 212 235
171 211 235
172 210 234
173 211 236
173 210 237
173 211 238
175 210 238
175 211 241
172 211 241
172 213 238
174 212 237
176 210 239
177 211 240
177 211 239
176 212 239
174 214 242
174 214 240
174 214 241
174 214 240
175 216 241
175 215 240
175 216 238
174 214 239
174 214 242
175 217 243
177 216 241
178 214 240
181 215 242
178 212 242
177 213 243
179 215 247
177 215 245
176 216 247
176 216 243
176 217 246
177 218 246
177 215 244
176 218 249
175 218 249
173 218 246
176 219 244
177 217 245
180 216 248
183 217 247
179 216 244
178 216 246
181 218 250
179 217 244
181 219 247
179 219 247
179 220 248
177 220 247
178 220 249
181 220 248
182 219 249
183 220 251
182 220 250
182 221 249
181 218 248
182 220 250
181 222 253
180 223 249
180 221 248
186 222 253
182 221 249
181 221 249
182 223 251
180 221 248
183 223 250
183 223 249
182 223 251
182 223 253
182 223 248
181 222 244
185 225 251
183 223 249
183 223 248
183 224 250
183 223 250
183 223 247
184 223 249
185 223 249
184 226 252
183 225 249
183 226 249
185 226 253
187 226 255
186 224 253
186 226 254
186 223 251
187 224 253
186 224 253
186 226 255
188 226 255
186 226 254
185 226 254
184 224 253
186 224 251
187 224 251
186 225 250
183 225 253
186 226 254
185 227 253
184 227 249
185 226 247
187 228 250
184 226 248
186 224 250
187 224 251
186 226 254
184 226 252
185 225 248
187 226 251
187 227 254
188 225 251
189 226 252
187 225 254
185 226 254
186 229 255
187 227 253
187 227 253
189 229 255
187 229 255
187 229 254
188 228 253
188 231 255
187 231 253
188 229 252
189 231 255
188 228 253
188 229 255
191 229 255
189 226 254
187 225 253
189 228 255
188 228 253
188 228 253
189 226 253
189 229 255
189 228 255
190 228 255
189 225 253
191 227 255
191 227 255
189 227 255
184 227 254
187 227 255
190 228 255
191 229 255
190 230 253
189 229 254
190 228 255
190 227 255
189 226 252
190 229 255
189 229 255
188 229 255
192 229 255
192 230 255
189 230 253
190 230 255
189 229 255
188 229 253
190 229 253
188 230 255
187 231 255
185 230 255
187 229 253
190 229 255
190 227 253
191 229 251
190 227 249
192 229 252
190 228 251
190 229 253
188 229 252
189 229 251
190 227 250
188 227 251
189 227 251
189 229 251
187 230 249
190 229 252
189 227 251
191 229 251
190 228 249
193 228 250
192 227 249
192 229 251
189 229 251
193 229 251
191 228 249
193 232 249
192 229 247
194 229 249
195 228 248
195 228 246
193 227 243
196 228 244
201 226 245
199 227 246
196 226 245
197 225 245
196 225 242
196 225 241
197 225 239
199 227 242
198 223 242
199 224 244
199 224 242
202 224 241
201 221 237
201 223 238
201 223 238
200 222 235
198 222 234
199 223 234
198 224 236
194 224 236
193 224 240
195 223 243
194 221 242
193 221 238
191 219 238
189 217 234
190 217 232
192 217 230
191 215 229
192 215 230
192 215 231
189 214 231
188 213 229
190 213 227
187 211 224
188 211 223
187 209 222
186 207 217
185 206 216
185 206 218
185 205 218
183 204 218
181 204 218
181 204 214
182 206 215
181 207 216
181 208 220
181 207 219
183 208 220
182 206 219
181 205 217
180 204 215
181 202 211
180 200 207
178 199 206
175 195 201
175 192 198
173 190 197
171 187 195
171 186 196
169 186 194
167 185 192
167 185 192
168 184 190
169 183 190
170 185 194
170 187 195
169 185 194
170 187 195
171 188 197
172 189 198
172 189 198
172 189 199
172 188 197
173 188 197
171 187 195
172 187 196
172 187 196
170 186 195
168 185 194
168 184 192
168 183 192
165 180 189
165 178 187
164 176 186
164 174 185
166 176 188
164 173 184
165 172 183
165 171 182
164 169 182
162 170 181
161 171 180
161 170 178
160 167 175
159 167 174
160 168 175
160 167 174
162 167 174
163 167 174
162 167 172
163 167 172
163 167 171
163 167 172
163 166 173
163 166 171
162 165 170
162 165 170
160 164 172
159 163 171
156 161 168
157 160 167
155 158 165
152 157 162
151 156 162
149 154 161
145 151 158
143 150 157
141 149 156
141 147 155
140 146 153
137 146 152
137 145 152
138 144 151
138 143 149
138 143 150
136 142 149
135 141 149
134 141 148
133 140 147
133 140 146
132 139 145
131 136 144
129 136 143
130 135 143
130 134 141
129 134 141
128 133 140
127 133 140
127 134 142
126 133 142
126 132 140
126 134 141
125 133 138
126 133 140
125 132 140
124 131 139
124 132 141
124 132 141
122 131 140
122 131 140
121 130 140
121 129 140
121 129 140
121 129 139
121 130 139
120 128 137
121 128 138
121 129 138
121 128 138
119 128 136
118 129 136
118 128 134
118 128 134
119 127 135
118 127 134
118 126 134
117 126 134
116 124 134
117 125 134
117 125 134
117 125 133
116 124 132
117 125 132
117 124 133
117 122 132
117 122 132
116 122 132
115 124 131
115 122 130
116 121 130
115 121 129
116 122 129
114 121 128
115 121 128
114 121 128
113 122 128
111 121 128
112 122 129
114 121 128
114 121 127
114 120 127
113 120 128
113 119 128
115 120 130
114 119 129
114 118 129
114 120 130
113 120 128
112 120 127
113 120 128
113 119 128
113 120 129
112 120 129
113 120 129
113 121 129
113 121 128
113 121 128
114 121 129
115 120 130
114 119 128
115 120 129
115 120 128
114 120 127
114 120 127
113 120 127
112 118 125
112 119 127
113 117 127
112 117 125
111 116 123
111 116 123
111 116 124
111 115 124
110 115 124
109 114 123
108 115 123
107 113 121
109 113 120
109 112 119
107 112 119
105 110 118
106 110 118
104 108 116
104 108 117
103 107 116
103 108 117
101 108 115
103 108 114
103 108 114
103 107 113
103 107 115
103 107 114
102 107 115
103 107 116
103 108 117
102 108 117
101 108 115
100 108 115
103 108 116
103 108 116
102 108 116
103 108 117
102 109 116
102 109 116
103 108 116
103 108 116
104 108 116
103 107 115
104 108 116
102 108 114
102 108 114
102 108 116
101 108 116
101 109 117
100 109 115
101 108 115
102 108 116
103 108 117
102 108 116
101 108 116
103 108 117
103 109 118
103 108 117
103 109 117
102 108 116
102 109 117
102 109 118
103 108 118
103 108 117
101 108 116
102 109 117
101 109 118
100 110 119
101 111 119
102 110 119
100 109 120
101 110 120
102 110 119
102 109 119
103 111 122
103 110 121
104 110 121
103 109 119
101 109 117
101 110 118
101 109 118
101 109 119
101 108 118
101 109 118
100 109 118
101 108 119
101 108 119
101 109 119
101 108 118
102 108 117
102 108 118
101 108 118
102 108 119
101 108 118
101 109 119
100 108 120
101 108 119
101 107 118
101 107 118
100 107 118
100 107 118
100 107 119
100 106 117
99 107 116
98 106 116
99 106 115
98 105 115
99 105 115
97 106 114
97 105 113
97 104 112
97 105 111
96 104 111
94 103 111
94 101 110
94 100 110
91 98 106
90 98 105
91 96 104
91 95 103
91 94 103
89 94 103
89 94 103
88 94 103
88 95 103
88 94 103
87 94 103
87 94 103
89 94 102
89 93 102
88 93 101
88 94 102
87 94 103
87 94 103
88 95 103
86 95 102
87 95 101
87 94 102
88 95 103
87 94 102
87 94 103
88 94 102
89 94 102
89 94 103
88 95 103
88 95 103
88 96 103
89 96 104
90 96 105
89 96 104
89 96 103
88 97 103
88 97 104
88 96 106
88 97 106
88 97 105
89 97 106
89 97 107
90 97 106
90 95 105
90 96 105
89 97 105
89 97 106
90 97 106
89 97 107
88 97 106
89 97 106
87 95 104
88 96 106
89 96 106
89 96 107
88 96 107
88 96 107
87 95 105
88 95 105
87 94 104
86 94 103
86 94 103
87 94 103
86 93 103
85 94 104
85 93 104
85 91 101
85 91 101
85 91 100
84 90 100
84 91 100
83 91 100
82 90 98
82 89 97
82 89 97
83 89 97
83 89 98
81 88 97
83 89 97
84 89 97
83 87 97
82 87 96
81 87 96
81 87 97
82 87 96
82 88 96
82 87 95
82 87 95
80 87 94
80 87 94
80 87 95
79 86 94
79 87 94
80 86 94
79 86 94
77 85 93
77 84 92
76 83 90
73 81 89
138 157 176
139 159 179
139 162 179
141 165 182
142 165 184
142 165 183
143 168 186
144 169 187
145 168 185
147 170 189
149 170 189
150 172 192
151 176 197
150 176 196
152 177 195
153 179 197
154 179 197
154 179 198
152 181 199
152 182 201
153 183 202
156 185 204
159 186 207
156 186 207
158 189 208
157 188 207
160 192 211
158 190 210
160 193 214
161 194 215
159 191 212
159 191 214
160 192 216
162 194 215
162 194 215
162 194 214
167 195 218
166 193 218
166 194 219
168 196 221
167 197 220
168 199 221
165 197 220
165 198 219
165 198 220
165 198 223
164 199 225
165 201 224
165 200 222
167 200 224
165 200 223
167 201 224
168 201 223
167 201 223
165 201 224
164 203 225
169 203 226
170 205 227
169 205 224
168 204 227
170 204 229
171 205 232
173 207 233
169 205 231
172 205 231
170 205 230
170 204 228
172 204 230
174 205 230
174 206 231
172 206 230
172 206 232
171 207 235
169 209 233
169 209 231
170 210 233
167 209 233
167 211 235
169 209 232
169 209 231
172 210 237
173 209 237
173 210 237
171 211 233
171 211 233
175 209 234
176 210 235
175 211 236
174 210 235
174 208 235
175 210 240
174 211 239
172 213 238
172 214 239
175 210 235
176 210 239
176 213 242
171 211 238
175 215 241
175 216 241
174 214 243
177 213 241
178 214 243
178 212 243
173 211 239
175 216 244
176 216 244
177 217 244
175 216 239
173 214 237
175 216 239
176 216 243
179 215 244
179 214 246
179 214 247
177 216 247
177 216 248
176 216 245
177 216 245
180 216 246
179 215 246
179 216 247
178 218 246
177 218 243
178 220 244
180 219 245
181 218 244
182 218 244
182 219 249
180 217 248
181 217 244
181 218 246
181 216 246
182 217 246
179 219 245
178 219 243
179 219 244
181 219 246
178 220 246
180 221 247
183 218 248
183 219 247
182 221 249
183 219 249
180 222 247
182 223 251
183 219 247
182 224 250
183 223 251
183 221 245
183 227 249
181 223 246
182 224 246
184 222 247
186 223 250
187 224 248
184 220 243
185 223 247
183 222 247
183 227 250
181 225 250
180 227 253
184 227 254
184 223 251
186 222 254
185 223 254
185 223 253
184 227 255
182 226 254
182 227 252
181 224 249
185 224 249
186 222 249
187 224 250
184 225 248
188 225 251
186 224 250
185 223 250
183 225 254
189 227 255
186 223 254
190 224 255
186 223 251
187 227 254
185 221 250
184 223 252
183 225 250
183 225 250
185 225 249
187 226 251
186 225 251
187 225 252
185 226 252
183 223 252
189 226 255
188 225 255
187 224 254
185 225 250
186 229 252
186 229 255
186 227 254
185 228 255
186 227 253
185 228 250
184 227 251
183 226 251
187 230 255
185 227 252
184 227 251
186 229 251
187 229 252
184 227 248
186 230 251
185 228 250
188 227 253
190 228 255
190 227 253
189 228 254
189 229 254
191 232 255
189 227 254
191 229 255
189 226 253
190 227 254
188 229 255
189 227 254
191 229 255
189 230 255
186 228 254
186 228 254
187 225 254
189 227 254
189 226 252
189 227 253
191 228 253
192 230 255
192 229 255
189 226 252
188 227 254
187 230 255
191 229 255
193 231 255
190 228 253
191 229 255
192 230 255
192 231 254
191 232 253
188 232 255
187 231 255
185 232 255
188 233 255
192 231 255
191 229 255
190 227 251
191 228 254
191 228 253
190 228 254
190 228 253
190 228 251
191 231 253
191 228 250
193 227 251
192 227 251
189 231 252
185 231 251
186 228 254
191 227 255
191 229 254
193 230 255
192 228 251
194 231 253
192 229 252
192 232 251
191 230 251
192 228 249
192 226 245
196 230 249
196 227 247
198 231 251
198 229 249
197 227 243
200 230 243
196 226 237
199 226 239
201 226 240
202 224 239
201 226 242
199 227 242
199 227 240
201 228 241
201 226 242
198 225 242
202 225 243
204 222 239
204 225 239
202 228 238
201 224 234
204 224 234
202 222 233
204 224 235
204 225 238
198 224 238
197 221 238
198 221 240
197 221 238
196 220 234
196 221 235
195 219 232
198 218 233
198 218 231
196 219 232
193 218 232
195 217 234
194 216 233
189 216 229
188 215 227
191 215 227
190 213 225
188 211 223
184 209 219
185 210 220
185 210 222
181 207 217
182 210 222
181 208 222
181 203 214
183 205 218
183 206 223
182 209 222
184 211 225
183 208 224
181 207 220
181 205 217
183 205 216
184 203 214
183 198 207
182 199 207
179 197 204
175 194 202
174 192 201
171 188 197
167 185 192
165 185 191
166 186 190
164 184 188
165 183 189
166 182 190
169 184 193
169 185 194
168 184 193
168 185 193
170 187 194
172 189 198
172 188 198
172 188 199
172 189 200
167 187 195
168 189 197
168 188 198
168 187 198
169 186 197
170 184 193
169 182 191
167 179 192
168 181 192
167 179 189
169 178 188
168 178 186
168 176 187
168 176 189
166 173 186
167 173 185
165 172 184
165 174 185
163 173 181
163 172 178
163 172 178
164 172 178
162 171 178
161 169 175
164 169 176
165 169 177
167 169 175
165 168 173
168 169 174
167 168 173
167 169 174
164 168 171
162 168 169
161 165 169
160 165 171
160 165 172
159 163 170
158 161 168
156 158 165
154 158 164
152 156 164
150 155 164
147 153 161
145 152 160
144 152 160
142 148 156
142 146 154
141 145 153
142 146 154
140 144 153
139 145 153
136 143 151
137 144 152
136 143 150
135 142 148
136 141 148
134 140 147
133 139 146
132 138 145
129 136 140
130 137 142
130 136 143
129 134 141
128 135 142
129 135 143
127 133 141
126 133 141
126 134 141
125 134 140
125 136 141
122 134 140
125 134 141
124 133 141
124 131 139
123 130 139
123 131 141
122 131 140
123 131 141
122 128 139
122 130 141
122 129 140
121 130 139
120 129 138
120 128 137
120 129 138
120 129 138
118 128 135
119 128 136
119 127 135
120 127 136
119 127 135
118 127 134
117 126 134
117 126 134
118 126 135
118 126 135
118 126 134
119 125 134
118 124 132
118 124 133
117 124 132
117 124 132
116 123 132
116 124 133
114 122 129
115 124 132
113 122 130
116 122 132
114 121 129
114 122 130
115 122 129
114 121 129
112 121 129
113 121 130
114 122 129
115 121 127
115 121 127
113 121 128
113 121 127
115 121 128
115 119 128
117 120 129
116 119 130
115 120 130
112 121 129
113 122 129
113 120 129
112 118 126
115 120 130
113 121 129
112 120 129
113 120 130
113 119 128
115 121 130
114 120 129
115 121 129
114 119 128
114 120 128
115 121 130
113 119 127
114 121 128
115 120 128
114 120 128
113 118 127
113 116 125
113 115 126
114 116 126
113 116 125
113 116 125
110 114 123
111 115 124
110 115 123
109 115 121
109 114 122
108 113 122
107 112 120
108 111 121
106 109 119
107 110 119
105 110 116
102 109 114
102 108 114
102 108 115
102 107 114
103 107 114
103 107 113
103 107 113
103 108 115
103 108 116
102 108 114
103 108 116
103 108 116
102 107 117
101 107 116
101 108 115
103 108 116
104 108 117
103 108 116
103 108 116
103 109 117
102 109 117
102 108 118
103 109 117
103 108 116
105 108 119
104 107 117
103 108 116
103 108 116
103 107 116
103 107 117
102 108 117
101 109 118
103 109 118
102 107 117
103 108 117
102 107 115
102 108 115
102 109 117
102 109 117
102 108 116
103 110 118
101 108 116
102 109 117
104 109 117
104 108 118
102 109 118
102 109 118
102 109 119
102 111 120
101 111 120
101 110 118
103 110 119
102 109 119
102 111 121
101 111 121
101 110 120
102 109 120
103 110 119
102 110 120
101 110 119
100 109 118
102 109 119
101 109 120
100 109 119
99 108 118
100 109 119
100 109 119
100 108 119
101 108 119
101 108 118
104 109 118
103 108 118
103 108 119
102 109 120
101 110 120
102 109 120
100 109 120
99 110 120
99 109 120
100 108 119
101 109 120
101 108 118
100 106 118
100 106 118
100 106 117
98 106 116
97 105 114
100 105 116
100 105 116
98 106 116
98 105 114
98 105 113
98 104 114
97 104 113
97 104 113
96 102 111
95 101 111
94 100 110
92 99 108
91 98 106
90 96 104
90 96 104
88 95 103
89 96 105
88 93 103
89 94 103
88 95 103
88 94 103
87 94 103
86 94 102
87 95 103
86 94 102
87 95 102
88 94 103
87 94 102
86 94 102
87 95 102
86 94 101
87 95 103
87 95 103
87 95 102
87 95 102
86 94 102
87 96 103
88 95 103
88 94 103
89 95 104
89 95 105
88 93 103
89 94 104
89 95 105
88 95 104
88 96 104
88 96 104
87 96 104
88 96 105
88 96 105
89 97 105
89 97 105
88 96 106
88 96 105
88 97 105
87 97 105
87 97 106
88 96 105
88 96 105
90 96 106
89 96 106
88 97 107
88 97 107
88 96 106
88 95 105
87 96 105
86 95 104
86 94 105
87 95 105
87 95 104
86 94 103
86 94 103
86 94 103
86 94 101
85 93 101
85 93 101
86 92 101
86 91 101
87 91 101
87 91 101
84 89 99
84 90 99
84 90 99
82 90 98
84 90 98
83 89 98
84 90 98
82 89 97
82 88 96
82 87 96
84 88 97
83 87 97
83 88 97
80 87 96
80 89 97
80 88 96
82 87 97
82 88 96
80 87 94
81 87 94
81 86 95
81 87 96
80 86 94
81 87 94
80 85 94
81 86 94
79 85 92
79 84 92
77 82 90
74 81 88
141 157 177
139 156 175
139 161 178
140 164 181
140 167 183
141 169 183
143 168 185
144 166 184
146 168 186
146 171 188
148 172 190
149 174 193
150 176 196
151 177 195
152 177 194
151 179 195
153 179 196
153 179 198
153 180 199
153 180 201
157 183 203
158 185 203
156 186 202
155 186 203
157 189 207
158 190 208
158 190 209
160 191 210
160 192 211
160 192 212
162 194 215
161 193 212
164 196 215
164 194 212
164 196 213
164 196 214
165 198 218
164 198 218
164 199 217
163 197 218
164 198 218
163 199 219
163 200 219
164 200 222
165 199 225
166 199 224
168 199 225
165 200 223
168 202 224
164 202 223
167 202 225
167 201 225
166 201 226
168 203 228
167 203 226
167 203 226
170 204 227
169 203 227
170 204 229
169 205 229
168 205 229
166 204 229
167 205 229
169 206 231
167 205 229
168 207 230
168 209 234
168 207 235
171 208 235
173 207 233
172 207 232
168 208 231
169 209 233
169 208 234
170 209 234
169 208 231
170 208 233
170 209 234
169 208 234
170 209 235
172 210 237
170 208 234
171 209 235
172 210 236
174 209 235
172 210 234
173 210 234
173 211 236
174 212 236
175 209 237
174 209 240
175 210 240
173 212 238
173 211 240
174 213 242
175 211 240
174 213 241
176 211 238
177 213 237
175 215 239
172 215 240
173 213 239
175 213 240
177 214 242
175 213 242
174 214 242
175 214 242
177 214 242
176 213 238
177 216 243
176 215 242
174 215 242
176 214 242
177 215 242
177 214 243
178 215 245
177 217 244
175 214 243
174 215 243
178 215 244
180 216 247
181 215 247
180 215 245
177 218 242
177 218 245
178 219 246
178 218 241
182 218 243
176 216 244
178 218 248
181 216 246
181 217 245
180 219 247
177 218 245
176 222 246
175 221 248
178 218 247
181 220 248
180 221 247
181 222 247
180 221 250
180 222 251
181 223 251
183 223 250
181 220 248
184 221 250
184 220 247
183 222 247
186 222 247
185 221 247
181 222 251
182 223 249
184 223 251
182 221 249
180 222 247
181 222 247
187 224 248
185 221 249
188 222 249
187 222 250
184 223 249
182 223 249
183 223 246
187 225 249
186 221 248
186 221 249
185 222 251
186 224 254
183 225 252
183 225 252
186 225 254
187 224 254
187 224 252
187 224 252
187 223 250
187 224 250
187 226 252
185 224 251
185 224 253
186 224 254
187 224 254
190 225 254
187 223 250
185 225 249
184 227 251
185 227 252
185 225 251
187 226 252
186 222 252
187 224 253
185 224 251
186 224 250
187 224 250
188 226 252
186 224 251
185 225 253
184 227 253
186 228 251
186 227 252
185 227 254
186 227 251
188 228 255
189 229 254
186 227 251
187 229 255
186 228 255
186 228 255
189 226 254
190 229 255
189 228 252
189 228 253
190 230 255
188 228 254
189 228 254
190 226 251
190 226 250
191 227 254
190 225 254
189 228 255
189 228 255
188 225 254
187 225 251
191 229 255
188 226 252
190 228 254
190 227 254
190 227 255
188 226 254
187 230 255
184 233 255
185 232 254
187 229 254
190 229 255
189 228 254
189 229 252
190 231 254
189 228 250
188 229 255
189 231 255
188 231 255
190 229 255
190 226 250
191 229 253
189 229 254
190 228 255
192 231 254
191 229 252
190 231 255
188 230 255
190 230 255
190 229 255
188 227 254
191 229 254
192 229 254
191 228 253
191 230 254
191 230 254
192 228 251
189 227 247
188 230 247
189 231 251
189 229 252
191 229 253
192 228 254
191 228 254
191 229 254
186 230 253
186 232 250
188 231 249
190 232 249
191 229 249
192 228 250
193 228 248
193 231 249
195 229 249
198 228 249
198 228 246
199 228 245
198 227 245
200 224 244
202 227 243
201 225 239
203 228 240
203 225 236
204 224 237
206 226 238
202 225 237
201 228 240
201 225 238
201 224 237
200 228 239
197 226 240
199 226 239
202 227 241
201 227 239
200 226 237
201 225 236
202 225 235
204 224 237
203 223 237
202 222 237
200 222 237
201 222 239
201 221 237
198 223 235
198 222 235
197 221 234
197 220 231
200 221 236
198 220 234
195 221 232
193 220 232
194 219 232
194 219 235
193 218 233
191 217 229
193 218 230
190 216 228
186 214 227
187 214 227
183 214 226
185 213 225
186 211 222
187 210 225
189 209 227
190 209 226
187 207 224
183 208 226
183 209 223
183 209 223
183 210 222
183 210 220
182 208 217
182 206 217
180 203 214
179 199 208
180 197 207
179 196 205
175 194 202
172 192 198
168 188 195
168 188 196
167 187 195
165 185 192
167 185 192
165 183 191
167 183 192
167 182 192
170 183 193
170 183 192
172 185 193
172 186 193
171 186 194
172 189 197
171 187 197
170 187 196
172 186 194
170 187 196
168 189 197
167 189 195
166 186 193
166 186 192
166 185 193
167 184 194
168 182 192
169 181 191
172 182 191
171 181 190
170 179 190
169 176 188
169 175 187
171 175 189
169 176 187
167 176 186
167 177 185
167 174 181
168 174 180
167 173 179
166 172 179
168 174 180
170 175 181
168 174 179
170 173 178
170 173 178
170 172 176
170 172 177
169 171 176
169 170 177
169 170 176
167 169 174
164 167 173
164 166 173
162 164 171
160 163 170
159 161 169
157 160 169
156 159 167
152 157 165
148 156 163
147 153 162
147 152 160
145 149 158
145 149 158
145 149 157
144 148 156
143 147 155
140 146 152
140 145 151
141 145 152
139 143 150
139 143 148
139 143 148
136 142 147
133 140 146
133 140 147
133 139 147
133 138 145
130 137 143
128 136 142
127 136 142
129 136 141
128 135 142
126 134 141
127 136 144
126 136 142
126 135 141
125 134 142
125 134 142
125 133 142
126 133 144
125 133 142
124 133 142
123 132 141
124 132 141
124 132 140
123 132 140
122 131 140
122 131 140
120 132 140
120 130 138
121 129 139
120 128 137
121 128 136
121 128 137
120 128 137
119 127 136
118 128 136
117 128 136
119 128 136
118 126 135
118 126 135
118 126 135
118 126 136
119 125 135
118 124 134
117 125 136
117 125 134
117 125 134
116 124 132
116 123 132
115 123 131
115 124 132
117 123 132
117 122 131
118 121 132
116 120 131
116 121 130
116 122 130
115 122 130
114 122 130
114 122 131
114 121 130
115 121 129
116 121 128
116 121 127
115 122 128
115 120 128
114 119 127
117 120 129
115 120 129
113 121 129
112 120 129
115 121 130
115 120 129
115 120 130
113 120 129
113 120 130
113 120 130
114 122 130
114 121 129
114 121 129
115 121 129
114 121 129
113 121 128
113 121 128
114 122 129
115 121 129
115 120 129
114 119 127
114 119 127
112 117 126
112 117 126
112 118 126
111 116 124
112 116 124
111 115 124
110 114 123
110 114 123
110 114 122
110 114 123
108 113 122
107 113 121
107 112 121
105 111 119
106 109 118
105 108 116
104 108 115
105 109 117
103 107 114
103 107 115
103 107 115
103 108 116
103 107 116
103 108 115
102 108 114
102 108 114
102 108 115
101 107 115
103 109 117
103 108 116
102 109 117
103 108 116
103 107 116
102 107 114
102 108 116
101 108 117
102 109 118
102 108 117
103 109 116
104 110 117
103 108 117
103 108 117
103 108 116
101 109 116
101 109 116
102 108 117
103 109 118
102 109 118
102 108 118
101 108 117
102 109 118
101 109 118
100 109 117
101 109 117
102 108 118
104 109 118
103 109 118
103 109 118
102 109 118
102 109 117
103 109 118
104 109 118
104 109 118
103 110 118
101 110 118
100 111 118
101 112 119
102 112 120
102 111 121
102 110 121
102 110 120
103 110 121
103 110 122
102 110 121
102 111 121
102 111 120
102 110 120
101 109 119
100 109 120
101 109 120
101 109 120
102 109 120
100 109 119
101 108 119
103 108 119
102 108 119
102 109 119
102 108 119
102 109 120
101 109 122
100 109 120
100 109 120
101 109 119
100 109 119
100 108 118
100 109 119
100 109 119
99 109 118
99 107 118
99 107 118
99 107 118
100 107 117
99 106 116
99 105 114
100 105 115
98 105 114
98 106 115
98 105 114
98 105 114
96 104 114
96 104 113
97 104 112
94 102 110
92 100 108
92 100 109
92 97 107
90 96 106
89 96 105
88 94 103
89 94 104
90 94 104
89 94 102
88 94 102
89 94 103
88 94 102
87 94 101
87 95 102
88 95 102
86 94 101
88 94 102
88 94 102
87 95 101
87 96 101
88 94 101
88 94 102
87 95 102
86 94 102
88 94 103
87 94 104
86 96 104
87 94 102
87 93 102
87 93 103
86 94 103
87 96 103
88 95 103
88 94 103
88 95 103
87 96 103
87 96 105
87 96 105
87 97 105
89 97 105
89 96 105
89 96 105
89 96 106
89 96 105
90 96 105
90 96 106
89 96 106
88 97 107
88 97 106
88 96 105
88 96 105
88 96 106
88 96 106
89 96 105
89 95 104
89 95 105
88 95 105
86 94 105
87 94 104
86 94 104
86 95 104
85 94 103
85 94 103
85 93 102
86 92 101
86 92 101
86 92 101
84 91 100
85 92 101
84 91 99
85 90 99
84 90 99
84 90 99
82 90 99
82 90 99
83 88 97
83 89 97
82 89 97
81 89 97
82 88 97
83 88 98
82 87 96
82 87 96
82 87 96
81 87 97
82 88 95
83 87 96
81 86 96
80 87 95
80 87 95
81 87 95
80 87 95
80 87 94
79 86 94
79 86 94
79 86 94
78 84 92
79 85 92
76 83 91
73 81 89
140 159 176
142 160 178
144 163 181
143 166 182
143 169 184
144 168 185
144 168 185
145 170 190
146 168 187
148 172 189
150 172 190
150 174 192
150 176 194
153 176 193
153 176 191
154 178 194
151 179 195
152 179 198
155 178 200
157 180 201
156 182 202
156 184 202
157 185 204
157 185 205
160 187 207
159 186 206
161 190 209
161 191 208
161 192 210
161 194 213
161 192 212
163 193 211
164 193 212
163 193 211
162 194 211
161 196 213
163 197 215
162 193 213
166 196 216
168 198 220
166 197 220
165 198 221
166 200 222
165 201 223
164 200 223
166 199 224
166 200 226
163 199 222
167 201 223
169 201 222
169 202 225
167 201 226
168 201 227
168 202 226
168 204 225
170 203 229
169 204 228
166 203 227
167 205 228
165 206 231
166 207 230
168 206 229
170 205 229
171 205 229
170 205 230
168 207 232
168 207 232
170 208 231
171 206 227
172 206 229
172 207 232
168 208 230
168 208 232
171 209 233
168 208 230
171 207 232
171 207 232
172 208 232
172 208 234
172 208 235
171 208 235
171 208 235
174 209 238
171 209 237
171 210 238
173 212 239
171 210 238
170 211 238
172 211 237
173 211 241
171 212 240
173 213 238
172 213 235
173 213 237
174 211 240
177 211 240
174 210 238
177 214 239
176 212 237
177 212 238
177 213 239
174 215 239
175 215 239
176 213 239
178 213 240
177 213 241
179 213 242
178 213 242
179 214 245
178 212 243
178 212 243
180 211 242
180 212 241
178 215 242
178 216 243
178 217 243
178 215 245
181 218 250
178 215 243
180 215 243
180 215 243
178 216 243
176 214 242
177 219 245
177 217 245
178 219 247
178 217 243
180 219 244
178 218 246
182 218 248
182 217 247
180 218 247
178 221 247
178 221 247
178 220 247
178 220 247
181 220 247
181 221 247
181 221 249
179 222 249
178 221 247
179 222 250
180 221 249
184 220 248
183 223 249
184 220 247
185 222 248
181 223 246
184 225 248
185 221 247
184 223 248
184 223 249
184 221 249
185 222 249
183 224 249
184 224 251
184 225 249
184 224 247
185 222 248
185 224 252
183 225 252
185 222 249
184 222 246
184 224 249
186 227 254
186 224 254
185 221 250
184 221 247
187 225 252
185 222 250
184 224 254
182 223 252
187 223 252
186 222 252
187 222 251
187 224 250
187 222 248
185 223 249
185 224 252
184 223 252
183 224 252
184 225 252
186 225 250
183 227 250
184 227 249
184 225 248
184 225 246
184 224 248
184 224 249
186 225 251
185 226 252
186 223 249
186 222 247
186 225 250
186 225 248
187 227 251
184 227 250
185 227 250
186 224 250
185 227 254
185 228 250
188 227 250
189 227 250
186 227 250
187 229 255
184 227 254
187 228 253
188 225 250
192 228 252
189 228 251
188 229 252
190 228 255
189 227 254
190 228 255
192 228 254
192 228 254
187 228 253
187 229 254
185 228 253
185 227 253
190 228 255
190 228 255
189 227 255
188 229 254
191 230 255
190 228 254
189 228 254
188 229 254
189 228 254
189 227 253
190 227 255
189 226 255
190 230 255
187 228 253
190 229 253
188 227 249
192 230 254
190 229 253
190 230 255
190 229 255
193 229 255
193 229 255
193 230 255
193 232 255
191 230 254
192 230 253
192 230 254
191 232 255
191 229 253
191 229 253
190 228 255
189 232 255
188 231 255
189 229 253
188 226 251
189 231 254
187 228 251
189 230 251
191 232 252
188 231 252
187 230 251
189 230 254
190 231 254
190 229 250
190 227 249
192 229 253
192 232 254
190 230 248
192 230 250
193 230 248
193 230 250
194 229 247
196 229 246
195 230 246
195 229 247
196 230 247
198 229 246
198 228 243
200 229 244
201 228 245
201 228 243
202 227 240
204 228 239
203 225 239
206 226 239
205 226 234
204 228 236
200 226 235
202 226 238
203 226 239
200 227 238
200 227 239
201 225 238
202 225 240
201 226 241
203 227 244
204 226 239
201 223 235
204 224 238
204 222 236
206 222 236
205 224 240
205 225 239
203 223 237
206 226 239
202 222 236
200 221 233
199 222 235
195 220 236
196 222 239
194 220 233
194 220 231
194 218 230
192 218 230
193 218 233
193 219 236
193 217 235
190 218 232
188 217 230
188 215 230
187 216 229
185 214 229
186 218 231
187 216 232
189 214 232
186 211 227
187 212 226
187 211 226
186 210 226
187 212 227
184 208 220
185 208 218
186 205 215
184 204 213
180 203 211
178 199 205
179 197 203
182 197 204
176 193 200
171 191 199
170 187 196
168 183 193
168 184 191
168 185 190
166 182 188
166 181 190
166 182 191
167 184 192
169 182 192
172 183 192
171 183 192
170 184 193
170 186 194
169 184 193
171 186 195
172 186 194
174 186 196
171 185 196
168 187 195
169 186 195
171 186 195
171 184 194
170 184 194
172 185 195
172 185 195
173 185 194
174 185 193
176 185 195
176 184 196
173 182 192
169 180 190
171 182 192
172 183 193
171 180 191
169 177 185
170 175 183
171 176 184
172 176 185
171 175 182
172 175 181
173 176 180
174 177 180
174 177 180
175 177 181
175 177 181
175 177 180
173 175 178
172 175 180
171 173 179
171 175 180
169 172 177
168 170 176
168 170 177
165 167 175
161 165 172
158 163 169
157 162 168
155 160 166
153 158 164
153 156 165
151 153 163
148 152 162
147 151 159
146 151 158
145 151 157
143 149 155
142 149 154
144 149 155
142 146 154
140 146 154
139 146 153
140 146 153
138 144 152
136 142 150
135 141 149
133 140 146
133 138 145
131 138 144
130 138 143
129 137 142
128 137 143
128 135 143
128 135 143
126 134 141
126 135 141
126 135 141
125 135 141
125 135 141
125 133 142
127 133 144
127 135 144
124 134 142
124 133 142
125 133 141
127 133 141
126 132 140
124 132 139
122 132 140
122 132 141
121 131 140
121 130 139
121 129 139
121 129 139
120 128 136
120 128 138
118 129 137
117 128 136
118 130 138
117 128 137
117 128 136
118 128 135
118 128 137
118 128 136
118 127 135
118 126 134
117 126 134
117 125 135
118 125 134
118 124 133
118 124 134
117 123 132
116 123 132
115 123 130
116 123 131
117 122 132
117 122 131
116 122 131
115 122 129
116 122 129
116 121 130
116 121 130
116 121 130
115 121 129
115 121 129
115 122 129
115 121 127
115 121 130
115 121 130
115 122 130
115 122 128
115 122 128
114 121 129
116 121 130
115 120 130
114 120 131
114 122 131
113 121 129
114 122 129
114 123 130
113 121 128
115 121 128
116 121 130
116 121 131
116 121 130
116 121 130
115 120 128
115 121 130
114 119 128
114 119 127
112 119 127
112 119 126
111 118 125
111 117 124
113 118 125
111 116 124
110 115 124
110 116 124
109 115 123
109 114 123
109 114 122
109 113 122
109 112 121
107 112 120
105 111 118
105 110 117
106 109 117
105 109 116
103 109 115
103 108 116
104 107 116
103 107 115
103 108 115
102 108 114
102 108 115
101 108 115
102 108 117
103 108 116
104 108 117
103 108 116
103 108 116
103 108 116
104 108 116
105 108 117
103 108 116
103 108 117
103 109 117
102 109 117
102 108 117
103 108 117
103 109 118
102 109 118
103 109 118
104 109 119
103 109 117
101 109 117
101 109 117
101 110 117
102 109 118
102 108 116
102 109 118
103 108 118
104 109 118
103 109 117
103 109 117
102 108 117
102 110 118
102 109 117
102 109 118
102 110 119
102 109 118
104 109 119
103 109 119
103 109 118
102 110 118
101 111 119
101 111 118
101 111 120
101 111 120
102 111 122
102 109 121
104 109 121
102 110 121
102 111 122
102 111 121
102 110 120
103 110 119
103 109 119
102 109 120
102 110 121
100 109 119
100 109 119
100 109 120
100 109 120
101 109 119
101 108 119
101 108 119
101 110 120
99 108 119
101 109 120
100 110 120
100 109 120
100 109 120
100 109 120
102 108 121
102 108 121
101 108 120
102 109 119
102 109 118
101 108 118
100 108 117
99 108 118
98 107 118
97 106 117
98 106 116
98 106 115
99 106 115
98 106 114
98 106 114
97 105 114
98 104 114
97 104 113
96 102 113
94 101 111
93 100 109
92 99 108
92 97 107
91 97 106
88 96 104
88 96 104
89 94 103
89 94 103
89 93 102
90 93 102
88 93 102
88 94 102
86 94 103
85 93 102
87 93 103
88 94 103
88 94 103
86 92 102
86 94 102
86 94 102
88 94 103
89 94 103
88 94 101
87 94 102
87 94 102
87 94 103
85 95 102
86 95 102
87 94 102
87 94 102
87 94 102
87 94 103
87 94 103
88 95 103
87 95 103
87 96 103
86 95 103
88 95 104
88 96 105
88 96 104
88 97 105
87 97 105
87 96 104
89 96 104
90 96 105
90 96 105
89 95 105
88 96 105
88 96 105
88 95 105
88 96 106
89 95 105
91 96 105
90 96 104
89 95 104
87 95 103
87 95 103
88 95 103
86 95 103
85 94 103
86 93 103
85 93 102
85 94 102
85 93 102
86 93 101
86 92 101
85 91 100
85 91 99
85 91 99
85 90 99
85 89 98
86 89 100
83 90 99
83 90 99
82 89 97
83 89 97
83 89 97
82 89 97
82 89 98
80 88 97
81 88 97
82 88 97
81 87 96
81 87 96
81 87 96
81 87 96
81 88 96
81 87 96
81 87 96
80 86 95
81 87 96
80 87 95
81 87 96
80 86 94
79 86 95
78 85 94
79 85 94
79 84 92
77 82 91
72 80 89
143 159 179
143 161 181
144 164 182
144 166 183
144 167 183
145 169 185
147 167 186
147 168 188
149 170 190
150 172 190
149 172 189
149 175 190
150 174 190
152 175 191
153 175 191
151 176 194
152 177 193
152 180 195
154 182 196
155 180 198
158 180 201
156 181 202
156 186 203
155 184 202
159 185 203
161 188 205
159 189 204
159 191 206
159 192 207
159 193 209
162 193 211
164 194 211
162 192 207
164 193 209
162 191 209
162 192 209
161 193 210
163 193 212
164 194 214
163 196 215
164 197 218
166 199 220
166 199 221
167 201 224
165 201 223
165 202 225
166 202 225
167 202 223
170 201 223
171 200 225
168 199 225
167 201 227
168 202 227
168 202 226
168 202 226
168 205 228
167 204 227
167 205 228
168 205 229
167 207 231
169 205 229
170 204 228
170 206 227
168 207 229
167 205 228
168 207 233
168 207 232
170 206 230
172 206 230
169 207 233
169 206 229
169 206 229
172 209 230
169 207 227
169 209 230
170 209 236
170 207 235
169 206 232
170 207 234
173 207 236
173 207 235
172 208 236
172 208 235
172 207 234
174 208 234
175 210 238
172 208 236
173 209 237
171 210 236
171 210 236
171 210 238
174 212 235
175 209 233
175 211 238
174 210 237
175 209 240
177 211 241
176 211 239
176 211 240
176 210 240
177 213 242
173 212 241
173 213 240
174 214 240
176 213 243
177 213 243
175 213 242
175 213 242
175 213 242
177 215 244
176 213 241
178 213 241
180 215 243
176 215 242
176 216 242
174 215 242
178 216 245
177 215 244
179 215 244
178 213 242
180 216 244
180 217 243
179 218 244
176 217 243
179 217 243
181 217 244
181 217 243
180 216 242
181 220 245
180 219 245
180 220 245
178 220 245
181 220 247
180 220 248
180 219 247
183 220 249
180 221 249
180 221 249
183 220 249
183 221 247
184 223 249
183 222 249
181 221 247
180 222 246
184 224 249
185 223 248
185 223 248
184 224 250
186 223 252
184 221 250
183 222 249
186 223 250
184 222 251
182 223 250
183 225 252
184 223 252
183 222 250
181 223 245
183 224 249
185 224 252
186 223 251
186 223 249
185 223 249
183 225 248
182 224 246
182 222 249
185 223 251
186 225 251
184 223 248
187 224 252
183 222 250
184 224 253
187 225 251
185 223 248
184 226 250
184 224 249
187 222 249
188 222 248
186 224 248
184 222 248
183 225 250
181 226 251
182 224 251
185 222 253
185 221 251
186 224 249
184 227 250
183 225 250
185 224 250
187 223 252
186 223 251
186 224 250
187 225 251
186 223 248
186 225 250
185 225 252
184 225 252
185 225 250
187 225 253
186 225 252
186 224 252
188 226 250
189 226 250
189 225 247
189 226 250
186 227 250
186 227 250
187 230 254
186 228 254
187 228 255
187 226 254
189 227 255
188 227 255
189 227 255
191 229 255
188 227 253
188 226 251
190 228 253
190 228 254
188 227 253
190 228 253
190 227 253
192 230 255
189 229 253
187 229 254
187 228 254
187 229 255
187 227 253
190 229 253
190 229 254
192 230 255
188 229 255
187 229 255
190 230 255
191 228 255
194 231 255
193 230 255
191 230 255
192 229 255
192 230 255
191 229 255
190 230 255
189 232 255
191 231 255
192 229 255
191 229 255
192 229 255
191 229 252
190 227 250
194 229 253
192 230 254
188 231 254
188 231 253
189 230 254
192 230 254
191 227 251
191 228 252
190 229 252
187 231 252
187 231 251
190 232 253
191 228 251
192 230 253
191 230 252
192 230 254
190 228 251
192 228 251
190 228 247
189 228 247
191 227 247
192 229 246
195 232 249
195 231 247
196 228 246
197 229 249
196 229 248
196 228 245
199 226 244
204 227 245
205 226 243
205 227 244
203 229 242
204 229 242
204 229 240
204 227 236
205 227 234
207 227 238
206 228 241
202 227 240
198 227 237
199 225 237
202 228 241
201 226 239
201 224 238
201 228 242
199 226 238
203 227 241
204 228 240
205 225 238
207 224 238
211 227 240
208 226 239
208 226 238
208 226 238
208 227 239
207 227 238
202 226 237
198 223 236
195 224 238
195 221 235
199 221 236
195 219 232
193 216 231
192 217 230
191 215 228
193 217 232
191 216 232
190 219 233
188 218 231
189 218 234
189 216 232
188 216 233
187 218 234
186 217 235
189 219 237
186 217 235
185 211 227
186 212 227
185 210 224
187 209 224
187 210 222
184 207 216
182 204 212
184 202 212
180 200 211
177 198 210
176 194 205
176 193 202
172 192 199
171 188 197
172 188 197
170 187 195
169 186 193
168 184 191
167 183 189
166 183 190
169 183 192
170 183 193
170 184 193
170 183 193
171 184 196
170 186 196
169 186 194
170 187 195
168 185 195
171 187 198
173 187 199
173 186 199
170 186 197
170 186 195
171 186 195
172 188 197
172 186 196
175 186 196
176 184 195
177 188 198
178 190 198
175 191 198
177 192 198
175 189 195
173 186 193
173 184 193
175 184 194
174 184 194
174 182 191
171 179 186
172 178 185
170 178 186
171 178 188
174 178 189
175 178 187
175 180 185
176 182 186
177 182 187
178 182 188
180 182 187
180 182 187
176 179 183
176 179 183
174 177 182
174 177 181
174 175 183
174 174 184
170 172 181
166 168 175
162 167 175
161 166 174
159 164 171
157 162 169
155 159 167
153 158 166
152 155 163
151 155 162
148 154 160
147 153 160
147 152 159
145 150 158
146 150 157
145 150 158
143 147 156
142 148 156
140 148 156
138 146 154
138 145 153
138 143 150
137 142 150
134 140 148
133 138 146
132 137 144
130 137 143
129 136 143
129 135 143
130 134 142
130 134 141
129 134 142
128 136 143
126 135 142
128 135 142
127 134 141
128 134 142
127 134 142
127 136 143
126 134 142
126 133 142
126 133 142
125 132 141
126 132 142
123 132 141
122 132 141
122 130 141
122 130 141
121 130 140
120 128 138
120 128 137
120 127 137
119 128 137
118 129 137
118 129 137
119 128 136
120 128 136
119 128 137
119 128 137
118 127 136
119 127 136
118 127 135
118 127 135
118 125 135
118 125 134
119 125 134
119 125 135
118 124 134
118 125 133
117 124 132
117 124 132
117 123 132
117 122 132
117 123 132
116 123 130
116 122 129
116 122 129
116 122 129
116 123 130
114 123 129
114 123 129
114 122 129
114 121 128
116 122 129
115 122 129
114 123 130
115 122 128
117 122 130
115 121 130
116 121 130
115 122 130
114 121 130
115 121 131
114 121 130
115 123 130
113 122 129
114 122 129
115 121 128
116 122 131
114 121 130
113 121 128
115 122 129
116 122 129
114 121 128
114 120 129
115 121 129
114 120 129
113 119 126
111 118 125
111 117 124
111 116 125
112 116 125
111 116 125
110 116 124
108 115 124
109 114 124
108 114 123
108 114 122
107 113 122
108 113 121
107 112 120
105 110 119
105 109 117
103 109 116
102 109 117
103 108 116
104 108 116
103 108 116
102 108 115
102 108 114
103 108 116
104 109 117
103 107 115
102 107 115
102 108 116
102 108 118
102 108 117
103 109 117
103 108 116
103 108 116
102 108 116
104 109 117
103 108 116
103 108 116
102 109 116
102 109 116
102 108 117
104 109 119
103 108 117
103 108 118
103 109 117
103 110 118
102 109 117
101 109 117
103 109 117
104 109 117
104 108 117
103 107 118
103 108 117
103 108 117
104 109 119
103 109 119
103 110 119
102 109 119
103 109 120
102 110 119
103 109 119
103 109 120
102 110 120
101 110 120
101 110 121
101 111 120
101 110 119
101 111 120
101 111 121
100 110 120
101 111 122
101 111 122
101 110 121
100 110 121
102 110 121
103 110 121
102 110 121
101 109 120
102 109 120
102 109 120
101 109 120
100 108 120
100 109 121
99 108 120
102 109 120
101 109 119
100 109 119
100 108 119
101 109 120
100 109 120
101 110 120
101 109 119
100 109 120
100 110 121
100 109 120
101 109 120
102 108 119
101 108 119
100 108 120
101 108 120
99 107 118
99 106 117
98 106 117
99 106 118
97 106 116
98 106 116
97 106 115
99 106 116
99 105 116
97 105 116
97 105 114
95 104 113
94 103 112
94 101 111
94 101 110
92 100 108
91 98 106
90 96 106
89 95 104
89 95 105
89 94 103
90 95 103
90 94 103
89 94 103
88 94 103
88 94 103
87 94 102
88 94 103
88 94 103
87 94 103
87 93 102
87 93 101
88 93 101
88 94 102
86 93 101
87 94 102
88 94 103
88 93 102
88 94 103
87 94 103
85 95 103
86 95 103
87 95 104
86 94 103
86 94 102
87 94 102
87 95 103
87 94 103
87 95 104
86 96 103
87 97 104
85 95 103
86 96 104
87 96 104
86 96 104
88 96 104
89 96 105
88 95 105
89 96 106
88 96 105
88 95 105
89 96 105
88 95 104
87 95 103
87 96 104
88 96 104
90 97 105
88 95 103
88 96 104
87 95 104
86 94 104
86 94 103
85 95 104
85 94 103
86 94 104
85 93 102
86 92 102
86 92 101
85 92 100
84 92 100
84 91 100
85 91 101
84 91 100
83 91 100
83 91 99
82 90 98
83 90 99
83 89 99
82 89 98
81 90 98
82 89 98
83 88 98
83 89 97
82 88 96
83 88 96
83 87 97
83 87 98
81 87 98
81 87 97
80 88 97
81 87 96
81 87 96
81 87 96
81 87 96
81 87 96
80 86 95
81 87 95
81 86 95
80 85 95
80 86 95
79 85 93
78 84 92
77 82 90
73 81 88
143 161 182
144 163 181
144 166 181
146 166 183
147 166 184
147 167 185
146 170 188
146 170 188
147 170 188
150 173 191
148 173 190
150 176 191
152 175 193
152 174 191
153 175 192
152 175 194
153 176 194
154 179 195
154 179 196
156 180 197
158 180 199
159 182 200
155 184 200
155 188 202
157 186 203
159 186 204
157 187 204
156 187 202
157 190 205
158 191 207
160 190 206
162 190 207
162 190 206
161 189 205
160 189 205
158 190 206
158 190 205
159 191 209
162 193 212
166 195 214
165 195 216
165 198 218
166 199 221
166 199 222
167 201 223
166 202 224
164 201 222
166 203 225
168 202 224
168 201 223
168 200 224
168 203 228
168 202 225
168 203 226
168 202 226
165 202 225
165 204 226
165 203 227
165 204 227
166 206 229
167 204 227
168 205 229
168 206 228
169 204 228
169 207 231
167 206 229
169 205 230
172 204 230
170 206 230
167 206 230
168 206 229
169 208 229
169 208 228
170 208 228
172 205 229
174 204 231
173 206 231
172 207 235
170 207 232
173 206 233
173 206 232
173 209 234
173 208 234
174 208 233
173 208 232
173 209 234
170 208 233
171 211 236
172 212 238
171 210 239
175 210 239
175 210 233
176 210 232
175 210 237
174 211 239
174 210 239
176 210 236
174 213 236
176 213 237
177 212 239
177 211 239
174 210 236
175 213 239
175 215 241
174 213 241
175 213 241
176 213 242
177 214 244
176 212 241
175 214 244
176 216 244
176 215 243
175 214 244
176 216 245
178 217 244
179 216 247
178 213 243
179 216 244
179 216 243
180 216 245
179 215 243
179 217 245
178 217 247
179 216 246
182 218 248
180 219 247
181 218 246
179 219 245
178 220 247
178 220 247
180 219 249
182 219 250
183 219 249
182 218 249
182 218 249
181 220 250
180 221 252
180 220 252
181 220 251
180 222 250
183 223 248
185 222 251
183 222 251
183 226 251
181 222 247
184 224 251
186 223 251
185 222 252
183 222 250
182 224 251
182 223 250
183 222 250
181 222 248
183 224 249
185 223 247
184 221 247
184 221 247
183 224 249
180 224 251
182 223 254
186 223 253
186 223 250
187 220 249
185 222 248
185 224 250
186 224 246
186 223 251
182 222 249
183 222 249
185 223 251
185 222 253
184 223 252
186 224 250
185 223 248
185 224 249
184 225 250
184 225 250
185 223 249
185 224 250
183 224 248
183 225 247
183 225 251
184 224 253
184 223 253
182 221 251
183 224 251
184 222 251
185 223 249
184 225 249
183 224 248
185 225 250
186 223 248
186 223 248
183 224 247
186 226 250
184 226 251
184 226 252
185 227 255
186 224 254
186 224 255
185 226 254
186 227 255
187 226 252
187 223 250
188 227 252
188 228 252
188 226 253
187 225 253
188 225 253
189 227 254
190 228 253
188 228 254
188 227 255
188 227 255
189 227 255
190 228 254
190 229 254
189 229 255
187 227 254
190 229 255
190 229 255
191 229 255
187 230 252
188 230 254
189 229 255
189 228 255
191 228 255
190 226 252
190 228 253
192 230 255
190 229 255
189 232 255
188 231 255
189 233 255
189 231 255
193 231 254
192 230 254
190 232 255
189 233 255
190 231 254
191 230 255
188 231 255
187 231 255
189 234 255
191 229 255
191 232 255
191 230 253
192 231 253
192 230 253
193 232 255
189 232 255
192 231 255
192 231 255
191 229 253
189 229 253
190 231 253
192 231 254
187 229 251
186 230 249
186 229 248
189 231 249
190 228 248
188 229 251
189 228 252
189 230 253
189 228 250
191 230 253
194 230 249
194 230 250
194 229 248
196 230 247
197 228 246
198 229 246
201 228 245
200 229 244
198 230 243
199 229 242
204 228 243
206 230 245
205 227 243
204 226 241
204 225 239
205 226 241
204 227 241
204 227 239
205 227 238
206 226 239
202 225 237
200 227 239
201 227 235
202 225 236
203 223 237
202 224 239
200 225 239
201 225 239
202 227 239
201 229 241
201 227 241
203 228 240
203 227 237
207 229 240
207 232 240
209 229 240
211 227 240
210 227 240
210 230 242
205 229 240
200 224 240
194 221 236
194 219 232
195 218 231
194 217 231
190 218 230
190 218 227
190 218 227
190 219 228
190 219 230
186 218 231
186 217 232
187 219 235
188 217 235
190 218 238
190 217 236
190 219 236
185 217 235
186 216 235
187 214 232
187 214 231
185 213 227
184 212 226
181 208 221
182 208 221
184 204 218
182 201 212
181 201 213
178 199 210
177 198 209
174 194 203
172 191 199
170 189 195
174 187 195
173 185 192
170 185 192
168 184 191
167 182 189
168 182 191
172 182 192
172 183 193
173 185 194
173 185 193
171 184 191
169 186 194
169 188 196
169 189 197
169 190 197
170 190 197
172 189 198
173 189 200
172 188 198
172 188 197
174 189 199
175 190 201
176 190 200
177 190 200
175 191 200
177 192 202
181 194 204
177 193 200
174 192 197
173 190 196
174 186 194
175 186 195
176 186 196
176 186 196
176 183 194
175 183 192
174 182 191
173 182 190
175 182 193
178 183 193
178 184 192
176 183 190
180 187 192
181 186 192
182 187 195
180 184 190
180 185 190
179 183 188
179 181 187
179 182 187
178 182 187
175 181 187
174 178 186
171 175 182
169 173 179
167 172 179
162 172 178
161 170 176
160 166 173
158 162 171
156 161 170
154 158 167
153 158 167
148 156 163
147 156 164
146 154 162
146 153 161
145 153 161
144 151 159
144 151 160
143 150 158
143 150 158
142 147 156
139 146 155
138 145 153
137 144 152
135 141 150
135 140 148
133 139 146
131 139 145
130 137 144
131 136 145
130 134 142
130 135 142
129 134 142
127 135 140
125 135 139
129 135 142
129 134 143
128 135 143
126 136 143
125 136 143
125 136 144
125 135 143
125 135 143
125 134 142
125 133 143
124 133 142
123 133 143
123 131 141
123 131 141
121 130 139
122 131 139
121 130 137
122 129 136
120 130 137
119 129 136
119 128 136
121 128 137
119 128 136
118 127 135
120 128 137
118 127 137
120 128 138
120 128 136
119 126 136
119 126 135
119 126 136
118 126 134
118 127 134
117 126 133
117 126 134
117 125 134
118 124 133
116 124 132
117 123 132
118 124 133
116 123 132
115 122 131
116 123 131
116 122 130
116 122 130
117 123 132
114 122 130
114 123 130
114 123 129
116 123 130
114 120 128
115 121 130
117 122 131
115 122 131
115 122 132
116 121 131
113 122 129
113 123 131
113 122 131
113 122 132
112 122 130
112 122 130
115 122 130
116 122 131
116 121 129
113 121 129
115 123 130
116 121 128
116 122 129
114 122 130
115 121 130
114 119 128
114 120 127
113 120 126
113 118 126
113 118 128
112 117 125
111 116 123
112 116 125
111 116 125
109 115 123
109 116 124
109 115 122
108 114 122
107 113 123
107 111 121
107 112 120
107 110 119
107 109 119
104 109 116
103 109 117
103 108 116
104 108 116
104 108 117
103 108 116
102 109 116
103 108 116
103 108 115
103 107 116
103 108 118
104 108 118
103 108 117
102 109 117
101 108 116
102 109 117
101 110 117
101 109 117
102 108 116
101 109 116
101 110 116
103 110 117
101 109 117
102 109 116
103 110 117
102 109 116
102 109 117
102 109 117
102 109 117
102 109 118
101 109 117
102 109 118
101 109 117
102 109 118
104 109 119
103 108 117
103 108 116
104 108 118
103 110 120
102 110 119
102 109 119
102 109 118
103 110 118
102 109 116
102 109 118
103 110 120
103 109 120
102 109 119
103 109 120
103 109 120
102 110 121
102 110 120
101 111 120
100 110 120
101 110 120
99 108 117
101 110 120
103 109 120
103 109 120
102 108 120
102 110 120
102 109 119
102 109 119
102 108 120
101 108 120
100 108 119
101 109 118
102 109 119
102 109 118
101 109 119
101 109 120
101 108 121
102 109 122
101 109 120
101 110 120
100 110 120
100 110 121
101 108 119
102 109 120
101 108 119
100 107 120
100 108 121
99 109 118
98 108 117
99 107 118
99 107 118
100 105 116
99 106 117
98 106 116
98 105 116
99 106 117
98 104 116
98 105 115
97 105 114
96 105 114
94 102 113
93 102 112
94 101 110
93 99 107
92 98 106
92 96 105
90 96 105
88 94 103
89 95 102
89 94 102
89 95 102
88 95 103
87 94 103
87 95 102
88 95 102
88 94 102
87 94 102
87 94 102
88 94 102
87 93 102
87 93 101
87 93 101
87 93 102
86 93 102
87 94 103
85 93 102
86 94 102
87 94 103
88 94 104
87 94 104
87 94 103
87 93 102
88 94 103
87 94 102
86 94 102
86 94 103
86 94 103
87 95 103
86 94 103
86 95 103
86 96 103
86 95 103
87 95 104
87 96 104
89 96 105
87 96 105
87 96 105
87 96 105
88 97 106
87 96 105
88 96 106
87 96 105
87 95 103
87 96 104
87 95 104
87 95 104
88 96 105
87 95 104
87 94 104
86 94 104
86 95 105
85 94 103
84 93 103
86 93 103
85 92 102
85 92 102
85 92 101
85 92 101
84 91 100
85 91 100
85 91 100
83 91 99
84 91 99
82 90 98
82 90 97
83 90 98
83 90 98
82 89 97
81 88 97
83 89 98
82 88 96
82 88 97
82 88 97
82 88 97
82 88 96
82 88 96
82 87 96
82 89 97
81 87 96
81 87 96
82 88 96
80 87 95
81 87 95
81 86 95
81 86 96
82 86 96
81 86 96
80 85 94
77 86 93
76 85 92
76 83 91
72 81 89
142 162 180
144 164 181
145 166 182
143 168 183
144 168 184
148 169 186
149 167 186
148 170 189
147 171 189
149 174 191
149 173 189
150 173 189
151 173 191
150 175 194
150 176 194
152 175 194
153 175 193
154 176 193
153 180 195
153 180 195
154 180 196
156 181 198
154 183 199
154 186 200
156 187 202
157 186 201
154 184 203
155 186 203
155 187 202
157 186 202
159 185 203
162 186 202
161 186 203
158 186 203
156 190 205
157 190 204
161 189 205
161 188 206
162 189 206
164 194 210
163 194 212
164 195 214
167 198 219
168 199 222
167 200 222
167 201 223
166 201 224
167 201 224
167 201 224
167 201 224
168 203 224
166 204 224
164 202 225
167 204 227
168 202 225
170 204 227
168 202 227
168 205 231
165 204 227
166 204 228
171 206 228
170 205 227
170 203 226
171 205 229
167 204 226
167 206 232
167 205 229
167 207 228
168 207 230
168 207 231
167 206 229
168 208 232
169 207 232
171 205 230
171 205 229
172 208 232
170 208 231
169 207 231
167 207 232
170 208 234
173 209 232
172 207 232
173 208 236
172 206 233
172 207 235
170 210 237
172 209 235
174 209 236
175 207 237
172 209 238
170 210 235
175 211 237
174 210 237
172 210 236
173 209 237
174 209 236
177 211 239
176 210 237
177 211 238
176 212 236
174 212 237
174 214 238
174 214 238
177 214 239
177 213 237
177 213 238
177 213 240
177 214 240
177 215 243
178 217 244
177 216 241
177 215 242
177 215 242
176 216 241
178 216 243
179 214 241
180 216 243
179 215 240
179 216 244
178 219 246
178 216 241
180 216 243
180 215 244
181 218 247
181 216 245
182 218 245
179 219 245
178 219 246
177 218 247
180 218 247
182 219 249
182 219 250
182 218 247
183 218 247
184 221 249
183 219 248
183 219 249
184 220 251
185 223 253
183 222 252
181 224 254
180 222 251
181 223 251
183 223 251
182 221 250
184 221 247
184 221 248
181 224 249
182 222 251
181 222 250
179 225 249
179 224 251
182 225 253
182 225 253
181 224 250
182 224 248
184 221 249
186 224 252
184 222 250
185 223 248
185 222 246
185 223 248
185 224 251
182 224 249
182 224 248
184 222 249
186 222 249
186 222 250
181 222 248
183 225 251
184 223 251
184 223 251
186 223 248
189 222 249
186 221 248
182 223 246
184 227 250
183 225 249
185 222 248
187 222 249
186 224 251
186 224 250
183 222 247
184 223 247
182 224 248
183 223 247
186 223 252
184 221 249
183 224 248
183 226 245
183 226 246
184 227 246
183 224 246
184 224 246
185 227 251
184 225 251
184 225 251
184 225 251
188 224 250
191 224 250
187 222 248
187 226 250
186 226 253
187 227 253
188 226 253
190 227 254
188 226 252
189 230 255
187 226 251
190 227 251
188 227 251
190 228 253
189 228 255
187 229 255
187 230 255
187 231 254
188 229 255
187 230 255
188 230 252
190 227 252
192 226 254
189 228 255
186 228 255
186 228 255
187 229 254
191 229 255
191 229 255
191 230 255
191 229 255
190 229 255
191 231 254
192 230 254
191 227 254
192 230 252
192 231 254
189 233 255
189 233 255
188 234 255
191 233 255
190 230 255
192 230 255
193 233 255
192 233 255
191 233 255
191 233 255
191 232 255
191 231 255
191 231 255
193 233 255
190 230 255
192 231 255
189 231 255
189 231 254
190 232 254
190 229 255
190 228 254
191 229 254
190 230 254
190 231 252
188 231 249
187 230 248
190 231 252
190 230 251
192 230 253
192 230 252
193 231 250
193 228 248
193 226 248
196 226 249
194 228 251
195 228 250
197 228 247
197 230 246
200 229 243
199 230 246
197 232 248
199 231 248
203 227 243
202 225 242
202 226 242
203 228 242
202 227 237
202 226 237
207 228 241
206 225 238
207 227 242
204 224 239
203 225 239
201 225 237
201 226 237
200 226 236
199 226 238
197 225 242
197 224 240
200 226 242
202 227 244
202 227 241
200 229 239
199 229 239
200 228 242
202 230 241
205 230 240
208 228 240
206 227 238
205 227 238
203 226 237
201 228 239
199 224 237
195 221 234
191 216 229
190 213 226
193 214 228
190 216 228
186 216 226
188 217 227
187 215 225
188 215 227
188 216 228
187 217 231
187 218 233
189 218 235
192 219 238
190 219 239
188 218 237
186 218 238
187 217 237
188 216 234
186 215 229
184 214 226
184 213 226
183 210 223
181 208 221
181 205 218
180 203 215
177 199 210
178 200 209
175 199 207
175 197 205
175 193 202
173 188 200
173 186 198
170 187 197
167 184 192
169 185 192
169 183 192
169 181 192
170 182 192
173 186 195
169 185 194
171 187 195
172 185 195
171 186 195
170 189 198
169 189 197
171 187 196
172 187 198
173 188 199
172 187 198
173 188 199
173 190 201
174 191 201
174 191 201
176 190 201
176 191 202
174 194 203
173 194 200
177 194 201
176 192 200
176 192 201
175 190 199
175 188 198
176 186 195
176 186 195
179 188 196
178 188 197
176 186 196
176 185 196
176 187 197
177 187 197
179 189 200
180 190 199
183 190 198
184 190 199
182 189 200
183 190 200
182 191 202
179 187 196
180 186 192
181 186 192
180 185 192
182 185 192
178 183 191
175 180 188
173 179 186
173 178 188
169 175 185
167 174 183
166 173 182
163 170 177
160 167 173
158 165 171
155 163 171
153 161 169
151 159 165
150 156 164
150 155 164
149 154 163
150 154 162
149 154 161
148 152 161
146 152 163
144 151 161
142 149 159
140 149 158
138 147 155
138 146 155
137 143 154
135 142 152
135 140 150
133 139 147
131 138 145
130 137 145
131 136 143
128 135 142
128 135 143
129 136 143
129 136 144
126 134 143
127 136 143
127 136 143
127 136 143
125 136 143
125 136 143
126 136 144
125 134 143
125 134 143
124 133 143
124 133 143
122 133 141
122 133 141
122 132 141
122 132 140
122 131 140
122 129 138
121 128 136
121 129 137
120 129 137
120 129 137
122 128 139
120 128 137
119 129 137
118 128 137
118 128 137
118 129 136
118 128 137
118 127 136
118 128 135
119 128 135
119 127 135
118 128 135
117 126 135
118 126 134
117 126 132
116 125 132
115 125 133
117 125 134
116 123 132
115 123 132
115 124 130
115 124 130
115 124 132
116 122 132
117 121 131
116 123 131
116 123 130
116 122 131
115 122 131
114 122 131
114 122 131
115 124 132
115 121 130
115 121 130
115 122 131
113 122 131
112 122 130
113 122 130
115 124 132
113 122 130
113 123 131
113 122 130
115 123 130
114 122 128
114 123 129
114 122 129
115 123 131
114 121 130
114 121 130
114 122 130
113 120 128
113 121 129
113 119 127
113 118 128
113 117 128
110 116 124
111 116 125
111 116 125
111 115 124
110 115 125
111 115 125
109 115 123
108 114 122
108 113 121
108 111 121
107 111 120
106 111 120
104 110 117
103 109 117
103 109 117
103 109 116
103 108 116
103 108 116
103 107 116
104 107 117
104 109 116
103 109 116
103 108 116
104 108 117
104 108 118
103 108 117
102 108 116
102 108 116
103 108 117
102 108 116
103 109 116
103 108 116
102 108 117
103 108 117
103 108 116
103 110 118
102 109 117
102 109 117
103 108 117
103 108 117
103 109 117
102 109 117
102 109 117
102 109 117
103 109 117
102 109 116
101 108 117
102 108 119
102 109 120
102 109 119
102 109 118
104 109 118
103 108 118
103 109 118
102 109 118
103 109 118
103 109 119
102 109 119
102 109 119
104 109 120
102 110 119
101 110 120
101 109 120
100 109 119
99 110 120
101 112 120
100 110 119
101 110 119
100 110 119
101 110 119
101 109 118
101 110 119
101 110 120
102 109 121
102 109 120
101 108 118
100 110 119
101 110 121
100 109 120
101 108 119
103 108 119
103 109 119
99 109 118
99 110 120
99 109 119
101 109 121
101 109 120
101 110 121
101 110 121
100 110 120
100 110 120
99 109 120
100 108 120
100 108 121
99 108 120
99 109 120
99 107 119
99 108 119
100 107 120
99 106 117
97 106 116
98 107 117
98 105 116
98 106 116
97 106 115
97 106 114
96 105 116
96 104 115
95 103 114
94 102 112
93 100 110
93 99 109
93 98 107
91 96 106
89 95 105
88 94 104
88 95 104
89 94 103
89 94 102
89 95 103
87 93 101
89 94 102
90 94 102
88 95 102
86 94 101
87 94 102
87 94 103
86 93 101
87 93 102
88 94 102
87 93 102
87 94 102
87 94 102
86 94 103
86 95 103
87 94 103
87 94 104
87 94 104
87 95 103
87 94 102
87 94 102
88 93 103
88 94 104
88 93 104
87 94 103
86 94 102
87 93 103
87 93 103
87 95 104
87 94 104
87 94 103
87 95 104
88 95 104
87 94 104
87 95 105
87 96 105
86 96 104
85 96 104
87 97 105
87 94 104
89 95 105
88 95 104
88 95 104
87 94 104
87 95 103
86 96 103
87 95 104
87 93 103
86 95 104
84 93 102
86 93 102
86 93 101
86 92 101
85 90 101
85 91 101
86 92 100
85 91 100
83 91 99
84 91 99
85 90 100
85 89 100
83 90 99
81 90 98
82 90 99
83 90 98
82 89 97
83 89 98
82 89 98
82 89 98
82 89 97
82 89 97
83 89 98
82 87 97
81 88 96
81 88 96
81 88 96
80 87 97
80 88 97
81 87 96
80 87 96
82 87 96
83 86 96
81 86 95
80 87 95
77 87 94
77 87 94
78 85 93
78 84 92
77 82 91
72 80 88
145 164 182
145 164 182
144 167 185
143 167 184
143 168 186
147 168 185
149 170 187
149 171 189
151 173 191
150 174 190
151 174 190
151 173 190
151 173 192
151 175 194
150 175 194
150 176 194
152 178 194
152 177 192
151 179 194
148 179 194
152 179 196
156 180 198
154 181 198
152 183 199
156 185 200
155 182 198
153 184 200
153 184 199
154 182 198
155 181 199
160 182 201
157 184 200
158 185 202
158 186 203
158 188 206
159 189 204
162 188 203
163 188 204
163 191 207
160 189 205
161 192 209
164 195 212
164 198 215
165 199 217
167 200 221
169 199 222
167 199 222
167 201 221
169 203 223
169 202 221
165 199 220
164 201 222
167 205 227
166 204 228
165 204 229
167 204 227
169 203 228
169 204 227
169 202 226
169 204 229
169 201 226
169 207 229
167 206 229
168 207 230
171 205 230
170 204 229
170 206 229
171 207 229
169 206 228
168 207 231
168 207 231
169 207 231
169 206 232
168 205 232
169 208 235
169 208 235
170 207 233
173 208 232
174 208 236
173 207 232
170 207 230
172 208 232
173 207 233
170 209 233
171 210 234
170 209 234
170 209 235
174 209 235
174 209 236
174 209 237
174 210 240
173 208 237
175 209 238
174 211 240
173 212 238
175 212 239
176 209 236
177 212 237
174 212 238
177 212 241
175 212 242
175 215 244
173 213 240
175 214 243
176 214 241
176 213 241
178 214 242
178 213 241
178 214 242
179 215 243
179 215 243
178 214 243
179 214 242
179 215 243
182 216 244
179 215 243
180 216 242
181 217 243
179 214 242
179 216 245
178 217 245
178 216 243
180 216 243
182 217 245
180 217 245
181 217 244
182 219 246
182 218 248
182 219 248
181 216 246
182 219 249
182 221 249
181 221 249
185 222 248
184 220 247
183 223 249
181 224 251
181 225 253
180 224 250
180 225 250
181 224 251
183 226 254
185 225 253
185 223 250
185 223 251
184 223 249
185 225 251
183 223 251
187 225 254
187 224 252
185 224 249
182 226 251
182 226 252
182 225 251
184 225 251
186 223 252
187 224 253
187 224 252
184 224 250
184 224 250
186 223 251
186 222 251
185 223 251
183 226 252
184 225 251
186 225 252
187 225 251
187 224 250
186 224 247
187 225 250
187 225 250
185 223 250
186 225 250
185 223 249
186 225 251
185 224 251
183 223 252
183 222 251
187 224 251
185 223 248
184 222 246
182 224 246
185 225 248
187 224 247
187 224 248
187 224 249
187 224 251
187 224 250
187 223 248
185 224 247
187 224 247
185 225 251
186 228 254
186 227 255
184 227 255
185 223 255
187 224 254
187 226 252
187 226 252
189 226 252
192 225 254
191 225 251
190 227 252
189 227 252
188 226 253
190 227 255
188 229 255
191 230 255
190 228 254
188 229 251
187 231 252
187 231 253
189 233 255
188 232 255
189 232 255
189 232 255
190 231 255
188 230 254
188 230 254
186 229 254
189 232 255
189 232 254
188 232 255
187 230 254
193 232 255
192 230 255
190 228 252
190 228 253
191 231 255
189 232 255
189 232 255
194 236 255
195 236 255
195 235 255
194 235 254
193 236 255
193 235 255
194 235 255
197 236 255
197 237 255
198 238 255
194 236 255
194 236 255
196 235 255
196 234 255
196 235 255
197 233 255
196 234 255
194 235 255
193 236 255
196 236 255
195 236 255
194 236 255
194 234 255
197 236 255
196 235 255
194 233 255
194 233 255
195 234 255
192 236 255
193 238 255
192 234 255
195 234 255
195 235 255
193 233 253
194 233 253
198 234 254
198 235 255
197 234 255
197 232 255
201 234 255
203 235 253
204 233 253
204 236 253
199 234 251
198 233 251
202 232 251
203 232 253
201 230 251
203 232 250
202 230 244
206 233 247
206 230 245
208 229 245
209 230 244
208 230 244
206 227 241
207 227 242
205 228 244
204 229 243
202 229 242
199 228 243
199 229 247
198 229 246
200 233 249
200 229 247
203 229 246
202 228 240
206 233 244
204 233 247
206 233 246
211 232 246
210 232 247
203 229 242
201 231 244
203 231 244
203 229 244
200 227 242
195 223 236
192 221 233
193 222 235
191 220 232
190 219 232
192 219 234
193 216 233
191 216 231
190 216 231
191 215 227
192 218 231
193 221 237
192 220 237
191 223 240
192 225 244
192 223 243
190 221 242
187 220 241
187 219 237
189 219 234
185 218 229
183 216 228
184 213 226
191 220 231
191 217 227
188 212 220
187 209 221
184 206 217
185 207 217
183 204 213
182 202 211
180 198 207
182 197 206
182 196 203
178 194 201
180 193 202
179 190 199
182 192 203
180 194 203
178 195 204
178 197 205
179 198 206
182 196 206
183 195 205
182 196 202
181 197 203
181 199 207
182 199 211
183 198 210
183 200 211
183 202 213
185 203 214
185 203 215
185 203 214
185 202 213
187 200 214
187 202 215
186 202 214
188 202 214
188 202 213
186 199 209
187 197 210
187 197 208
187 197 207
186 199 208
186 200 207
187 200 207
189 202 209
186 203 210
184 202 211
187 206 215
188 206 217
189 206 220
195 209 223
196 207 222
198 210 224
195 208 220
191 207 220
191 205 217
191 203 213
193 203 214
191 202 213
191 199 211
191 197 207
188 194 204
186 191 202
184 191 202
182 191 202
179 190 200
175 187 197
174 183 193
172 181 191
168 179 187
168 177 185
168 176 185
165 171 181
164 169 180
164 169 180
161 166 176
159 166 175
157 165 174
156 164 173
154 163 172
153 161 169
150 158 167
148 156 167
145 153 164
144 153 162
142 150 158
140 148 156
137 144 152
136 144 150
135 141 149
133 140 148
133 140 148
133 138 147
132 138 146
131 137 145
130 137 144
130 138 146
129 138 145
129 138 146
127 137 145
135 147 156
134 147 154
135 147 154
135 147 154
135 145 155
135 144 156
136 144 155
135 142 152
135 142 152
133 142 152
132 141 151
131 140 150
131 140 150
128 140 150
127 142 150
126 140 148
127 141 148
129 140 149
129 139 148
129 139 149
128 138 147
129 139 148
126 137 147
127 137 147
129 138 149
128 137 147
127 137 147
127 138 147
128 137 147
127 135 146
127 135 145
128 135 145
127 134 144
127 135 146
125 133 145
125 135 145
125 134 143
125 134 142
123 134 142
121 133 141
123 135 143
123 134 143
122 134 140
123 133 140
124 132 141
124 132 141
123 132 142
123 132 142
123 132 140
124 132 140
123 131 140
123 132 142
124 131 142
123 132 141
123 131 140
124 132 141
124 131 141
124 130 141
123 131 141
124 132 140
124 133 140
124 133 140
123 131 140
123 132 143
123 133 142
122 132 140
123 130 140
124 130 140
124 131 140
123 130 139
123 128 138
121 127 136
122 127 137
121 126 135
120 124 135
121 124 136
121 124 136
119 124 135
118 123 132
115 122 131
115 121 130
113 119 129
111 117 126
109 115 123
108 114 122
107 112 120
105 111 118
104 110 118
104 110 117
105 110 118
104 109 117
104 110 118
104 110 117
103 110 117
103 110 117
104 111 118
104 110 118
103 109 117
104 110 117
104 110 118
115 120 130
113 119 128
114 120 129
111 120 128
110 120 129
112 119 128
112 120 129
113 120 129
112 118 129
112 118 129
112 120 129
111 119 128
112 120 129
111 120 129
112 120 129
112 119 130
113 119 130
113 119 128
113 119 129
112 120 129
113 120 128
113 121 129
112 120 128
112 120 130
112 120 129
112 119 130
111 119 129
111 119 128
111 119 129
111 119 129
110 119 129
110 119 130
111 120 130
111 119 129
112 120 130
111 121 130
110 120 130
109 121 131
110 120 130
111 120 130
111 120 131
110 121 131
110 120 131
110 120 131
110 119 131
112 119 131
111 119 132
111 120 131
112 120 132
111 120 130
111 119 131
111 119 132
110 119 132
110 119 132
110 121 133
111 120 133
111 120 133
111 120 133
111 121 133
110 121 132
110 121 132
109 121 131
111 122 133
111 120 133
111 119 132
111 120 132
110 120 132
109 119 131
109 119 131
109 119 131
110 117 131
110 117 130
109 116 130
109 116 129
109 117 129
107 117 128
108 117 128
107 115 126
107 115 124
105 114 124
104 111 121
102 109 119
98 105 115
96 104 113
95 101 110
93 100 110
90 98 107
90 97 105
90 96 104
88 95 104
89 95 104
89 95 104
87 95 103
87 95 103
88 96 103
88 94 102
89 95 103
87 94 103
87 94 102
87 94 102
97 104 113
97 105 113
96 104 114
96 104 114
97 105 115
97 105 115
97 105 115
98 105 116
97 106 116
96 106 116
97 106 115
97 105 114
98 105 116
99 105 117
97 103 115
97 103 116
98 105 116
97 104 114
97 105 114
96 105 114
95 105 113
96 105 114
97 105 115
98 106 116
98 105 115
98 105 115
98 106 116
98 107 117
96 105 116
96 106 115
96 107 116
96 107 116
98 106 116
100 105 116
98 104 116
97 104 116
97 106 116
97 106 115
96 105 115
95 105 116
95 104 115
96 104 116
95 103 113
96 103 114
96 102 114
95 102 113
95 102 112
96 100 110
96 101 112
94 100 111
93 100 110
94 101 111
93 100 111
91 99 109
91 100 110
91 100 110
91 99 109
92 99 109
91 98 108
90 98 108
90 98 108
91 98 108
90 98 107
90 98 108
91 98 108
89 96 106
88 97 106
88 98 106
88 97 105
88 97 105
89 97 106
88 96 105
90 97 106
91 96 106
89 96 104
89 96 104
87 95 104
87 94 103
87 93 102
84 91 99
83 90 98
77 85 94
161 182 203
159 179 200
158 179 198
158 178 200
156 177 199
156 179 198
158 182 199
156 181 198
157 181 199
157 183 203
158 185 204
157 184 202
159 183 202
158 184 203
158 185 204
157 185 203
159 186 204
160 184 202
142 164 179
137 163 177
140 165 178
141 165 179
141 166 180
142 167 181
140 166 180
140 165 180
142 166 182
141 166 182
140 166 181
142 166 183
142 166 182
141 164 179
144 167 183
143 167 184
145 168 184
146 170 186
146 172 186
148 173 188
149 171 187
151 174 190
148 174 191
147 174 192
150 178 196
151 179 197
155 182 201
156 182 202
154 182 201
155 184 202
153 183 201
153 183 201
153 185 207
152 183 206
153 185 206
153 185 205
152 185 206
152 184 206
155 185 208
155 187 206
155 188 208
156 186 208
155 187 208
154 187 207
156 190 210
156 187 211
156 186 208
153 188 208
151 189 211
152 190 213
153 190 211
154 190 211
155 188 210
156 187 211
158 188 212
155 188 210
156 191 213
154 190 211
156 188 208
157 189 209
154 188 209
154 188 210
154 189 212
156 191 214
156 189 213
157 189 212
154 189 210
155 191 214
155 191 215
155 190 213
156 191 216
155 190 215
156 190 214
157 191 214
159 191 215
160 190 216
158 192 215
156 191 213
159 194 215
158 191 213
161 193 219
160 194 219
158 194 219
158 194 221
160 195 222
160 197 222
159 195 221
160 197 221
161 196 222
163 198 225
162 197 224
161 196 222
162 198 223
164 199 224
165 198 225
167 197 225
167 198 224
166 199 224
167 201 225
166 200 225
170 207 233
169 207 232
169 208 233
170 208 235
169 207 231
172 207 233
172 207 233
170 207 234
170 209 234
172 208 235
173 207 233
173 207 233
172 207 231
174 209 232
173 209 232
174 209 235
176 212 238
173 211 237
172 213 240
170 212 239
170 210 237
174 214 239
172 214 236
171 211 233
172 210 233
171 213 237
169 211 233
172 213 236
173 210 235
174 210 239
172 208 235
171 211 237
172 206 234
173 209 233
174 209 233
176 211 233
175 210 235
173 208 235
173 207 234
174 209 235
173 212 237
171 211 234
171 210 233
170 210 233
173 211 235
171 210 234
173 212 239
173 210 236
173 209 236
171 208 233
172 209 233
173 211 233
169 211 233
171 214 236
170 213 236
170 212 236
172 209 234
174 211 238
174 211 236
172 211 236
172 210 237
172 210 237
171 210 236
173 210 234
176 209 233
173 209 233
170 207 232
173 211 238
171 209 233
171 209 230
173 211 233
173 209 231
172 209 232
172 210 233
170 210 233
172 212 238
173 212 238
176 212 238
175 209 234
174 212 237
172 211 238
174 212 240
176 211 239
177 211 236
178 211 237
180 211 237
180 212 242
177 211 239
178 212 239
177 212 238
178 213 237
176 213 237
177 217 239
177 219 238
178 217 238
180 215 239
180 216 241
180 216 241
181 219 244
180 216 241
184 221 248
185 223 247
183 222 245
184 223 245
181 221 245
184 225 250
183 223 248
181 221 243
183 223 245
185 225 247
183 224 246
185 224 249
184 223 248
185 222 248
185 223 249
186 225 248
184 224 248
185 223 249
187 224 250
185 223 245
185 225 246
189 224 246
186 223 245
185 225 247
186 226 248
184 221 245
186 222 245
184 223 245
185 224 246
183 223 247
183 220 247
185 222 249
183 220 247
182 219 244
183 221 244
182 222 243
182 222 243
183 222 245
182 220 243
183 220 242
184 220 239
183 221 239
181 221 239
182 218 237
182 219 239
181 218 238
182 220 240
181 219 238
179 218 237
182 219 239
184 221 238
186 222 241
185 219 237
187 217 237
189 219 237
187 220 235
185 221 236
187 221 237
189 217 236
190 217 237
190 218 238
192 219 237
192 218 235
192 216 231
194 217 232
197 216 230
197 216 228
194 215 225
194 217 227
188 217 226
187 218 227
188 216 228
188 215 228
189 215 231
188 215 233
187 214 229
189 216 232
190 216 232
189 216 231
188 216 228
190 219 229
189 218 229
191 217 229
192 216 231
189 218 233
186 218 231
185 213 230
187 214 232
185 213 233
182 212 228
181 210 223
181 207 222
179 203 219
179 203 216
182 204 218
179 201 215
181 205 217
180 203 214
180 202 212
179 202 212
183 208 218
183 211 224
184 214 229
184 216 231
183 216 233
184 216 234
183 213 233
182 213 230
182 214 228
183 211 225
179 207 221
180 205 220
180 205 218
181 204 217
181 201 212
178 197 208
176 194 205
173 190 200
172 189 198
174 189 199
171 186 196
167 183 191
168 181 188
168 178 187
166 178 186
165 177 185
164 176 184
164 177 184
166 176 185
169 179 189
169 179 187
168 179 186
167 180 187
165 179 187
166 179 189
166 179 187
165 180 187
162 181 188
164 182 189
167 181 191
169 182 192
171 186 195
170 187 195
169 186 195
169 186 197
171 187 198
171 187 197
174 187 200
173 184 196
172 181 190
171 180 188
172 181 188
171 179 188
169 180 189
168 180 189
170 183 192
172 184 191
171 184 191
169 185 193
170 188 196
171 188 197
172 190 202
174 195 207
173 194 206
176 196 207
176 195 206
177 196 206
173 193 202
173 191 203
176 192 202
175 190 199
176 187 198
174 185 195
173 182 192
172 181 190
170 179 188
167 177 186
164 175 184
163 175 184
162 171 181
159 166 175
157 164 174
155 164 174
157 165 172
155 163 170
152 163 172
149 159 169
148 156 166
148 155 165
147 155 164
145 152 162
146 153 164
142 151 160
139 151 159
140 151 157
140 149 156
138 145 154
137 144 154
133 142 152
132 140 149
133 139 147
132 138 146
131 139 146
129 137 144
129 136 143
127 134 142
127 134 143
127 133 140
127 133 140
127 133 140
126 132 139
126 133 140
126 133 141
124 132 141
124 133 142
124 133 142
122 133 141
121 131 138
123 132 141
123 131 142
121 131 142
119 129 138
121 129 137
120 128 136
119 128 136
117 127 135
117 127 136
117 127 136
117 126 135
118 126 134
117 126 133
117 126 133
116 127 134
114 125 133
115 124 133
116 125 133
116 125 133
114 124 132
114 124 132
115 124 132
114 124 132
112 122 131
113 122 132
115 122 132
113 121 130
113 122 130
112 123 131
112 122 130
113 121 129
111 120 128
111 120 129
111 119 129
112 118 128
111 119 128
110 119 128
110 120 126
111 120 127
112 119 127
111 117 126
112 118 128
110 118 126
110 118 126
109 119 126
108 119 126
108 118 126
110 119 127
109 118 126
107 118 126
109 118 127
110 117 125
111 117 126
110 116 126
109 118 126
109 117 125
109 117 125
109 117 125
110 118 126
110 116 124
109 115 125
110 115 126
110 115 125
110 116 125
109 115 124
108 114 123
110 115 124
109 114 122
110 115 123
108 114 121
108 114 123
107 114 122
107 114 121
107 114 121
105 113 120
106 112 120
106 111 120
104 110 118
104 109 117
103 108 116
101 108 115
101 107 115
100 107 115
102 108 116
102 107 114
104 108 116
101 106 114
100 107 115
102 107 115
102 108 115
102 107 115
101 108 115
101 108 115
101 107 115
101 108 116
101 107 115
102 107 116
101 106 114
103 107 117
100 106 115
101 108 115
101 108 115
102 108 117
102 107 116
102 108 116
100 107 115
100 107 115
100 108 117
99 108 117
99 108 117
99 108 117
100 107 116
100 108 116
99 107 114
100 108 115
100 107 115
100 107 116
101 107 117
100 107 117
100 108 116
100 108 117
100 108 116
100 107 116
100 107 116
99 107 116
101 107 116
100 106 115
100 107 116
100 108 117
100 107 116
100 108 117
98 107 116
100 107 116
101 107 116
99 107 116
99 107 117
100 108 119
100 108 117
100 108 119
99 107 118
99 107 117
101 108 119
100 106 117
100 106 117
101 108 119
100 106 119
100 107 119
98 107 118
98 107 118
99 107 119
99 107 119
98 107 118
99 108 119
98 108 119
97 108 118
99 108 118
99 108 118
100 108 118
100 107 119
100 107 118
99 108 119
97 107 117
99 107 118
99 106 119
97 106 117
97 107 118
98 106 118
99 107 118
99 107 116
98 107 115
97 107 117
96 106 117
96 104 115
97 105 114
96 105 113
95 104 113
93 102 111
92 101 109
91 99 108
90 98 107
88 97 106
87 95 104
88 95 104
88 95 103
89 94 104
88 94 104
89 94 103
89 94 103
87 93 102
87 94 103
87 93 103
88 94 103
86 94 102
86 93 102
87 94 102
87 93 101
86 93 101
87 93 102
87 93 103
86 93 103
85 94 103
84 94 102
85 95 103
85 95 103
87 95 104
86 94 104
86 94 103
87 94 103
88 93 103
86 93 103
87 94 103
87 94 103
87 93 102
87 93 101
86 94 102
86 94 102
87 94 103
87 94 103
87 93 103
87 94 103
87 94 103
87 94 103
87 95 104
87 96 105
86 94 104
87 95 104
85 95 104
86 94 104
87 95 104
88 94 104
88 94 104
89 94 104
87 93 104
87 94 103
86 93 103
85 93 103
85 92 103
87 92 103
86 92 102
86 92 102
84 92 101
84 91 100
85 91 101
85 90 101
84 90 101
84 90 100
84 90 100
85 90 99
84 90 99
82 89 98
83 90 98
83 89 97
83 89 98
82 89 98
82 89 98
82 88 96
83 89 97
82 87 96
83 89 97
83 89 97
82 89 96
82 89 97
81 87 96
80 88 96
80 88 96
80 87 96
80 87 96
81 87 96
80 87 95
80 87 95
81 87 94
81 87 95
79 86 93
79 86 93
77 84 91
76 82 90
71 79 87
147 164 182
145 165 183
147 166 184
148 165 186
150 167 189
149 170 188
149 171 188
149 174 189
148 174 189
149 175 191
149 174 190
151 177 193
150 176 191
150 176 194
151 176 194
149 175 193
151 177 195
153 178 196
153 175 194
153 179 196
152 178 194
151 181 196
156 183 199
153 180 195
151 181 195
151 181 196
154 180 196
156 181 197
154 181 197
153 182 197
155 183 198
155 182 197
158 182 197
159 181 198
158 181 198
157 182 198
158 185 201
162 187 205
164 190 206
163 191 207
162 191 206
163 193 212
165 194 214
167 195 216
167 196 216
168 198 218
167 198 218
165 198 220
169 200 222
168 201 221
169 201 223
170 199 223
169 202 224
170 204 226
169 202 226
170 204 228
170 204 228
169 204 226
168 204 225
169 204 226
169 204 226
169 205 229
170 206 231
169 205 230
170 203 230
169 207 230
167 207 233
167 207 233
169 207 234
170 206 228
170 204 228
172 205 229
173 207 230
171 205 230
172 206 233
170 208 231
167 206 231
173 209 231
170 208 232
170 209 235
169 208 237
170 208 235
170 209 234
172 206 234
169 208 234
170 209 236
171 210 236
173 209 233
171 210 236
173 208 237
176 210 240
174 211 236
175 210 236
175 210 237
175 210 237
174 212 235
173 214 236
174 213 238
174 212 240
179 212 242
178 211 240
175 211 239
176 214 239
176 212 239
178 214 242
177 215 242
176 213 239
177 214 242
177 216 244
174 214 239
178 217 245
178 215 245
178 216 246
179 214 244
180 215 243
180 216 245
180 217 241
176 217 242
176 217 241
178 220 246
176 217 241
180 218 243
178 218 244
179 221 247
179 219 244
179 221 247
176 218 245
181 219 249
184 220 249
182 219 245
182 220 244
181 222 247
181 222 247
180 221 246
183 221 247
185 222 249
183 223 250
181 222 249
181 223 250
180 220 248
183 228 252
185 224 252
184 223 249
184 223 250
183 225 252
183 225 251
183 224 250
182 223 250
183 225 252
181 222 250
185 221 251
187 223 252
185 222 250
185 223 250
188 224 253
184 222 250
187 223 252
186 222 252
183 225 253
182 224 250
182 223 249
186 223 251
184 223 251
183 224 253
180 222 251
184 224 253
185 221 253
186 223 254
183 224 249
181 226 251
181 226 249
179 224 247
184 223 251
184 224 250
185 224 252
186 224 250
185 223 249
183 224 249
182 222 249
182 224 251
182 223 249
184 221 246
185 220 247
185 221 247
185 224 251
183 221 248
184 220 247
185 222 249
182 221 249
181 222 247
182 224 249
182 224 249
184 227 251
182 224 249
183 225 251
186 223 248
187 223 249
185 225 249
183 225 253
185 222 253
187 227 253
187 227 251
187 230 251
183 227 248
183 229 251
185 228 251
188 228 252
187 227 252
189 226 254
189 228 254
188 228 251
187 231 253
188 230 253
192 230 255
191 229 255
190 228 254
189 229 252
190 227 254
192 230 255
190 227 251
188 231 255
191 230 255
188 230 254
189 232 255
190 230 254
192 230 255
193 232 255
193 232 255
191 229 252
192 231 254
190 232 254
190 232 254
192 232 255
193 231 255
193 234 255
192 237 255
189 233 255
194 232 255
194 232 255
195 233 255
194 232 255
193 231 255
194 233 255
194 233 255
191 229 252
193 232 255
191 234 255
188 232 255
193 232 255
192 230 255
189 232 254
189 232 254
189 233 255
190 232 254
189 232 252
191 230 254
192 230 253
191 229 252
192 228 249
193 230 252
191 227 248
191 230 251
193 232 254
190 229 253
187 227 252
189 227 251
192 229 253
192 227 251
195 230 253
194 228 250
193 227 248
193 228 248
196 227 246
198 230 249
195 229 245
192 229 242
193 227 243
193 226 245
197 227 248
197 226 244
199 227 244
201 225 240
199 222 236
205 226 240
203 223 237
202 222 234
204 226 236
202 228 237
199 228 237
197 226 238
197 227 239
198 225 238
196 225 238
197 226 238
196 224 238
198 224 238
199 224 240
197 223 239
197 220 235
198 221 238
195 224 239
194 227 242
192 227 243
193 225 245
193 223 244
193 221 242
193 220 240
193 221 240
194 220 239
189 216 232
189 215 232
189 211 227
189 212 229
190 212 228
188 213 226
186 214 224
186 214 224
188 213 222
188 215 226
188 215 227
189 219 235
189 221 238
187 220 235
188 219 236
189 221 239
187 219 238
186 216 232
187 214 230
186 215 233
186 213 229
185 213 228
184 209 223
183 207 220
183 205 217
182 201 211
180 198 208
180 198 207
179 195 205
180 195 204
175 192 201
174 190 196
173 185 192
172 185 192
172 185 192
170 184 193
172 184 194
173 186 195
172 186 195
173 188 197
173 189 197
173 187 193
172 188 194
175 188 197
174 186 196
174 186 195
173 186 194
175 188 197
179 190 201
180 189 200
180 192 202
181 192 201
179 195 204
182 198 207
180 197 206
179 195 206
181 195 206
181 194 204
182 192 203
178 189 196
175 187 194
176 187 195
175 186 196
176 189 199
176 189 199
179 192 203
178 191 198
179 193 200
176 192 199
180 194 204
180 198 211
179 201 214
183 205 219
183 206 219
182 203 215
182 205 217
179 199 212
180 201 213
180 197 210
181 198 209
183 195 205
184 194 205
181 190 202
180 192 202
177 191 200
177 190 199
174 187 197
173 185 195
172 182 192
171 181 190
169 178 188
168 177 189
165 175 184
163 176 182
160 172 180
157 169 180
157 167 178
156 165 178
153 164 175
155 165 175
155 162 172
150 160 168
147 160 166
147 159 166
146 157 166
145 153 165
143 150 162
142 150 162
138 147 158
137 147 156
136 143 152
136 141 149
136 140 148
134 140 146
132 141 148
130 139 146
131 138 146
133 139 146
130 137 144
130 138 144
130 137 144
130 136 143
129 135 145
129 136 146
127 136 145
125 137 145
125 137 144
124 136 143
125 137 146
122 134 143
123 136 145
124 133 142
123 133 142
122 133 141
121 133 141
122 131 140
123 131 141
124 130 141
123 130 139
123 131 138
121 130 137
119 131 138
119 130 139
120 130 138
119 128 137
119 130 139
117 129 137
120 129 136
120 127 136
118 127 136
118 127 136
116 127 136
116 128 137
115 126 135
116 127 135
116 126 136
117 125 135
116 124 134
116 124 134
117 125 134
116 124 133
117 125 134
116 125 134
114 124 132
114 124 133
116 124 133
116 123 134
117 123 133
117 123 132
117 123 132
116 123 132
115 124 132
115 124 132
114 123 131
115 123 131
114 123 131
114 122 130
114 121 130
117 123 132
116 122 132
116 123 133
114 122 130
114 122 130
116 121 130
115 121 130
114 122 130
115 121 130
114 120 130
113 121 131
112 120 131
112 120 130
112 118 129
114 119 129
112 118 126
111 117 125
110 116 123
111 117 125
110 116 125
110 116 124
110 116 124
109 115 123
109 115 123
106 113 122
105 112 121
106 111 121
106 110 119
106 110 119
104 109 118
103 108 116
103 108 116
103 109 116
103 109 117
102 109 117
102 109 116
102 110 118
100 109 115
102 110 117
102 109 117
103 109 117
104 109 118
103 109 117
102 109 117
102 109 117
103 108 117
104 109 118
103 108 118
103 108 117
101 108 116
102 109 117
102 108 116
104 109 118
102 108 116
102 110 117
101 110 117
101 110 117
100 109 117
101 110 120
102 109 120
101 108 118
99 109 117
100 109 117
102 109 117
104 109 117
104 108 118
101 107 116
102 109 119
102 109 118
103 109 118
101 109 117
101 108 117
100 108 117
100 109 118
100 108 118
101 109 118
101 110 119
100 109 119
99 109 119
99 109 119
101 110 120
101 108 117
102 109 119
100 108 118
100 109 118
101 110 120
100 109 118
100 110 119
99 109 119
100 109 119
102 109 120
100 108 121
100 108 120
102 109 121
102 109 120
102 109 121
101 108 120
101 109 121
100 110 121
100 109 121
99 110 122
100 111 122
100 110 121
101 110 121
102 110 121
101 110 120
101 110 121
100 108 120
101 110 122
100 109 121
100 109 120
100 108 119
100 108 119
99 108 118
97 109 118
98 107 117
99 106 118
100 106 118
99 108 118
98 106 117
98 106 117
98 105 116
97 105 115
96 105 113
95 103 112
92 102 110
92 100 108
91 99 107
89 98 106
90 98 107
88 96 105
89 94 103
89 95 105
87 95 105
87 94 104
88 94 104
88 94 102
87 95 103
86 94 102
87 93 102
88 93 102
87 93 102
86 93 102
88 93 102
87 93 102
87 93 102
88 93 101
89 93 103
88 92 102
87 93 102
85 94 103
85 95 103
85 95 102
86 93 101
87 94 103
86 94 103
87 94 103
87 94 103
86 94 103
86 94 104
87 93 103
87 94 103
86 94 103
87 94 103
87 93 102
88 94 103
89 93 103
88 94 103
86 94 103
86 96 104
87 95 104
87 94 104
86 95 104
86 96 105
85 95 104
87 95 104
87 95 105
87 95 105
86 94 104
87 94 103
88 93 104
87 93 104
87 94 103
86 94 103
85 93 103
86 93 104
86 92 102
85 92 101
84 93 101
84 92 101
85 92 101
85 91 101
85 90 101
85 90 99
84 90 99
84 90 99
84 89 99
86 90 99
84 89 97
82 89 97
82 90 98
81 90 97
82 89 98
82 89 98
83 89 98
84 88 98
82 87 96
82 89 97
82 88 96
82 88 96
83 88 97
82 88 97
82 87 96
82 87 96
80 87 96
79 86 95
81 87 96
80 87 95
80 87 96
80 87 95
80 87 94
78 86 92
77 86 93
76 84 92
76 82 90
73 80 88
144 163 181
144 165 182
146 167 185
145 168 186
146 170 187
148 171 188
149 173 190
149 172 187
148 174 189
150 175 191
150 176 193
151 175 193
153 175 192
153 174 191
154 176 193
156 179 196
151 177 193
154 178 196
155 177 197
152 175 194
153 178 195
152 179 195
154 179 195
155 179 196
154 178 194
152 180 195
152 179 194
151 180 195
150 181 195
151 180 195
154 182 197
154 182 197
156 182 196
158 182 197
158 184 200
157 184 200
158 184 201
161 186 205
164 187 206
163 187 204
164 191 207
164 192 209
165 194 211
163 195 214
165 197 217
164 197 216
167 199 219
166 199 220
168 201 222
169 200 222
169 201 221
169 203 223
167 201 221
167 203 223
166 204 225
166 204 227
168 206 230
167 205 229
167 205 229
168 207 231
168 205 232
168 205 231
166 204 229
167 206 231
167 206 230
167 205 229
170 206 232
170 205 232
173 207 232
172 206 229
174 207 230
172 204 228
172 206 229
173 207 233
171 204 231
174 207 235
173 205 233
172 205 229
172 206 230
173 206 232
172 206 233
171 206 233
169 207 233
169 208 233
171 210 234
168 207 233
170 210 236
173 208 233
173 210 237
169 208 236
170 209 238
171 211 237
174 212 237
175 209 234
178 207 235
176 211 235
172 211 236
173 212 237
174 212 240
177 209 238
179 213 240
174 211 237
176 213 240
176 212 239
177 213 240
175 214 240
174 214 241
175 214 240
176 214 239
177 216 240
175 214 237
175 215 241
177 218 243
178 216 243
180 215 243
181 216 244
178 216 239
178 219 243
178 218 243
178 217 243
178 218 244
181 216 241
181 215 242
181 218 247
183 219 250
179 218 246
181 219 248
181 221 249
181 222 249
181 221 244
181 222 248
180 219 245
184 222 250
184 221 247
184 221 247
185 222 249
184 222 249
184 224 251
185 224 249
186 224 249
185 223 249
185 221 249
185 223 251
183 224 249
184 223 251
185 222 251
183 223 251
185 224 253
186 224 251
185 224 252
183 224 252
183 223 249
184 221 248
186 224 252
185 223 252
187 224 254
183 222 248
183 225 249
182 224 251
183 222 251
186 223 251
185 223 253
183 223 253
185 224 253
184 221 251
185 221 249
185 224 251
181 222 249
181 223 249
183 226 250
182 225 247
184 225 250
186 223 249
185 222 249
185 224 251
185 223 249
186 223 247
185 222 245
185 223 246
184 224 249
183 223 247
185 222 244
185 222 245
185 222 247
182 223 248
181 223 247
186 223 248
188 221 249
187 222 251
183 222 247
184 222 249
185 223 251
184 225 251
183 226 251
182 223 247
184 226 249
186 223 246
187 225 249
187 225 251
187 225 253
189 226 252
188 227 252
186 226 251
186 227 251
186 228 251
186 228 252
188 230 253
186 227 252
189 227 254
189 226 255
187 229 255
187 230 255
188 231 255
188 230 254
188 228 251
192 231 255
190 229 254
189 228 252
190 229 254
191 230 255
191 230 254
189 231 254
188 232 254
188 230 254
191 231 255
192 230 255
192 231 254
191 230 254
190 232 255
192 231 254
191 232 254
190 232 255
192 233 255
192 233 255
190 230 255
193 234 255
192 231 255
193 230 254
193 232 254
193 236 255
193 235 255
192 236 255
192 233 255
193 233 255
193 232 255
193 231 254
193 234 255
190 233 255
190 234 255
190 235 255
190 234 255
189 233 255
188 231 254
189 233 254
189 233 254
191 235 255
189 232 253
191 231 253
192 230 254
193 229 255
193 229 255
191 228 250
189 230 250
188 231 250
188 232 252
190 230 254
193 231 254
191 231 251
190 228 251
190 228 253
191 228 251
191 229 248
192 231 247
195 228 246
195 226 244
196 228 244
197 228 247
196 228 248
197 228 248
200 228 245
203 227 242
205 226 238
207 227 239
207 225 237
206 226 236
208 225 236
207 225 233
205 225 234
203 224 235
202 225 238
204 225 237
203 225 238
201 225 237
201 224 235
201 224 234
201 224 233
200 224 233
199 225 233
197 224 234
200 226 238
197 224 237
195 226 241
193 226 242
192 224 243
192 224 244
190 224 244
191 223 244
193 223 245
192 217 238
193 219 237
189 216 233
187 217 234
189 215 230
191 215 230
190 213 227
191 214 228
191 214 227
190 215 227
186 216 224
186 218 228
186 218 232
187 220 235
186 222 238
187 221 236
188 221 237
188 220 238
190 219 238
188 216 234
187 214 231
184 212 227
182 210 224
181 209 220
182 208 220
182 204 216
180 199 211
179 198 210
176 196 206
176 195 204
176 193 202
175 192 198
175 189 198
174 187 197
177 186 196
174 185 194
175 183 193
174 184 193
172 186 196
173 188 197
174 187 197
175 187 197
174 187 193
173 186 193
174 187 195
175 185 195
177 186 196
175 187 197
175 188 198
176 189 199
179 192 201
180 192 202
183 194 204
183 194 203
184 198 205
181 197 204
181 199 206
183 196 204
185 195 204
183 193 202
179 193 201
177 190 196
176 188 196
177 187 197
177 187 198
177 191 201
177 190 202
180 193 203
178 191 196
179 193 198
178 194 203
179 200 211
178 205 217
180 207 222
181 206 222
182 204 220
181 203 219
180 200 215
181 200 214
181 199 215
178 197 210
182 197 211
184 197 211
182 196 208
181 194 206
177 195 203
175 191 200
174 190 200
175 190 201
173 186 197
171 183 193
171 181 191
169 178 189
167 176 185
166 176 182
163 174 182
160 172 181
159 169 179
156 167 178
155 166 177
153 165 176
151 163 174
151 163 173
149 161 171
148 159 168
148 159 169
147 156 169
143 153 165
140 151 162
139 148 159
139 148 158
136 144 154
138 144 153
138 143 151
135 141 149
134 141 149
134 140 148
132 140 148
130 139 146
130 139 146
130 139 146
130 137 146
131 137 146
130 137 147
128 136 146
127 136 145
127 137 144
127 136 144
127 135 145
126 136 144
125 135 144
125 135 144
124 135 144
122 134 143
123 133 142
123 132 141
123 132 141
123 131 140
124 130 140
122 131 139
121 130 139
121 132 139
119 131 137
120 131 138
120 129 138
121 130 139
120 129 138
121 129 139
121 128 137
121 127 136
121 127 138
120 128 137
119 127 136
121 127 137
119 127 138
118 126 137
119 127 137
116 125 135
117 127 136
116 126 135
116 125 134
116 126 134
115 124 132
117 126 134
117 125 134
116 125 134
116 125 133
117 123 133
118 123 133
118 124 133
118 124 133
116 123 132
116 123 132
115 123 132
114 123 131
115 123 131
116 123 133
117 122 131
118 122 131
117 122 130
114 122 129
115 123 130
115 122 130
115 121 130
116 122 131
114 122 129
113 121 127
113 120 129
114 120 129
113 121 130
114 120 130
113 120 129
111 119 128
112 119 128
111 117 127
111 117 126
109 117 127
110 116 126
112 115 126
111 114 124
111 116 125
109 114 124
109 114 124
108 113 123
107 113 122
104 112 121
105 111 119
104 110 118
104 109 117
103 108 116
102 108 116
101 109 116
102 109 116
102 108 116
102 108 116
101 108 116
101 109 116
101 108 117
104 109 117
102 108 116
102 108 116
103 108 116
103 109 117
102 108 116
101 108 116
103 108 118
103 108 118
103 108 117
101 109 116
102 109 117
103 108 116
102 109 116
102 109 117
101 110 117
101 109 117
101 109 118
102 109 118
102 108 119
102 108 118
101 110 118
101 110 117
102 109 118
102 108 119
104 108 118
104 108 118
101 109 119
101 109 119
101 109 118
101 108 117
101 108 116
101 109 116
101 109 117
101 108 118
101 109 119
101 109 120
101 109 120
101 109 120
100 109 118
100 108 119
99 108 119
99 108 118
99 109 120
98 109 121
98 109 120
99 108 120
98 109 119
99 110 120
99 108 120
101 109 120
101 108 120
101 108 119
101 110 120
102 110 119
103 109 119
101 108 118
101 109 122
99 109 119
100 109 120
99 110 120
99 111 120
98 111 119
99 111 121
100 109 120
101 109 121
101 110 121
101 110 121
100 109 120
101 110 122
100 109 121
100 109 120
100 108 119
101 108 119
100 108 119
98 109 118
98 108 119
98 107 119
99 107 118
100 106 118
101 106 117
99 105 117
98 105 116
98 104 115
95 104 115
94 103 115
92 102 113
92 100 110
92 99 108
90 97 105
90 97 106
89 96 105
89 95 104
88 95 104
88 95 104
87 94 104
88 94 104
89 95 103
87 94 102
88 94 102
89 93 102
89 93 102
87 93 102
87 94 103
87 93 102
87 93 102
86 94 102
86 92 100
88 94 101
88 93 101
88 94 102
87 94 102
87 95 103
86 94 102
86 94 102
86 94 103
87 95 104
86 94 103
86 94 103
86 94 103
86 93 103
87 93 103
87 93 103
87 93 102
87 93 103
87 93 103
87 93 103
87 94 103
87 94 104
86 94 102
86 94 103
87 94 104
87 94 103
86 94 103
86 95 105
86 95 104
87 94 104
88 94 105
86 94 104
86 94 103
86 94 104
86 94 104
87 94 104
86 93 103
86 94 103
85 93 102
85 93 101
85 92 101
85 92 100
84 92 101
85 92 101
85 91 101
85 91 100
84 91 100
84 91 100
83 91 98
85 91 99
84 91 99
84 90 99
84 90 99
83 89 98
83 89 99
82 89 98
81 89 97
83 89 98
82 89 98
83 89 99
82 87 98
82 87 97
83 88 97
84 88 97
82 86 96
82 87 97
82 87 96
82 87 96
81 86 96
81 87 96
81 86 96
80 87 96
79 87 95
79 87 94
80 86 94
79 85 94
79 85 93
78 84 92
77 82 90
72 79 86
147 167 185
147 167 186
147 169 187
149 168 188
149 169 190
150 172 190
151 172 190
152 174 191
152 175 192
151 176 192
151 176 194
151 178 196
151 179 196
152 177 194
153 176 192
154 176 193
153 179 194
154 178 194
153 176 194
154 177 196
153 178 196
152 178 195
153 178 195
153 181 197
152 181 196
151 181 195
151 179 195
153 179 195
152 178 194
154 179 198
155 180 198
154 180 197
156 181 198
157 184 200
159 186 201
160 183 201
162 185 204
161 188 205
160 190 205
163 192 208
164 189 208
163 191 209
164 194 211
164 195 212
163 195 211
164 197 214
164 197 217
164 198 219
165 198 219
165 198 220
165 201 223
166 200 222
168 202 222
170 201 223
167 201 224
166 205 230
167 205 230
167 203 228
168 206 229
169 206 228
170 206 229
169 205 227
171 208 232
170 206 228
172 205 229
172 204 229
169 204 228
171 206 232
171 206 232
171 205 230
172 206 231
172 207 233
169 209 232
172 206 231
174 206 232
173 204 231
170 207 231
172 207 231
171 207 230
171 206 230
173 208 234
172 207 235
172 207 233
172 207 233
171 208 233
170 208 231
171 210 233
172 208 233
172 207 233
173 209 236
170 210 238
170 210 238
171 210 240
172 213 240
174 212 238
173 210 237
174 211 238
173 213 237
173 213 237
173 212 237
174 212 237
175 213 240
176 211 238
177 212 238
176 213 237
176 212 237
177 213 241
177 213 240
178 215 241
178 216 242
178 214 240
178 216 239
176 217 241
175 218 242
178 215 242
182 215 245
179 216 242
177 217 243
179 217 243
180 216 245
180 216 244
182 215 244
183 220 243
181 219 245
182 219 246
182 217 247
183 217 246
184 218 245
182 219 245
181 222 245
181 223 246
182 220 247
181 221 247
181 222 244
183 223 247
184 222 248
184 222 249
185 221 250
184 222 248
185 225 249
185 223 252
185 224 254
184 223 251
182 224 249
183 225 250
185 226 250
183 224 249
183 224 252
184 223 252
187 224 254
187 222 250
186 224 250
186 224 251
185 224 250
188 225 250
186 222 248
185 225 250
183 223 247
184 226 250
182 223 248
183 224 248
184 224 253
183 224 252
184 222 250
186 224 251
186 222 246
186 225 247
187 225 249
186 222 247
185 222 247
184 223 247
182 223 246
184 223 247
183 223 245
183 224 248
185 223 249
186 223 249
185 223 249
185 221 248
183 221 249
184 222 247
185 222 245
186 222 243
182 222 243
182 222 247
185 225 249
182 221 246
183 223 250
181 220 243
184 223 246
186 223 249
187 224 251
184 224 250
182 224 246
186 222 247
184 221 245
186 222 245
188 221 247
188 223 250
186 224 251
185 226 249
187 225 252
188 226 252
189 226 251
188 225 248
189 226 251
189 227 249
188 226 248
190 229 252
188 227 251
186 229 254
187 228 254
188 227 253
191 229 255
190 227 252
189 226 252
191 231 255
191 232 255
189 231 254
189 231 254
190 231 254
189 231 254
189 231 254
191 231 254
190 228 252
190 231 254
190 231 253
191 231 255
191 233 255
191 233 255
194 235 255
192 231 255
194 232 255
191 231 254
192 234 255
193 235 255
192 233 255
194 234 255
194 231 252
192 233 255
191 232 255
191 234 255
192 233 255
194 233 255
194 231 255
195 234 255
195 232 254
195 233 255
192 232 255
191 233 255
188 232 255
192 231 255
192 230 255
191 231 254
192 232 255
192 233 255
189 231 252
192 231 254
190 229 254
191 229 255
190 229 252
191 228 252
190 229 250
189 230 248
190 230 250
191 228 250
192 229 253
190 228 253
191 229 253
191 229 251
192 231 249
193 231 248
196 230 246
198 229 247
198 229 245
197 229 242
195 230 244
194 228 245
198 228 244
202 225 242
202 225 238
204 226 236
207 227 238
207 227 236
208 228 236
208 227 237
208 227 237
206 226 236
207 226 236
206 226 234
208 227 235
207 225 233
205 225 233
204 223 231
208 224 232
210 222 232
209 224 233
205 224 233
202 226 235
199 224 234
199 225 235
197 227 238
197 227 239
197 226 244
193 225 243
192 225 245
191 224 245
190 222 242
191 224 242
191 218 237
191 219 238
191 217 233
190 218 230
193 217 228
195 216 228
194 215 227
192 214 226
191 214 226
189 215 225
190 216 227
189 217 231
188 219 236
186 218 236
187 223 238
189 223 239
189 222 238
186 219 233
186 217 233
188 215 232
189 213 230
189 211 226
186 207 221
185 206 219
183 204 217
180 200 212
177 198 207
174 195 203
176 195 203
176 193 202
175 192 200
176 190 198
175 188 197
176 186 196
176 185 195
177 186 196
176 186 192
174 186 194
175 187 197
176 187 196
176 189 196
174 188 196
174 188 197
172 187 196
173 184 195
176 187 199
176 188 199
176 189 199
179 192 202
178 192 200
180 194 201
181 194 201
184 195 203
183 195 203
185 196 203
182 195 202
185 195 202
185 194 201
183 193 200
179 192 199
178 191 197
177 188 195
176 189 199
175 190 198
173 189 198
176 191 201
177 193 199
178 194 199
178 195 201
182 198 205
179 198 210
179 204 218
178 207 223
178 208 226
178 205 223
179 205 221
180 204 220
181 201 217
179 200 214
179 200 214
179 199 212
180 198 211
180 197 209
181 195 208
179 192 205
178 190 203
180 190 203
179 190 201
178 190 200
174 185 195
173 183 193
169 178 189
168 177 188
164 177 185
162 175 185
160 174 184
156 172 179
158 169 177
157 168 177
156 167 176
153 166 176
151 164 173
149 161 171
149 160 171
147 159 170
146 158 169
142 154 164
142 153 163
142 152 163
141 150 161
140 149 160
138 147 156
136 145 153
136 143 151
136 142 150
136 141 150
133 141 150
132 141 149
133 141 148
133 140 147
130 140 147
129 139 146
128 138 145
129 137 146
130 136 146
128 135 144
128 135 144
129 135 145
128 135 144
128 134 144
127 133 143
126 135 146
125 134 143
125 133 143
124 133 142
122 133 141
122 133 140
124 132 141
124 132 141
122 130 141
122 130 139
122 131 139
122 130 139
122 130 140
120 131 138
119 130 137
120 130 138
121 129 139
122 128 140
121 128 138
120 129 137
119 128 135
120 127 136
118 125 133
120 126 136
119 126 137
118 126 135
118 126 136
116 126 136
116 127 136
117 127 135
117 125 134
118 125 134
119 125 135
116 125 134
116 125 135
116 125 133
116 125 133
116 124 132
115 123 132
116 124 133
117 125 133
115 123 132
115 124 132
116 124 133
117 123 133
117 122 132
117 122 131
116 122 129
115 123 130
116 123 130
117 121 129
118 121 131
116 121 130
115 122 130
113 121 130
113 121 129
115 120 130
115 120 130
113 119 129
112 120 130
111 119 129
111 119 128
111 117 126
111 117 127
110 116 126
110 116 125
111 116 125
111 116 125
110 116 124
109 114 123
109 114 123
108 114 123
107 113 122
105 113 120
104 111 119
103 110 118
103 109 117
103 108 116
103 108 117
103 108 116
102 108 116
102 109 116
101 109 116
101 109 115
102 110 117
101 108 117
100 109 117
101 110 117
101 110 116
102 109 115
102 108 116
102 108 116
102 109 117
102 108 117
102 108 116
103 108 117
102 108 117
101 108 116
101 109 117
102 108 116
104 109 118
103 109 117
103 108 117
102 108 117
102 108 116
103 108 119
101 108 119
101 110 118
100 109 116
101 110 117
101 108 117
102 109 119
101 108 118
101 108 118
101 109 119
100 108 118
102 109 120
100 109 117
99 109 117
100 109 117
100 107 117
101 108 119
100 108 119
101 108 117
102 108 118
102 107 118
100 108 119
99 108 118
99 109 119
99 109 118
99 109 118
98 107 118
99 108 119
101 109 120
99 108 119
99 109 119
99 109 119
100 109 120
100 108 120
100 108 120
101 108 120
102 108 120
101 109 120
100 110 120
99 109 119
101 110 121
101 109 121
100 109 119
100 111 121
98 110 121
101 110 122
101 110 121
101 110 122
100 110 122
100 110 122
99 110 120
100 110 122
101 109 121
100 108 120
100 108 120
100 108 120
99 108 119
98 108 120
99 108 120
99 108 120
99 106 119
99 106 119
97 105 116
97 107 117
96 105 114
96 105 114
95 103 112
93 101 112
94 101 110
92 99 108
90 98 106
89 97 105
88 96 106
88 94 104
87 94 104
89 94 104
89 94 104
88 94 104
87 93 102
89 95 103
88 94 103
90 93 103
88 93 103
86 94 102
87 95 102
87 93 101
87 93 102
87 93 102
87 94 102
87 93 102
87 93 102
87 93 101
86 94 102
85 94 103
86 94 103
86 94 103
86 94 103
85 93 103
86 94 103
86 93 102
86 94 102
87 94 103
88 94 103
88 94 103
87 92 102
85 92 101
88 93 103
86 93 103
86 94 102
85 94 102
85 95 103
86 94 104
87 94 104
88 94 104
88 93 104
88 93 104
88 94 104
87 94 104
87 94 104
86 94 104
86 94 103
86 94 104
86 93 103
86 94 103
86 94 103
85 92 102
85 92 102
86 92 101
85 92 101
85 92 101
84 92 100
83 91 100
84 92 100
84 91 100
84 92 100
84 92 101
83 91 99
83 91 100
83 91 100
83 90 100
83 90 100
83 89 98
83 90 99
80 88 97
82 90 99
82 89 98
81 88 98
81 89 97
83 89 98
83 87 97
82 87 97
82 87 97
82 87 97
82 87 96
82 87 96
82 87 96
81 86 96
80 87 96
80 87 95
80 87 95
80 87 95
79 86 95
79 87 95
80 87 95
79 85 93
78 83 92
76 82 90
71 80 88
149 168 187
150 170 189
149 167 187
150 168 190
150 170 191
150 172 190
150 173 192
150 176 194
152 177 196
153 177 196
153 178 196
151 178 196
150 177 195
151 178 197
152 178 197
153 178 196
153 178 194
153 180 196
153 179 196
152 177 195
155 178 197
154 178 195
154 178 195
154 178 195
152 179 195
152 180 197
154 180 199
154 178 196
154 178 196
153 179 197
153 179 197
155 180 198
158 181 198
159 182 199
160 183 199
159 184 200
160 186 202
160 187 203
162 188 205
164 189 207
162 187 206
163 190 210
164 192 211
165 193 211
166 194 211
165 196 214
166 198 218
166 197 219
165 198 220
166 200 224
168 200 222
167 199 219
169 202 224
171 202 226
170 201 225
167 203 226
168 204 225
169 205 227
168 207 229
168 206 229
169 206 230
171 206 230
172 206 231
170 203 228
171 205 230
171 205 230
171 205 230
169 205 230
172 206 231
171 205 232
173 206 235
173 206 235
169 207 234
168 205 231
172 207 234
171 207 231
171 207 233
170 208 235
170 207 232
171 208 232
169 208 232
169 210 236
168 209 233
168 206 231
172 208 233
173 206 233
174 208 235
171 208 233
171 209 235
173 209 236
172 210 235
172 209 237
171 211 238
171 210 236
171 210 236
174 213 238
172 211 238
173 210 237
174 210 237
175 212 238
175 214 240
174 212 238
174 213 237
174 214 239
177 213 240
178 213 239
177 212 238
178 213 239
178 213 239
177 215 241
179 216 241
177 216 240
175 215 241
176 216 241
177 216 242
179 216 242
180 216 244
180 215 241
178 216 242
180 216 245
181 217 247
181 219 246
181 222 245
180 220 245
182 220 246
184 221 247
181 219 243
182 222 246
181 222 245
181 223 248
180 221 249
182 222 250
181 222 250
182 223 248
183 224 250
182 224 248
182 224 250
184 226 254
185 224 250
183 224 247
183 225 251
185 223 250
185 224 251
183 226 250
184 227 250
184 225 247
185 226 249
185 225 249
184 225 251
185 223 249
187 225 250
186 224 249
183 225 248
184 227 252
185 223 250
187 225 251
185 226 249
184 226 250
185 223 248
186 224 250
183 226 252
183 227 250
183 225 249
186 224 251
185 222 248
187 224 248
187 223 246
184 224 248
183 224 249
185 224 250
184 223 249
182 225 249
182 224 245
182 225 249
183 224 249
183 224 249
183 223 248
183 225 250
183 224 249
185 223 246
185 222 247
185 223 245
185 223 245
182 223 242
184 222 243
184 223 245
183 224 248
182 223 249
182 222 247
181 221 245
185 222 245
185 223 247
181 223 249
184 227 251
185 224 247
185 222 245
189 222 248
189 221 248
185 222 247
186 226 249
185 227 249
186 226 250
187 224 247
186 224 247
188 226 248
188 226 249
189 227 250
190 229 251
187 228 251
186 228 252
186 230 254
185 233 253
185 232 253
187 229 255
188 230 255
188 231 255
188 232 254
187 230 253
190 230 255
189 228 254
191 229 255
191 229 254
190 230 255
191 229 254
192 230 253
191 229 253
193 231 255
191 230 255
188 231 253
191 231 254
193 230 254
193 232 255
193 235 255
193 232 255
192 233 254
191 233 255
190 234 255
193 234 255
194 232 254
191 232 255
193 232 255
191 233 255
191 235 255
191 234 255
192 232 255
194 232 255
194 232 255
194 232 255
192 233 255
189 233 254
193 232 255
193 231 255
194 230 255
192 232 255
192 231 255
192 229 255
191 229 252
193 231 255
191 231 254
192 230 254
191 229 250
191 228 250
192 230 253
188 229 253
187 231 254
190 230 252
192 231 253
191 228 250
191 228 251
192 229 252
191 229 250
194 232 251
191 229 245
194 229 246
196 230 245
199 231 243
197 228 242
201 229 248
203 226 244
206 225 243
206 225 238
207 228 238
206 226 237
207 227 239
206 226 238
205 227 238
205 227 238
206 226 236
207 224 234
208 227 234
209 224 232
211 223 232
211 223 231
212 225 229
209 225 229
210 225 231
211 224 230
206 225 230
204 225 233
201 224 234
201 226 234
202 229 237
200 227 239
198 226 241
195 225 244
191 225 245
193 227 248
193 226 246
194 224 242
193 221 238
192 221 238
192 220 237
191 219 234
193 220 233
195 218 231
196 217 230
195 218 231
192 216 228
192 217 228
191 215 228
192 215 231
192 218 236
191 218 234
191 220 236
191 220 238
190 220 236
190 219 234
191 220 235
187 216 231
186 213 226
184 211 222
185 207 220
182 204 216
180 202 213
180 200 210
182 200 209
179 197 206
178 194 203
178 192 202
177 191 200
177 190 199
176 189 198
177 190 200
176 189 198
176 188 196
178 189 195
178 189 198
175 187 197
176 189 199
176 189 196
176 189 199
176 189 198
174 187 197
174 187 197
176 190 197
174 189 195
177 190 199
179 191 199
179 192 199
181 194 201
183 194 201
183 193 200
183 194 203
186 194 204
186 195 205
185 194 203
185 193 202
184 192 200
184 191 199
180 190 197
179 187 198
179 189 199
178 188 199
179 189 202
178 189 203
177 193 201
178 196 202
179 197 203
180 199 207
182 202 216
180 205 222
178 207 226
178 208 227
180 208 226
182 208 226
181 205 224
182 203 219
182 203 218
182 202 214
183 199 213
185 202 214
183 200 212
185 198 210
183 195 207
181 194 205
181 193 203
182 192 201
178 188 196
177 186 194
173 184 190
170 181 188
167 178 186
166 177 186
164 176 183
160 174 182
158 173 180
157 169 178
158 167 177
157 165 177
154 164 176
153 163 174
150 162 173
150 161 172
149 160 172
145 158 168
143 157 165
142 155 165
141 155 162
141 153 161
143 151 162
143 149 160
140 146 157
139 145 155
137 144 152
137 144 152
135 143 151
134 142 151
133 141 148
133 140 149
132 139 148
132 139 148
131 138 146
130 137 146
129 137 147
129 136 145
128 134 144
129 135 144
128 135 145
129 135 144
128 135 145
126 135 144
126 134 143
126 134 143
123 133 142
122 134 143
122 133 142
122 130 140
124 132 141
122 131 140
123 132 141
123 131 140
122 131 140
123 131 140
122 131 140
121 131 140
121 131 140
121 130 140
121 129 141
120 128 140
119 128 137
119 129 137
118 129 135
121 129 138
121 127 137
118 126 137
117 128 137
118 127 135
118 126 136
118 126 135
118 127 135
117 125 134
118 126 135
117 126 134
118 126 134
117 125 134
116 126 133
117 126 133
117 125 134
117 124 134
116 124 133
116 124 133
115 124 132
115 124 132
115 124 132
116 124 133
117 122 133
116 122 131
117 123 131
117 123 130
115 122 130
115 123 131
115 123 131
114 122 131
114 123 131
114 122 131
114 121 130
115 121 129
115 121 129
114 121 130
112 120 129
112 119 128
112 118 127
110 118 126
111 117 127
111 117 127
110 117 126
109 116 124
109 116 125
109 116 124
109 115 124
109 114 123
108 113 123
107 113 121
105 113 121
103 111 119
102 109 118
102 110 118
101 108 118
101 108 116
100 108 116
102 108 117
103 108 116
103 108 115
103 108 115
102 108 115
102 108 117
101 108 117
101 109 116
102 109 116
102 108 117
103 107 116
103 107 116
103 109 117
101 108 116
101 109 118
101 108 117
101 109 116
102 109 116
103 108 116
103 108 116
103 109 119
102 108 117
102 109 117
102 109 117
102 109 116
102 109 119
102 108 119
103 108 118
102 108 117
102 108 117
102 108 118
102 109 118
101 108 118
100 108 117
101 110 118
101 108 119
101 107 118
101 109 119
99 108 118
100 110 119
99 109 118
101 108 118
99 108 117
100 108 117
101 108 117
100 108 120
100 108 121
99 109 120
98 108 118
99 108 116
99 108 117
98 108 117
100 107 119
100 107 119
100 108 119
98 109 120
99 109 120
100 107 119
100 108 120
101 108 119
102 109 120
102 110 121
99 110 121
99 110 120
99 110 120
100 109 121
101 110 122
101 110 123
99 111 121
99 111 121
99 110 121
100 111 122
99 111 121
99 110 121
99 111 122
100 110 122
101 110 122
101 109 122
101 108 121
101 109 122
100 108 119
101 108 119
99 108 119
99 108 119
99 108 120
98 107 119
98 107 119
97 106 117
97 106 117
95 104 115
96 105 114
94 103 112
94 102 111
92 100 110
92 99 109
90 98 107
89 97 106
89 97 106
88 95 105
89 95 105
88 94 103
88 94 104
88 94 104
88 94 104
87 93 102
87 93 103
87 94 104
88 94 103
87 94 102
87 94 102
88 94 103
87 93 102
86 94 102
86 94 102
87 93 101
87 93 101
87 93 102
87 93 102
88 94 104
87 93 103
87 93 103
87 94 103
85 93 102
86 94 103
85 93 102
87 94 103
87 93 102
88 93 103
87 93 103
87 93 104
87 93 102
87 93 103
87 93 103
86 94 104
86 94 103
87 94 103
87 94 103
87 94 103
87 94 103
86 94 103
86 94 104
87 94 104
85 95 104
86 94 103
87 94 103
87 93 103
88 94 103
87 93 103
86 92 103
86 92 102
86 92 102
85 92 102
85 92 101
86 92 102
85 92 101
84 92 101
83 92 101
83 92 101
83 92 100
85 91 100
84 91 100
84 92 101
83 91 100
82 91 100
82 91 99
83 90 99
84 90 99
83 90 98
81 90 98
82 89 99
82 89 99
82 87 97
82 89 97
82 88 97
83 87 97
82 87 96
83 87 97
82 87 97
80 87 96
80 87 96
82 87 96
82 86 95
80 87 94
80 88 95
79 87 95
79 87 95
79 87 95
80 87 94
79 87 94
78 85 93
78 84 92
76 82 90
72 79 89
147 172 189
148 172 190
149 170 189
150 172 190
151 174 192
150 176 193
151 177 195
151 178 196
151 178 196
152 178 196
150 178 194
153 179 194
153 180 196
152 177 193
154 178 195
153 178 195
154 178 196
154 180 198
153 179 198
153 180 198
153 178 196
152 178 194
152 178 193
153 178 194
156 180 197
154 180 197
152 179 196
154 180 197
153 180 196
153 179 196
155 180 196
157 179 195
158 181 198
160 182 201
159 184 200
158 185 201
160 188 204
159 187 204
162 188 205
164 188 205
164 187 207
163 190 209
162 190 209
164 191 211
165 193 212
166 195 214
167 198 217
167 197 217
169 198 219
169 199 220
169 199 220
170 199 221
166 201 222
166 203 224
167 202 226
168 205 226
169 205 224
171 204 226
171 204 229
170 205 233
170 206 232
168 206 229
168 205 228
171 205 228
171 205 230
169 203 228
169 205 228
172 206 231
171 208 233
170 207 233
170 206 231
173 205 233
172 207 233
168 207 231
169 208 234
171 207 234
173 207 235
172 205 233
173 206 234
172 208 231
172 208 233
169 206 232
169 207 231
171 208 231
173 206 231
173 207 233
174 209 236
173 209 233
172 207 234
174 208 236
175 209 236
175 208 235
173 211 236
171 211 234
172 211 237
175 210 236
176 211 238
175 209 236
175 211 237
176 210 238
176 211 238
176 211 238
176 213 239
175 213 240
176 213 240
176 211 238
177 213 238
177 213 240
177 214 239
177 216 240
177 216 240
175 216 240
177 217 241
178 216 242
179 215 240
177 216 242
177 218 244
175 216 240
179 218 243
177 217 244
177 219 246
178 220 246
180 221 246
180 221 245
180 219 246
182 218 244
179 219 244
181 219 244
184 221 246
183 221 248
183 224 250
182 222 248
182 223 250
185 224 253
183 223 249
185 223 250
186 223 249
187 222 252
185 223 249
183 225 252
183 224 250
186 226 252
184 225 252
184 226 252
182 225 250
183 225 250
183 226 250
182 225 249
182 225 251
184 224 252
186 222 253
186 222 249
188 225 251
184 224 250
185 223 251
186 223 249
183 224 249
184 226 250
185 223 250
186 225 251
181 225 249
183 227 248
186 225 247
185 222 247
186 223 249
186 222 246
186 223 245
183 224 248
182 226 251
183 225 249
182 224 247
182 224 245
186 224 247
184 224 248
182 224 251
183 221 249
185 221 247
185 222 246
185 222 248
184 221 247
185 222 245
186 223 245
185 222 244
186 222 245
184 222 243
183 223 244
182 224 247
181 224 247
182 224 248
185 224 246
185 223 244
184 223 245
186 224 249
186 221 249
186 223 248
186 224 247
185 223 247
186 225 249
184 226 251
184 227 251
183 226 251
186 224 249
187 227 251
185 227 249
187 227 248
188 226 248
188 223 248
188 226 251
186 226 252
184 226 253
186 228 253
187 227 249
187 227 251
189 229 253
190 230 254
186 230 251
187 233 252
187 231 252
187 230 253
189 231 254
191 229 253
194 230 253
191 229 252
193 227 252
192 227 253
192 232 254
189 230 251
192 233 255
193 233 255
191 231 254
193 231 255
194 233 255
190 234 255
191 233 255
194 233 255
193 231 255
192 235 255
192 234 255
191 233 255
195 235 255
193 232 255
195 233 255
193 232 255
195 235 255
191 232 255
189 230 255
191 232 255
192 233 254
191 234 255
189 234 253
191 234 254
194 233 255
193 233 255
190 234 253
190 232 252
192 232 254
194 232 255
192 231 254
191 230 253
189 230 250
192 232 249
192 231 250
192 230 253
190 231 253
188 231 254
188 231 252
189 229 251
192 231 253
194 229 253
195 228 251
194 228 250
196 227 249
196 229 251
196 229 247
201 232 247
199 228 244
200 230 244
201 228 241
204 229 244
205 230 247
203 228 241
204 226 239
205 226 240
205 226 239
204 227 239
202 227 241
203 226 237
205 227 236
206 224 232
206 224 229
208 226 231
213 225 229
214 220 226
214 220 224
211 221 224
212 224 226
214 224 228
212 225 229
209 226 229
209 227 231
209 227 231
207 229 235
203 228 238
199 229 242
195 227 242
195 227 243
198 226 243
198 226 242
197 226 241
197 225 240
197 223 238
196 221 237
195 221 238
195 219 235
195 219 234
194 220 234
194 219 233
193 218 233
194 220 236
192 220 236
190 218 234
193 220 236
190 222 237
191 221 240
192 222 239
191 221 238
189 217 233
189 218 233
189 219 234
188 215 228
185 212 224
185 208 217
181 203 213
182 203 212
182 202 212
180 198 208
178 196 205
177 196 204
175 193 202
175 192 201
177 191 199
178 190 200
177 190 200
176 191 200
175 190 197
175 188 195
178 187 197
177 189 198
178 191 199
177 190 197
177 189 198
177 189 198
175 188 198
174 188 196
173 188 194
176 190 194
177 190 196
182 192 199
182 192 198
181 191 198
180 190 198
182 194 201
183 195 201
184 195 202
186 196 202
185 195 202
185 195 201
185 193 199
185 190 199
181 192 201
179 191 200
180 191 199
180 189 199
180 191 202
177 194 203
178 196 202
176 197 202
179 197 204
181 201 208
182 204 213
180 207 220
180 211 224
180 210 224
179 208 224
179 208 223
180 207 225
182 207 223
184 206 221
185 206 218
185 202 214
187 202 212
188 201 209
191 202 210
188 198 206
185 194 204
183 191 200
182 190 198
182 189 197
177 186 193
175 184 191
172 181 189
169 179 187
165 175 184
164 175 184
161 172 181
158 172 180
157 170 179
155 167 175
155 166 176
152 165 176
151 165 175
150 165 174
148 162 172
149 162 173
149 161 172
148 158 170
145 157 168
144 157 168
144 158 168
144 155 167
143 152 165
140 149 161
138 147 158
137 145 155
137 146 154
135 144 151
134 142 151
133 143 150
132 142 149
131 141 149
132 140 148
132 139 146
132 139 147
130 138 147
127 137 145
127 138 144
127 136 143
130 137 146
127 135 144
127 135 144
128 135 145
127 135 144
126 134 144
126 133 143
125 133 143
124 132 141
125 132 142
126 132 141
125 133 141
124 133 140
124 132 140
124 131 140
123 131 140
123 131 140
121 131 139
122 132 140
123 130 139
121 130 140
122 129 141
121 128 139
122 131 139
121 129 138
121 128 137
122 128 138
120 127 139
119 127 137
120 128 137
119 127 136
117 126 135
116 128 136
115 127 136
118 126 135
119 125 134
119 125 135
116 125 134
116 125 133
118 126 133
119 124 133
118 123 134
117 124 134
116 125 134
116 124 134
116 124 134
115 124 133
115 124 131
115 123 131
116 123 132
115 123 131
116 124 132
117 123 132
116 122 131
115 122 130
114 122 131
113 122 130
115 121 131
115 122 131
114 120 129
115 121 130
113 120 129
112 120 128
112 120 127
110 120 127
111 118 125
111 117 126
112 117 126
109 117 125
109 117 125
110 117 125
109 117 125
108 115 123
107 115 122
106 114 122
105 114 122
104 113 120
103 112 118
102 111 118
102 109 116
102 108 117
102 109 117
100 109 115
101 108 115
102 107 116
102 108 116
101 108 116
100 108 115
101 108 116
101 108 117
100 108 117
102 109 118
102 107 117
103 107 117
103 108 117
102 107 115
101 109 116
102 108 116
102 108 116
100 108 116
101 109 116
103 110 117
101 108 117
101 108 117
101 110 118
102 109 119
101 108 117
101 108 117
102 109 117
101 107 116
102 108 116
102 109 117
102 109 117
101 108 117
100 108 118
102 108 119
101 108 119
99 109 117
102 109 118
101 109 117
100 108 118
99 109 118
99 109 117
99 108 117
101 107 117
101 109 118
101 108 116
100 107 117
99 108 117
100 108 119
100 108 118
100 108 119
100 107 119
99 108 119
97 108 118
98 108 120
100 107 119
100 108 120
98 108 119
100 109 120
100 108 120
100 108 120
102 108 120
101 109 121
99 108 120
100 109 121
100 109 120
101 110 121
100 109 120
100 109 121
100 110 121
99 110 121
100 110 121
100 109 121
100 110 122
101 110 122
100 110 121
100 110 121
101 111 122
100 109 120
102 110 122
101 109 122
99 108 120
100 109 120
100 108 120
99 108 119
100 109 119
100 107 119
99 107 119
99 107 119
97 107 118
97 107 117
97 105 117
96 103 114
95 103 113
93 102 112
90 100 110
91 99 109
89 97 106
90 96 105
89 96 105
88 95 106
88 94 104
89 94 105
89 94 104
88 94 103
90 94 103
89 94 102
87 95 102
87 95 103
87 95 103
88 94 103
89 92 103
88 92 103
87 92 102
86 93 102
86 93 102
86 93 102
86 94 102
85 93 101
85 94 102
87 94 103
87 93 102
86 93 101
87 94 102
86 93 102
86 94 103
86 93 103
87 94 103
87 94 103
87 93 103
87 94 103
87 93 102
88 93 102
87 93 103
87 94 103
87 93 103
87 93 102
87 93 102
88 94 103
88 93 102
88 94 103
86 93 102
86 95 104
85 94 103
86 94 104
86 94 104
86 93 103
87 93 103
87 93 103
85 94 103
85 94 103
85 93 102
85 92 102
84 93 102
83 93 101
83 92 100
84 92 101
84 92 101
84 92 101
83 92 101
85 92 102
84 91 101
84 91 101
85 91 101
84 91 100
83 90 99
84 90 100
84 90 101
83 89 100
83 89 99
82 89 98
83 90 98
82 89 97
82 89 97
81 88 97
82 88 97
82 88 98
82 88 98
82 87 97
83 87 96
82 87 96
81 88 95
80 87 94
81 87 95
81 88 96
80 87 95
80 87 95
80 86 95
81 86 95
80 86 95
79 86 94
79 85 94
78 83 92
77 82 91
72 79 88
151 171 190
151 170 191
151 171 191
152 173 192
152 174 192
151 176 192
151 177 192
150 178 193
152 178 196
152 177 196
152 179 196
152 180 196
152 178 194
154 178 195
156 180 198
154 180 198
153 180 198
153 181 198
154 180 196
152 181 196
152 181 196
152 178 193
153 179 194
154 176 193
156 178 195
155 178 194
156 180 195
156 178 195
153 179 196
153 180 196
156 179 195
158 181 198
160 184 201
159 184 200
159 184 200
158 185 203
159 187 204
160 188 204
162 192 208
162 189 208
165 190 210
164 191 210
165 192 212
162 193 211
164 195 213
164 197 215
166 197 216
169 200 220
167 199 219
169 199 218
171 199 223
170 200 224
167 201 223
166 202 223
168 202 222
167 203 223
169 202 224
169 203 225
169 206 230
167 206 230
167 206 229
168 207 231
168 206 230
171 205 231
171 205 231
171 206 233
170 207 231
170 207 231
170 208 231
168 207 229
169 208 228
171 207 231
171 207 233
170 207 233
171 207 234
172 206 234
171 205 233
169 205 232
168 207 233
169 208 234
172 207 233
175 206 234
173 207 233
173 205 234
174 209 234
172 209 231
171 210 232
173 208 231
174 210 237
173 210 237
171 208 233
174 210 234
174 210 236
173 211 236
173 211 234
175 211 237
177 210 236
175 210 236
177 211 238
176 213 240
176 214 240
176 214 240
172 212 236
174 214 240
174 214 239
176 212 236
177 212 238
175 212 236
174 217 240
176 216 240
177 214 240
177 215 240
179 215 241
179 214 239
180 215 242
180 216 245
179 215 244
181 217 244
180 216 242
182 220 244
179 218 244
178 219 245
180 219 241
180 220 244
182 219 245
182 218 246
183 219 248
183 220 249
181 219 248
183 221 250
182 218 246
184 221 248
185 221 246
182 222 248
184 223 252
184 224 250
182 225 250
183 224 250
185 223 250
184 223 251
188 225 254
186 222 251
186 222 251
185 224 252
183 225 251
184 225 252
184 225 254
184 226 254
183 225 252
183 225 254
183 225 252
185 225 253
183 226 253
186 226 253
188 225 255
187 225 253
185 227 253
183 226 251
184 225 250
182 225 251
182 227 251
185 225 250
185 225 251
185 222 249
188 221 251
187 222 251
185 222 249
182 222 247
182 224 249
185 224 251
182 224 247
183 226 247
185 225 247
185 223 249
183 221 248
185 223 250
186 222 247
185 222 245
186 223 247
185 222 247
186 223 249
184 221 245
184 222 244
183 222 244
183 223 246
181 224 249
182 224 249
181 224 247
181 224 249
182 224 248
182 224 246
182 224 247
183 224 247
183 223 248
184 220 244
184 223 245
183 223 247
184 226 251
183 225 251
185 223 249
188 225 251
188 225 249
187 225 249
188 227 249
189 227 249
187 226 249
190 228 251
190 225 251
188 227 253
187 228 251
188 229 251
190 227 251
191 228 253
191 229 253
189 228 252
187 230 251
187 231 255
189 231 255
189 230 253
187 231 252
190 230 250
190 227 246
193 231 254
193 232 255
192 232 255
191 230 255
192 231 254
192 230 253
193 231 255
193 231 255
192 233 255
191 234 255
191 234 255
190 234 255
191 233 255
193 234 255
193 232 255
192 234 255
192 235 255
191 235 255
192 236 255
192 233 255
192 233 255
191 233 255
191 234 255
195 238 255
191 234 255
192 233 254
193 233 255
192 234 254
190 234 253
193 233 255
193 231 254
191 232 252
193 232 254
192 232 253
192 231 253
193 230 254
191 229 252
191 232 253
193 230 250
193 230 253
191 231 252
188 231 251
190 231 252
190 229 251
189 229 251
190 231 252
192 229 251
194 231 252
195 229 250
196 229 248
194 230 248
196 230 247
197 228 243
200 230 245
202 230 243
205 230 245
206 226 243
206 226 245
204 226 242
200 226 240
199 227 241
199 226 238
199 227 237
201 224 235
205 225 237
207 225 234
210 224 232
215 223 231
216 224 232
217 223 227
221 224 227
219 222 221
218 221 221
217 222 224
216 223 225
214 223 224
213 226 229
214 227 230
214 228 231
211 227 233
207 230 238
199 228 240
201 229 243
198 226 241
201 227 240
200 228 240
197 228 239
197 225 237
196 221 237
197 221 235
197 220 237
199 220 237
199 220 237
197 219 234
195 219 234
195 222 236
193 220 235
195 219 238
195 219 237
193 221 238
192 221 238
190 223 242
191 224 244
189 220 239
191 219 237
189 217 234
188 217 231
186 214 228
185 212 225
184 209 220
184 207 217
181 201 212
182 200 210
181 199 208
180 198 209
178 196 206
178 195 204
174 192 200
176 192 200
180 192 201
178 192 201
178 191 201
178 190 201
177 187 197
179 189 198
180 189 200
177 187 198
179 189 199
180 189 199
179 188 198
178 188 199
178 189 200
175 188 196
176 188 196
176 188 196
178 190 197
180 192 196
181 191 196
181 191 196
181 193 197
183 194 200
184 194 199
187 196 200
188 196 201
189 195 201
188 195 202
186 193 202
185 194 202
185 196 204
185 196 203
184 192 202
182 192 201
179 195 203
180 198 203
180 197 202
181 199 205
182 197 208
183 203 215
182 207 220
182 210 225
180 207 223
180 206 221
180 207 222
182 207 224
186 208 224
187 207 223
183 203 217
184 204 214
188 203 213
191 202 209
192 202 208
190 199 205
188 195 203
186 192 201
182 190 196
182 191 196
177 185 190
176 182 189
172 178 187
169 177 186
165 175 184
162 174 183
158 172 180
157 171 180
155 168 177
155 167 176
154 166 175
153 165 176
150 164 174
151 163 175
148 162 174
146 162 174
147 161 173
146 160 171
146 161 172
145 160 170
144 158 169
143 156 168
143 154 166
141 151 162
137 148 159
138 148 158
138 145 155
138 144 153
136 143 152
134 142 152
134 143 152
134 141 151
133 140 149
133 140 148
132 139 147
131 138 147
129 138 147
129 137 144
129 137 144
129 137 144
128 136 144
127 135 142
127 137 144
126 135 144
127 135 145
127 135 144
126 134 144
124 134 143
122 133 141
124 133 142
126 133 143
124 132 141
125 133 142
124 133 142
123 133 142
123 132 141
123 133 142
121 132 142
122 130 141
121 131 142
120 130 141
120 130 140
121 130 138
121 130 138
121 130 139
121 128 138
120 128 137
119 129 137
118 127 135
119 128 135
119 127 137
116 127 135
116 129 136
117 128 136
118 126 136
118 126 136
117 127 135
117 126 135
119 125 134
118 125 133
118 125 135
117 125 134
119 126 134
117 125 132
117 123 131
116 124 133
117 124 132
116 124 131
116 124 132
115 124 131
114 124 131
116 124 131
116 123 131
115 122 130
115 124 130
113 122 128
115 122 130
116 121 130
116 121 130
114 120 129
113 121 129
114 120 129
114 119 129
112 117 126
112 117 127
112 117 127
111 116 126
110 117 126
110 116 125
111 116 126
110 115 125
108 114 124
108 115 124
108 114 122
105 113 122
104 112 120
103 111 118
102 111 118
103 109 116
102 108 116
101 108 115
101 110 116
101 108 115
102 107 116
102 108 117
101 108 117
101 108 117
102 107 117
102 107 117
101 108 116
100 107 115
101 108 116
102 108 116
102 109 117
101 109 116
102 109 116
101 109 116
101 110 118
100 109 117
101 109 116
103 108 116
102 108 116
102 108 117
103 107 118
103 109 119
102 109 118
101 108 118
101 108 118
100 109 117
101 110 117
100 108 116
100 108 117
100 108 117
100 109 118
101 109 119
100 108 118
99 109 117
101 109 117
100 109 117
99 108 117
99 108 118
99 109 118
100 108 118
101 108 118
99 107 116
100 108 117
100 108 117
99 108 117
99 108 117
99 108 119
99 108 117
101 107 118
100 108 119
98 107 119
99 107 120
99 107 119
100 107 120
100 107 120
99 108 119
99 109 120
99 109 120
100 108 120
100 109 121
100 108 120
101 109 121
101 108 120
101 109 120
100 109 120
99 109 120
100 109 120
101 110 121
101 109 121
103 109 122
101 109 121
101 110 121
101 110 121
100 110 121
100 110 121
100 109 122
100 109 122
101 110 123
101 110 122
101 110 121
99 109 120
98 109 119
98 108 120
99 107 119
100 107 119
100 107 119
98 107 118
97 107 118
95 105 114
96 105 115
96 104 114
94 101 111
93 100 111
91 98 109
90 97 108
89 96 107
89 96 106
89 94 105
89 94 105
89 94 105
88 94 104
89 95 105
88 95 104
87 94 103
88 95 104
88 95 105
86 95 104
86 95 104
87 93 104
87 93 103
87 93 102
86 93 102
87 93 104
86 93 103
86 93 103
86 93 102
87 93 102
86 93 101
85 93 101
86 93 102
87 94 102
86 93 101
87 94 102
86 94 103
87 94 103
87 94 103
86 93 103
86 94 103
87 93 103
88 93 101
87 93 101
86 93 101
87 93 103
87 93 103
87 93 103
86 93 103
85 94 103
85 95 104
85 94 104
85 94 103
87 94 104
86 94 103
86 94 103
85 95 103
87 94 103
87 93 103
87 93 103
86 93 102
86 93 102
86 92 102
86 92 103
84 92 101
84 92 101
83 92 101
84 91 100
86 92 101
85 92 101
83 91 99
83 92 101
84 92 101
84 91 100
83 91 100
83 91 100
84 90 100
84 90 100
83 90 99
82 90 99
82 89 98
82 89 98
82 89 98
83 89 98
82 88 97
82 89 97
82 88 97
82 87 96
81 88 96
82 87 96
82 87 97
80 87 96
79 88 96
80 88 97
80 87 96
80 88 96
80 87 94
81 88 96
80 87 95
79 87 94
78 87 94
77 85 93
77 85 92
76 83 90
72 80 89
155 175 194
154 176 195
153 178 195
154 176 194
154 175 194
153 178 193
152 179 194
151 180 195
150 178 193
153 179 195
155 179 196
154 180 196
155 181 198
154 180 198
155 179 197
155 180 198
154 181 199
155 181 198
156 182 199
153 181 197
153 181 196
153 180 196
153 180 194
153 180 195
152 179 194
155 180 195
155 178 192
157 179 194
157 180 196
156 181 197
158 181 198
157 182 198
156 183 198
158 185 201
157 184 200
158 185 202
159 187 203
161 188 204
162 190 205
165 193 210
164 189 208
166 191 212
166 192 212
165 194 212
163 193 211
164 195 212
165 197 216
166 196 216
167 196 219
170 198 219
171 199 220
170 199 220
168 200 221
166 201 222
167 202 221
169 203 224
171 204 227
171 204 229
169 203 227
169 205 229
169 205 228
171 205 230
169 205 228
170 206 231
172 205 230
170 205 227
171 207 231
170 205 229
172 207 230
173 208 231
172 207 229
173 206 230
176 206 229
174 205 229
174 204 230
172 205 230
170 207 231
170 208 231
171 208 234
173 206 236
174 207 234
172 207 230
173 208 233
171 208 234
173 210 235
171 210 232
172 211 232
170 209 232
172 208 232
172 210 236
173 210 232
174 211 235
175 210 235
173 212 238
173 212 238
171 211 238
174 212 241
177 211 241
177 211 239
175 211 238
175 211 238
175 210 236
175 211 238
176 214 239
175 213 240
178 213 240
177 211 237
179 215 241
175 215 239
175 215 240
177 215 241
177 217 242
175 216 242
176 216 243
177 216 243
179 214 242
180 216 241
180 216 241
181 217 242
178 216 240
177 218 242
178 219 246
181 220 246
182 220 246
180 220 248
179 219 246
178 220 246
181 221 248
181 222 250
184 221 252
185 222 250
184 221 248
182 223 250
186 224 250
186 223 250
185 221 250
182 222 249
185 226 254
185 222 249
185 224 251
183 223 250
185 223 252
185 222 251
187 222 250
184 225 250
183 225 250
185 224 251
184 224 252
184 226 252
184 227 252
183 225 250
187 226 253
185 224 251
185 226 252
184 224 249
184 226 251
183 225 248
184 227 250
185 225 251
186 223 248
186 223 248
182 224 248
183 226 250
184 224 250
187 221 249
186 221 250
185 223 249
186 224 249
187 224 252
186 222 252
186 222 251
183 222 247
182 225 245
183 224 247
184 222 248
183 224 248
184 223 247
185 223 246
183 221 243
184 223 246
183 222 247
186 224 249
183 224 249
181 223 245
183 227 249
185 224 248
184 221 246
185 224 248
182 226 249
182 226 248
182 224 246
183 222 245
184 223 245
184 222 245
186 224 246
186 224 247
184 224 246
182 224 245
183 225 248
184 226 249
186 228 253
186 226 249
190 228 249
188 227 247
187 226 249
188 225 249
188 225 249
190 229 253
190 227 251
190 229 251
189 228 250
192 228 253
190 227 252
188 228 251
190 230 253
190 230 255
188 228 251
189 230 253
189 228 253
187 227 251
188 231 253
188 232 252
189 233 252
188 231 251
190 230 255
192 229 255
191 232 255
194 232 255
195 234 255
193 232 255
193 231 255
192 231 254
194 232 255
192 231 254
194 233 255
195 236 255
197 236 255
193 235 255
192 235 255
193 235 255
193 234 255
194 233 255
195 235 255
194 233 255
194 232 255
195 233 255
194 233 255
193 233 255
194 234 255
194 234 255
193 234 255
192 235 255
191 232 255
190 234 255
192 234 255
194 233 255
193 230 254
193 232 255
190 232 254
191 233 255
193 230 253
190 230 251
189 235 253
190 235 253
190 232 251
191 230 249
191 230 249
191 229 245
190 231 245
190 230 249
192 229 251
195 229 251
193 228 248
196 228 247
196 227 245
199 228 245
203 228 244
206 227 243
208 229 242
206 227 241
206 226 242
207 228 243
205 226 240
205 226 241
204 226 239
207 225 237
212 226 235
215 226 232
215 226 230
217 225 227
219 222 225
223 225 228
226 225 228
227 222 226
225 221 223
222 222 221
218 224 223
218 227 226
216 228 228
215 227 231
214 228 232
213 230 235
208 228 235
203 228 238
197 227 240
197 228 242
198 227 242
199 224 241
199 224 241
197 223 239
192 222 235
194 223 236
196 223 238
197 223 238
198 222 235
198 222 232
196 220 230
197 221 233
197 221 233
197 221 234
197 223 237
197 224 240
194 224 240
190 223 240
189 221 240
189 220 239
191 218 236
191 216 232
191 214 228
189 215 227
185 211 222
184 208 220
181 202 215
183 201 212
185 201 210
184 198 207
181 197 207
178 195 203
179 194 202
178 193 200
178 193 203
178 193 203
180 195 202
181 195 201
181 191 199
179 190 198
179 191 197
179 190 200
182 191 202
181 191 199
180 191 198
179 190 196
179 190 196
176 188 196
176 189 198
176 189 197
175 190 198
175 192 198
178 192 197
182 192 198
181 191 197
181 191 199
182 192 199
188 194 200
189 193 199
192 195 202
193 197 204
192 197 204
187 193 199
189 196 202
190 199 206
191 198 206
193 197 208
188 197 208
184 197 206
180 196 206
182 198 209
184 199 210
183 201 211
184 204 218
181 205 224
180 206 223
180 207 222
183 206 220
184 206 220
185 206 220
185 204 218
186 203 214
186 202 212
188 202 209
192 201 206
193 200 205
193 200 205
188 197 201
185 193 200
183 191 197
181 191 197
178 188 192
175 185 190
173 181 190
170 178 188
167 177 186
164 176 183
160 175 182
157 172 180
156 170 180
153 167 178
153 167 177
151 166 175
150 165 176
150 165 176
152 166 177
149 162 173
148 162 172
148 162 171
147 160 170
145 161 169
144 160 171
144 157 170
142 157 168
141 153 166
138 151 162
137 150 159
136 148 157
138 146 157
139 143 155
137 143 154
134 143 152
133 142 150
132 141 149
132 140 148
131 141 147
132 141 146
132 139 146
130 139 146
130 137 145
129 137 145
129 138 147
129 135 145
128 135 144
127 135 144
127 136 145
126 135 142
127 135 143
126 135 144
125 135 144
124 134 143
125 134 143
126 133 144
124 133 143
124 133 142
126 133 143
125 133 142
124 133 140
122 130 138
122 133 142
122 131 141
123 131 141
122 131 140
122 131 140
121 130 138
122 131 140
121 130 139
121 130 139
120 129 138
119 129 138
120 129 137
119 128 136
121 128 137
121 127 136
121 127 136
120 126 136
120 125 138
119 125 136
119 127 136
118 127 137
116 126 135
117 126 135
118 125 136
118 123 135
117 125 134
116 124 133
116 125 132
116 125 133
116 124 132
115 123 132
115 124 132
114 124 131
114 124 131
114 124 132
115 124 132
116 124 131
114 122 128
114 123 130
115 123 130
114 123 131
114 121 130
113 121 130
113 121 129
113 121 129
112 119 128
112 118 127
111 117 127
111 116 125
110 116 125
109 115 123
109 116 125
108 116 125
109 116 125
109 115 124
109 115 124
106 113 122
106 113 121
104 112 120
104 112 119
103 110 117
102 108 117
101 106 115
103 108 116
102 108 115
102 108 114
102 107 115
102 108 116
100 106 114
101 108 116
101 108 116
101 107 115
102 108 115
102 107 116
102 109 116
101 108 115
101 108 116
101 108 117
101 108 117
101 109 117
101 109 118
101 108 118
102 108 117
102 108 117
102 108 118
101 108 117
101 109 117
101 108 117
101 108 116
101 108 117
101 108 117
101 108 117
102 108 116
102 108 116
102 107 116
102 107 117
101 109 118
101 108 117
100 109 119
99 108 117
99 109 119
100 108 118
101 108 118
100 108 118
98 108 118
100 108 119
100 107 117
100 108 118
101 107 118
100 106 118
100 107 117
100 108 120
99 108 119
99 107 118
99 107 117
98 108 117
98 108 119
98 108 119
99 108 119
99 108 120
99 107 119
99 107 119
99 108 119
100 109 119
99 109 121
98 109 120
98 110 121
99 109 121
100 108 121
101 110 121
100 109 119
99 110 120
100 110 121
101 110 121
101 110 122
100 109 121
100 110 121
99 110 120
100 110 121
100 110 121
100 110 121
101 111 123
100 110 122
100 109 121
101 109 121
101 108 119
101 109 121
99 108 121
99 109 120
98 109 120
98 108 119
98 107 118
98 106 118
98 105 116
97 105 115
95 104 114
95 104 114
94 103 114
91 100 110
90 99 109
89 97 108
87 97 107
87 97 107
87 96 105
88 95 105
87 95 105
86 96 105
87 95 104
88 95 104
87 95 104
87 94 103
89 94 105
89 95 106
87 94 105
86 94 104
87 94 102
89 93 103
88 93 103
85 93 103
86 94 103
86 93 103
87 93 103
87 92 102
87 93 101
87 94 102
86 93 102
88 92 102
88 92 102
88 93 102
85 93 102
85 94 102
85 93 102
87 94 103
87 93 102
87 93 103
87 93 102
87 94 102
86 94 102
86 94 103
87 93 103
87 93 103
87 93 103
86 93 103
85 93 102
87 94 104
86 93 103
87 94 104
86 93 102
86 94 103
85 93 103
85 93 103
86 93 103
88 93 103
88 93 103
86 92 102
85 92 102
85 92 102
86 92 102
85 92 101
84 92 101
84 92 101
85 92 100
85 91 100
84 92 100
84 92 101
84 90 100
85 91 101
83 92 101
83 91 100
82 90 99
82 91 100
83 91 100
83 90 99
82 90 99
82 90 98
82 90 98
82 89 97
82 88 97
82 89 98
82 88 98
82 87 96
82 87 96
82 88 97
82 87 96
81 88 96
79 88 96
80 87 95
80 88 96
80 87 95
80 87 95
81 87 96
81 87 95
80 86 95
79 87 94
78 86 93
77 85 92
76 82 91
73 79 89
160 176 194
160 177 194
155 176 193
154 177 195
152 177 195
150 177 194
152 176 195
153 178 196
154 178 196
153 180 198
152 179 197
154 179 198
154 180 198
155 181 198
155 181 198
153 180 197
156 181 199
156 182 198
155 180 196
154 179 196
153 180 195
150 180 195
151 180 194
152 178 193
153 180 194
153 179 194
155 179 195
155 180 196
154 178 194
153 179 194
156 181 197
157 182 199
160 185 201
161 184 203
162 185 204
162 187 205
161 187 204
164 189 207
164 189 205
165 190 207
166 190 208
167 193 211
166 193 212
164 195 213
165 194 213
166 194 213
168 194 213
169 195 215
170 197 219
169 198 219
165 199 217
166 202 219
168 201 221
169 201 224
168 202 227
169 203 226
169 204 228
167 204 226
166 205 225
168 205 227
171 205 230
171 205 230
170 206 231
169 205 231
170 206 230
170 207 229
168 206 230
169 206 231
167 207 231
167 207 230
169 208 231
170 207 231
172 207 228
172 206 228
174 206 229
173 206 229
176 206 231
172 207 228
172 207 231
170 207 232
173 207 232
171 206 230
172 207 232
173 207 230
173 207 231
169 208 231
171 210 234
173 209 233
174 210 236
172 208 234
176 210 234
175 211 232
176 211 236
175 209 238
172 210 239
172 212 239
173 211 239
175 210 240
175 210 237
175 211 236
176 212 237
178 213 239
177 213 237
175 214 237
174 213 237
175 212 238
178 212 238
178 212 239
177 211 239
177 215 243
177 214 242
179 214 245
178 214 245
177 214 242
178 217 244
177 218 243
179 216 242
181 216 245
179 217 242
178 220 244
178 219 242
178 219 244
178 217 242
181 219 245
180 221 247
179 220 248
179 220 248
181 222 250
181 223 248
181 223 250
182 222 246
185 222 248
186 220 250
184 221 248
185 222 250
186 222 252
187 223 251
188 222 250
187 222 248
185 224 248
184 226 250
186 225 252
188 225 252
187 224 250
187 226 251
186 225 250
188 225 251
183 224 249
184 227 251
183 225 247
183 226 248
186 224 249
187 225 251
187 223 249
189 224 250
188 226 249
186 223 247
187 225 250
185 223 250
187 225 251
185 223 251
183 223 250
183 225 251
183 223 247
187 224 248
184 225 247
183 227 248
183 224 247
184 222 247
183 222 249
183 225 251
184 225 251
184 223 245
185 222 245
186 223 246
183 224 245
184 224 246
182 223 246
183 223 246
184 223 245
185 224 246
183 224 247
182 225 248
181 222 245
183 222 247
185 220 245
188 221 247
187 222 245
185 222 245
184 222 243
182 225 246
184 225 249
184 221 247
184 223 247
184 222 249
183 226 251
181 224 246
184 227 249
184 226 250
183 226 251
183 226 251
186 225 248
188 227 249
188 227 250
188 227 252
191 227 255
190 228 255
188 227 253
189 228 251
189 229 251
189 230 252
187 229 251
187 227 249
188 229 252
187 230 252
189 230 253
189 229 252
188 231 254
188 230 255
190 231 255
189 232 255
189 232 253
190 233 255
189 233 254
190 234 255
190 233 255
191 232 255
191 230 255
192 231 255
190 232 255
192 236 255
192 234 255
195 233 255
194 233 255
193 233 255
194 234 255
194 233 255
195 235 255
193 236 255
192 235 255
194 234 255
193 233 255
193 233 255
194 234 255
194 236 255
190 234 252
189 234 255
189 235 255
190 235 255
190 232 253
190 234 252
191 235 254
189 232 251
191 231 254
190 232 255
190 233 255
192 232 252
193 233 253
193 231 252
191 231 253
192 231 252
190 231 251
189 231 250
191 232 251
191 231 251
188 230 249
188 229 251
189 232 250
189 233 246
189 230 246
192 230 248
193 230 248
193 229 246
194 229 246
194 229 245
196 230 245
198 231 244
200 230 243
202 230 244
201 232 244
203 229 242
205 227 239
204 227 241
204 229 240
204 226 235
212 227 236
218 226 232
219 228 231
217 230 230
218 228 227
223 228 229
225 226 227
227 225 225
232 227 226
231 225 222
232 226 224
226 226 223
224 229 227
220 229 227
218 230 231
216 229 231
210 229 231
205 231 235
199 229 236
197 230 240
196 228 240
198 227 240
198 227 242
198 225 242
196 224 239
196 223 239
199 224 237
196 224 240
196 224 240
199 223 237
199 223 233
199 224 233
196 222 232
199 222 230
199 225 233
195 224 235
193 225 239
195 224 242
195 224 244
193 221 242
192 220 239
191 218 234
187 214 229
187 214 228
190 212 227
188 211 225
184 206 220
182 204 216
183 201 214
183 200 210
184 200 207
183 199 205
181 196 203
181 195 203
183 195 201
181 193 201
181 193 201
181 194 202
181 195 201
181 194 200
180 194 201
178 192 201
179 192 202
180 192 203
181 192 201
178 192 198
179 192 199
177 190 198
178 191 199
176 189 196
177 189 195
176 190 196
175 191 197
179 192 199
182 193 200
182 192 200
181 192 201
180 193 199
186 196 199
189 197 198
193 199 201
195 197 203
194 198 203
192 197 202
194 199 203
197 201 206
200 203 208
199 204 210
195 202 208
192 199 207
191 200 209
186 197 206
186 199 209
185 202 212
188 206 217
187 208 221
186 209 221
185 206 217
187 207 217
188 206 219
186 204 214
189 205 215
189 203 211
191 202 209
188 200 206
192 199 205
189 196 200
189 196 200
186 195 199
184 192 195
180 189 193
177 186 191
175 184 188
173 181 187
171 180 188
169 177 187
165 177 186
163 176 183
159 172 181
158 172 182
156 168 179
156 167 178
154 167 178
152 166 175
152 166 177
150 165 176
150 163 175
150 164 174
149 164 175
146 160 171
146 159 169
146 158 169
143 157 167
143 157 168
142 155 168
139 151 163
138 151 161
135 148 158
135 147 157
136 146 157
136 145 154
136 145 154
134 144 153
133 143 150
134 142 150
134 142 150
134 142 148
133 140 148
132 139 148
132 139 148
131 139 146
130 139 146
129 137 145
130 137 144
130 137 144
130 137 147
129 136 146
128 135 144
128 135 144
126 135 144
124 135 143
125 136 144
127 135 144
127 133 144
126 134 145
124 135 143
124 134 142
124 133 142
125 133 143
124 133 143
122 132 142
121 133 143
121 133 141
122 132 141
123 131 140
123 131 141
120 130 139
120 131 140
122 131 140
122 130 139
121 129 138
121 130 138
120 128 137
119 128 137
121 128 137
121 127 136
121 127 137
121 126 137
119 127 135
118 128 134
117 127 135
118 126 135
118 126 135
117 125 135
118 125 135
117 125 134
116 125 133
116 125 133
116 124 132
115 125 132
115 124 132
116 125 133
114 125 131
114 124 131
114 124 132
114 122 131
116 122 132
115 121 131
115 122 131
114 122 131
114 122 132
113 121 131
113 121 131
112 120 129
112 120 129
112 120 129
110 117 126
111 117 127
110 116 126
109 117 126
109 116 126
110 116 125
108 116 125
107 117 125
108 116 124
108 116 124
107 114 123
106 113 122
106 114 121
101 108 115
102 108 115
103 107 115
102 107 116
102 108 116
101 108 117
100 107 116
102 108 116
100 107 114
100 107 114
101 107 114
101 108 114
100 108 115
100 108 115
101 107 115
102 107 115
101 108 116
100 108 117
100 107 117
101 107 117
102 109 119
101 108 117
100 109 116
101 108 116
101 107 116
101 108 117
100 108 116
100 109 117
100 109 116
100 108 116
100 108 117
99 108 117
101 108 118
102 107 117
101 107 117
102 108 117
100 107 116
100 107 117
100 108 118
100 108 116
99 108 116
99 108 118
100 107 119
100 107 118
99 108 117
99 108 118
100 108 118
99 108 118
98 107 116
100 107 119
99 107 117
98 106 116
99 107 119
99 107 119
99 107 118
99 106 118
99 108 118
98 108 118
98 107 117
98 107 117
99 107 119
99 108 119
100 108 119
100 107 119
100 108 118
99 108 118
99 108 119
99 108 120
100 109 121
100 109 120
100 110 120
100 109 120
100 109 121
99 109 121
100 110 123
100 110 123
100 110 123
101 110 122
101 110 122
100 109 120
101 109 121
102 109 121
100 109 120
101 110 121
101 110 121
100 110 121
99 109 121
99 109 121
99 108 121
98 108 121
98 108 121
100 107 120
99 107 120
98 106 118
97 105 117
97 105 116
96 104 116
94 103 114
94 103 112
93 102 111
88 96 105
88 96 105
87 96 104
87 96 105
88 96 105
89 96 106
88 95 105
88 95 105
88 96 107
88 96 106
88 95 105
89 96 105
88 95 104
87 95 104
88 95 105
88 94 103
89 95 103
88 93 102
87 93 103
86 93 103
86 94 103
86 93 102
87 93 103
86 93 103
86 94 103
87 94 103
87 93 102
87 93 104
87 93 103
86 93 102
87 93 103
87 93 103
87 93 103
87 94 104
85 93 103
86 94 104
86 94 103
86 93 103
87 94 104
85 93 103
85 93 103
86 93 103
87 93 103
86 94 103
86 94 102
87 94 102
86 94 103
86 94 104
86 94 103
85 94 103
85 94 103
86 93 104
87 94 104
87 92 103
87 92 103
86 93 103
85 93 103
84 92 102
85 93 103
84 92 101
85 92 102
84 92 101
84 92 101
84 92 102
83 92 102
83 91 101
84 91 101
85 91 100
85 92 101
84 91 100
84 91 100
84 91 100
84 91 99
83 90 99
83 90 99
83 90 99
82 89 98
82 89 98
82 89 99
82 89 98
82 89 97
83 88 97
82 87 97
81 88 96
82 88 97
82 88 96
82 87 96
82 87 96
82 87 95
81 87 95
81 86 95
82 87 95
80 87 94
81 87 95
80 86 94
78 84 92
77 84 92
76 83 90
73 80 89
163 178 197
156 175 193
155 177 193
154 178 194
151 178 193
154 177 196
155 177 197
153 176 193
153 178 194
155 178 193
156 178 195
153 178 197
153 179 197
154 180 199
154 179 197
153 182 199
155 181 200
152 179 197
153 180 196
153 180 195
155 181 197
154 181 198
153 179 194
152 178 193
156 179 195
155 178 194
154 181 197
154 180 197
153 179 195
158 181 198
156 181 197
159 184 200
162 185 204
160 184 202
160 188 205
159 187 203
161 188 207
161 189 206
164 191 208
166 190 207
167 190 208
167 191 209
166 192 210
167 194 214
164 192 211
166 195 212
166 195 212
168 197 217
167 197 218
166 199 221
169 199 220
170 199 223
170 199 222
171 201 224
170 205 227
166 204 225
168 203 224
170 206 230
168 205 227
169 204 228
170 204 228
170 204 228
170 206 230
168 206 230
171 206 230
171 205 230
172 205 231
169 205 231
169 210 236
168 209 233
171 208 234
173 207 233
172 206 231
174 208 232
171 207 232
171 207 232
174 206 233
175 206 228
174 206 230
173 208 232
171 207 229
173 210 235
172 209 235
171 207 232
171 211 235
171 211 232
169 208 228
173 209 232
171 211 235
171 211 236
171 209 232
175 210 236
174 209 236
175 211 237
175 210 235
175 210 234
175 211 236
174 213 239
173 213 241
173 212 238
174 212 239
175 211 238
177 212 239
177 211 238
178 210 239
180 212 240
179 214 243
178 213 242
179 214 245
179 213 244
178 214 245
175 215 245
177 212 240
180 215 243
175 214 238
177 219 241
179 218 243
183 219 245
181 217 245
180 220 247
179 219 243
179 218 242
180 219 246
181 220 246
179 220 247
179 219 248
180 223 251
178 222 250
178 222 247
182 225 248
181 224 248
183 222 248
184 222 247
183 223 251
183 224 252
181 223 250
185 222 250
186 224 252
185 225 253
182 224 249
181 223 249
183 225 250
186 224 249
188 224 251
186 223 248
186 225 250
186 227 250
184 226 250
182 225 252
183 228 255
182 227 249
186 225 249
185 221 246
189 227 252
187 224 248
186 222 252
187 224 253
186 223 249
187 224 248
185 223 247
184 225 249
186 225 251
185 224 250
186 224 246
185 222 246
183 222 246
182 222 246
184 222 243
184 225 247
186 224 251
185 222 249
184 221 247
183 221 247
185 224 249
185 222 248
184 221 247
185 222 247
186 222 247
185 225 246
182 225 247
180 223 245
184 222 245
184 225 245
184 227 251
182 223 247
183 224 249
183 223 248
182 222 248
182 222 247
188 225 251
181 222 247
183 227 252
182 224 250
185 221 251
185 223 252
185 224 252
183 225 251
183 226 251
184 226 249
182 226 248
181 226 251
187 231 253
185 228 247
186 227 249
187 229 255
188 227 253
190 227 252
189 227 249
189 230 252
190 231 253
190 229 253
193 232 254
187 229 252
186 229 255
191 231 255
189 228 251
187 231 253
189 232 255
189 233 255
187 231 255
186 229 255
188 231 255
190 231 255
192 232 255
190 233 255
191 233 255
193 235 255
193 230 253
197 232 255
195 232 255
193 231 255
193 231 255
195 231 255
193 235 255
193 234 255
192 233 255
192 234 254
194 232 251
195 235 255
190 233 255
192 237 255
195 234 255
194 231 254
195 229 252
196 232 255
194 234 255
193 234 255
191 235 255
189 236 254
191 238 255
191 236 252
190 233 252
194 232 255
194 232 255
190 233 255
189 233 253
190 233 253
193 232 251
192 231 251
193 231 253
193 233 253
189 232 255
188 232 254
187 231 251
186 229 247
190 231 252
189 230 251
189 230 250
190 228 247
190 228 248
191 226 249
194 226 249
193 226 246
194 229 245
190 226 242
192 227 243
195 230 246
196 227 243
196 229 245
197 231 244
199 230 242
202 230 242
203 230 241
204 230 240
206 228 239
213 230 237
219 228 235
222 229 232
219 227 225
221 225 226
224 227 230
223 228 228
228 231 230
230 230 228
237 227 225
234 227 223
231 230 226
223 228 226
220 229 229
218 231 231
216 229 230
212 231 233
206 233 237
203 229 238
197 226 238
196 227 236
196 226 237
195 227 240
197 227 242
197 226 237
197 227 235
201 223 237
196 223 235
197 226 239
198 227 240
196 224 236
200 225 234
201 226 232
199 223 232
194 223 232
191 221 233
193 227 241
192 226 242
192 225 242
193 223 239
192 219 235
192 217 231
187 214 224
184 212 223
184 210 221
187 210 226
185 209 221
180 207 215
180 204 212
182 204 213
183 200 209
184 198 205
184 198 205
184 196 203
182 195 202
183 197 202
182 196 201
184 196 202
184 198 203
181 196 200
178 194 199
179 193 202
179 193 201
180 192 202
178 192 202
179 194 200
177 193 200
179 192 199
179 190 197
179 189 195
177 187 197
181 190 199
182 191 202
179 192 200
179 192 199
183 193 200
185 190 198
185 191 197
184 194 198
189 195 199
195 197 202
195 198 201
194 197 199
197 200 201
201 204 206
204 207 209
202 205 207
201 205 210
199 205 210
200 207 212
197 206 211
189 201 208
188 202 210
189 204 213
194 208 216
193 208 217
191 208 217
190 207 217
190 205 217
192 205 218
192 204 214
194 204 212
192 202 210
189 199 208
191 196 205
187 196 201
188 196 200
186 192 194
184 191 193
182 189 194
179 185 189
176 184 190
170 180 187
169 181 188
167 181 186
166 179 185
165 175 182
163 173 184
160 174 183
155 170 180
155 170 179
150 167 177
149 165 176
152 168 177
150 165 175
148 162 174
150 162 176
150 162 175
146 161 171
147 162 171
147 161 172
147 158 169
144 158 168
143 157 167
142 154 166
142 152 165
138 148 162
135 148 160
134 147 158
135 145 155
136 145 154
135 146 153
132 144 153
135 144 154
135 142 152
134 140 150
132 141 150
133 143 151
133 142 150
132 141 147
130 139 147
130 138 146
130 138 146
132 138 146
131 137 146
128 136 146
128 137 146
129 136 145
129 136 146
126 135 144
126 135 144
125 135 145
126 135 144
126 134 144
126 133 145
124 134 143
124 135 144
123 133 144
123 132 142
124 134 144
121 133 143
124 132 141
123 133 142
122 134 141
125 133 142
124 129 140
122 132 141
119 130 139
120 131 139
122 130 138
121 128 137
120 129 139
120 130 140
120 128 138
119 127 137
119 128 137
120 127 137
120 127 137
120 128 137
118 127 136
119 127 136
118 126 135
119 127 136
119 126 135
117 126 135
116 127 135
116 126 134
118 124 133
118 124 133
116 124 133
115 124 132
115 124 132
115 124 132
115 123 131
116 123 132
116 122 131
116 122 132
116 123 130
114 123 130
115 123 131
116 121 132
113 121 131
111 121 131
112 122 132
113 121 131
112 118 129
110 117 125
109 117 125
109 117 125
110 118 126
109 116 124
110 117 126
109 116 124
110 116 125
109 115 123
108 115 124
107 114 121
106 114 121
103 112 120
102 111 118
103 110 118
103 108 116
103 108 116
102 107 116
102 108 117
101 108 115
100 108 114
101 108 114
102 108 116
101 107 113
101 108 114
100 108 115
99 109 115
100 108 115
101 108 116
99 107 115
99 109 116
98 108 114
99 109 116
101 108 116
100 107 114
102 108 115
102 107 114
101 107 115
99 108 116
100 108 116
100 107 115
101 108 117
99 107 116
100 108 116
100 109 116
100 108 115
101 108 117
99 108 117
100 109 118
100 108 117
101 108 117
101 108 117
100 107 116
101 108 117
99 107 118
98 108 119
98 109 118
99 108 116
100 107 116
100 107 118
98 107 119
98 107 117
99 108 118
99 108 117
99 108 117
97 107 117
97 107 117
99 108 118
100 107 117
100 108 118
98 107 118
99 107 118
100 108 119
99 108 118
98 109 118
98 107 119
97 108 118
97 108 117
98 108 119
98 110 121
98 108 120
100 108 121
101 108 121
101 108 121
100 108 121
101 110 121
99 109 120
99 110 122
98 109 121
100 110 122
100 110 122
101 109 121
102 109 121
101 110 122
102 111 121
101 110 121
101 110 122
100 109 121
98 109 120
98 110 121
99 109 120
99 108 121
100 108 121
100 107 121
101 107 122
99 105 120
99 108 120
97 106 117
96 105 115
95 104 115
94 103 113
93 102 112
91 101 111
90 99 109
89 99 108
89 97 107
88 97 106
87 97 106
88 96 106
88 96 106
88 96 106
88 96 107
88 96 107
88 96 107
88 95 106
88 96 105
89 97 106
87 94 104
89 94 104
88 94 104
87 94 103
87 95 103
86 94 103
86 93 103
87 93 103
87 93 103
85 94 102
86 94 102
85 93 102
85 93 103
86 93 102
87 93 102
87 92 102
87 93 102
86 92 101
87 94 102
86 93 103
86 93 104
85 94 105
85 94 104
86 93 103
87 94 103
85 94 102
84 93 103
85 94 103
85 93 102
86 94 102
85 94 101
85 93 102
86 94 103
86 94 103
85 92 102
85 92 102
86 95 104
86 94 103
85 93 102
85 94 103
84 93 103
83 93 102
84 92 102
84 92 102
85 92 101
85 92 102
85 92 101
84 91 100
85 92 101
83 91 100
84 92 101
85 92 102
84 91 102
85 92 102
83 91 100
82 91 100
84 91 100
84 91 100
83 91 100
83 91 100
84 90 100
84 89 100
83 88 99
83 88 99
84 90 99
81 90 97
80 90 96
80 89 97
80 88 96
80 89 97
80 87 96
82 87 97
83 87 97
83 87 97
82 87 95
82 86 95
82 87 96
79 86 95
79 87 94
80 88 96
81 85 94
80 85 92
78 84 91
75 83 90
71 79 88
165 180 194
165 180 197
159 177 194
158 179 195
156 179 195
155 178 194
155 180 196
153 179 194
153 179 194
154 178 194
158 180 198
158 181 198
155 181 198
155 180 196
155 182 198
155 180 197
153 181 197
155 180 197
155 180 196
154 181 196
152 179 196
154 179 197
153 179 197
155 181 197
154 181 196
154 181 196
155 181 197
155 180 196
156 181 197
155 180 197
157 182 199
157 182 198
160 184 201
161 186 201
159 187 202
160 188 204
161 188 205
165 190 206
164 192 206
165 191 207
166 190 205
168 193 210
167 192 211
168 194 213
167 195 214
166 195 214
169 197 218
168 199 219
167 200 220
167 200 220
168 199 218
170 200 220
170 201 221
169 201 222
170 203 225
169 203 224
172 205 228
172 204 226
172 205 229
171 203 226
174 204 230
172 204 229
172 205 229
171 206 229
172 205 229
172 206 231
172 206 231
171 205 231
171 208 233
169 206 233
171 206 233
172 206 234
171 206 234
172 206 231
174 207 231
176 207 232
172 206 229
173 208 232
172 206 231
172 208 231
173 209 234
172 208 234
173 208 233
171 207 232
173 206 233
174 208 234
174 208 234
174 208 234
172 208 231
173 209 232
175 209 232
177 210 236
175 210 237
172 211 237
173 212 237
175 210 236
175 212 235
172 211 235
173 213 238
176 213 238
177 212 239
177 211 240
176 213 239
174 212 239
175 214 240
177 213 239
176 214 238
175 214 240
175 216 242
175 216 243
175 215 242
179 214 243
180 217 242
179 216 241
179 217 244
179 217 243
180 217 240
181 217 242
179 216 242
181 216 245
180 218 246
179 219 247
179 221 246
181 221 246
181 221 247
180 221 247
180 222 249
179 223 250
182 222 248
182 223 250
181 223 248
181 223 251
184 222 248
183 223 248
183 224 249
184 225 250
186 223 248
184 225 248
183 227 250
182 226 251
184 226 252
183 222 249
186 223 252
184 224 252
186 225 250
187 223 250
187 223 250
187 224 251
184 226 253
181 224 251
184 226 255
182 226 252
183 226 251
183 226 251
184 225 253
184 225 250
183 226 252
183 225 249
185 225 248
186 226 251
185 222 248
185 222 246
187 224 248
187 224 248
186 222 247
184 222 247
185 223 247
186 223 246
186 223 245
185 223 249
185 222 250
184 221 245
186 223 247
186 222 247
184 223 248
184 224 249
186 223 248
184 220 246
183 221 245
185 223 247
184 221 245
186 225 246
184 225 244
183 223 247
183 224 249
184 224 246
184 223 245
184 224 247
183 225 246
185 224 244
185 226 248
183 225 248
184 224 246
185 226 247
183 224 248
186 223 249
186 224 249
185 226 248
182 226 246
184 226 248
186 228 250
184 227 247
186 229 247
185 228 247
185 230 249
185 228 249
185 228 250
190 230 253
191 228 251
191 229 253
190 228 251
189 229 249
190 232 253
188 230 253
187 229 253
187 232 254
186 230 253
189 230 253
188 231 253
187 230 252
189 233 255
190 231 254
191 231 251
192 234 254
189 232 254
190 233 255
189 231 254
191 231 255
193 232 254
192 231 255
192 232 255
192 235 255
192 235 255
189 234 255
191 233 255
190 233 255
191 234 255
192 234 255
192 233 255
191 235 255
189 235 255
192 235 255
194 233 255
194 232 255
194 232 255
194 232 255
194 235 255
193 235 255
194 235 255
193 232 253
193 230 255
193 231 255
193 232 255
191 232 255
190 234 255
190 234 254
189 231 252
191 232 251
191 230 249
189 229 247
190 234 251
189 230 251
191 232 252
191 231 251
191 233 252
188 232 253
187 230 251
188 231 249
187 229 247
190 228 247
190 228 249
191 229 248
192 229 251
191 228 247
193 229 249
194 228 248
194 226 244
196 227 244
195 229 245
195 227 242
196 229 243
196 229 243
195 228 241
203 228 239
206 227 237
210 228 235
216 230 235
218 230 234
222 232 233
223 231 228
224 229 228
225 228 228
226 228 228
232 230 229
235 230 227
233 229 226
228 230 227
223 228 229
221 229 230
219 231 232
216 231 234
211 231 234
208 229 236
205 228 238
203 225 238
202 227 240
199 225 239
199 226 239
197 227 238
197 227 238
198 227 241
198 224 238
197 225 240
197 226 240
197 226 240
200 225 237
202 227 235
203 226 234
201 222 234
197 219 232
196 221 237
192 220 237
191 220 240
189 221 240
192 221 239
193 218 237
193 217 232
190 216 229
188 215 228
188 211 226
187 210 223
186 211 223
183 208 220
183 206 217
183 204 213
187 204 214
187 202 212
184 202 211
182 199 207
183 199 208
184 196 205
183 197 204
179 197 204
180 196 204
182 195 203
182 193 202
179 192 201
182 192 201
182 192 200
180 193 199
180 192 199
181 191 199
181 190 198
181 191 198
180 191 198
180 192 200
179 192 199
181 193 200
182 194 201
184 194 202
184 193 199
188 192 198
187 191 196
188 195 198
190 195 197
195 198 200
195 199 201
193 200 200
194 201 202
199 204 204
203 207 206
205 207 209
203 206 206
203 207 208
204 207 211
203 206 212
197 203 209
196 202 208
197 204 211
199 207 213
202 210 216
200 209 216
196 206 215
195 205 212
198 205 211
199 205 210
198 203 209
194 199 204
191 197 200
188 195 199
187 193 198
184 191 193
185 190 192
183 189 193
181 187 191
179 184 189
174 182 189
171 181 189
168 181 190
167 180 189
165 178 188
165 176 185
162 175 184
160 176 183
157 170 179
157 168 179
154 167 178
153 165 177
152 164 177
152 165 176
149 166 176
149 163 174
150 162 174
149 162 172
147 161 172
146 160 170
145 158 168
143 158 167
141 155 165
140 153 164
139 151 163
138 148 163
136 148 161
135 147 159
135 146 157
136 145 155
135 145 154
133 145 154
135 144 154
133 143 152
135 142 152
133 142 152
132 140 150
133 140 149
132 139 147
132 141 148
132 140 148
130 138 146
132 139 147
131 138 147
130 138 147
128 137 146
129 137 146
128 136 145
129 137 146
126 135 143
125 137 145
124 136 143
125 135 143
124 134 144
124 135 145
124 135 144
124 135 144
123 134 143
123 135 143
122 134 142
122 133 143
122 132 141
121 132 141
123 131 141
125 130 140
124 131 141
122 131 140
122 130 139
123 130 139
123 129 140
122 129 141
121 129 139
122 129 138
120 128 137
120 129 138
118 129 137
119 129 138
118 129 137
119 128 137
120 127 136
120 126 135
119 127 136
119 127 136
117 126 134
118 127 135
117 126 134
116 124 133
117 125 133
117 124 134
117 123 132
118 124 133
116 124 132
116 124 132
117 123 131
117 123 132
114 123 131
113 124 130
114 123 129
113 122 130
114 123 132
112 122 131
112 121 131
113 119 130
113 119 130
112 119 128
110 118 126
110 119 127
110 118 126
110 117 126
109 117 125
109 117 126
110 116 125
111 116 125
108 114 124
108 115 124
107 114 121
107 114 121
105 111 119
105 110 118
105 109 117
103 108 116
103 108 116
102 108 116
101 108 115
102 107 115
102 108 115
102 108 116
102 106 116
102 107 116
102 108 116
99 107 115
99 108 116
100 108 115
101 108 115
101 109 116
100 109 116
100 108 116
100 108 117
100 107 116
102 107 117
102 107 116
101 108 116
101 108 117
101 108 116
101 108 116
100 108 116
100 108 117
102 108 116
101 107 115
103 108 117
102 107 115
101 108 116
100 108 117
100 108 117
100 108 116
100 107 116
100 107 116
100 108 117
99 108 117
99 108 118
99 108 117
99 108 117
99 108 118
99 107 118
99 107 118
100 107 117
99 107 117
98 108 117
98 108 116
98 107 116
99 107 118
100 106 118
100 106 118
100 106 117
99 106 118
99 107 119
99 106 119
98 106 119
97 107 118
98 109 120
96 109 118
97 109 118
99 109 117
99 108 118
99 108 119
99 108 119
101 108 120
101 108 121
99 109 121
99 108 121
100 109 120
100 110 121
100 110 121
100 111 122
99 110 121
101 110 122
101 110 123
101 109 122
101 110 121
100 109 122
100 109 123
100 109 122
100 110 122
100 109 121
100 110 122
99 109 121
99 109 121
98 108 120
99 108 121
98 108 119
98 107 119
98 107 119
98 106 118
97 105 117
96 104 116
94 104 114
94 102 112
92 100 112
91 100 111
88 98 108
89 97 108
89 97 106
88 96 105
88 96 105
88 97 106
88 97 106
88 96 106
88 96 106
88 96 107
88 95 105
88 96 105
88 94 105
88 94 105
89 95 105
87 95 104
86 94 103
86 94 104
86 94 103
87 94 103
86 93 102
87 94 103
86 94 102
86 94 102
85 93 102
86 93 103
87 93 102
85 93 102
87 94 103
86 93 102
87 93 102
87 93 103
87 93 103
86 93 103
85 93 104
85 93 103
86 94 103
86 94 102
87 94 103
87 94 103
87 93 103
86 93 103
86 93 103
85 93 103
86 94 103
87 94 104
87 93 102
86 93 103
84 94 103
85 94 103
85 93 102
86 94 103
85 94 103
84 94 103
84 93 102
85 92 102
85 93 103
85 93 102
85 92 101
85 92 101
84 92 101
84 92 100
85 92 101
85 92 100
84 92 101
84 91 101
83 91 100
83 91 100
84 91 100
83 91 100
82 90 99
83 90 99
83 90 99
83 90 99
82 90 99
83 90 99
83 89 99
82 89 98
83 90 98
83 88 98
83 88 97
82 88 97
81 89 97
80 88 97
81 88 97
81 88 96
81 87 96
80 87 95
81 88 96
80 87 95
80 87 95
80 88 95
79 86 94
79 86 94
77 86 93
76 84 92
75 83 90
72 80 88
165 184 198
160 181 196
160 181 198
157 181 197
157 180 197
157 180 195
156 180 195
153 179 193
156 183 197
153 182 195
155 182 196
154 180 196
155 181 196
159 181 199
157 180 197
156 180 197
155 181 198
154 180 196
156 181 197
154 181 197
153 180 197
153 180 198
152 180 195
153 181 196
154 180 196
156 180 197
158 182 198
158 181 196
159 181 197
159 180 199
162 182 202
162 183 203
161 183 201
162 186 200
162 188 202
163 190 208
163 190 209
164 191 208
163 190 204
167 192 207
168 192 208
166 192 208
168 195 212
166 195 211
166 196 212
169 198 215
166 198 216
167 200 218
168 199 216
170 199 219
168 200 220
168 201 220
168 201 221
169 202 223
168 201 223
170 202 222
172 202 223
171 202 226
168 204 227
170 204 228
174 203 229
172 203 230
172 205 229
172 206 230
172 205 230
172 206 230
173 206 232
171 207 231
170 205 229
173 205 230
175 205 232
173 207 232
172 208 233
172 206 230
170 206 228
174 208 232
175 205 232
175 206 231
173 207 231
172 208 232
170 209 232
171 211 236
172 209 234
172 208 233
174 208 234
175 208 234
175 210 237
175 209 238
175 208 238
176 208 236
176 208 234
177 210 236
176 209 236
177 210 239
178 211 239
176 212 238
172 211 234
172 212 236
177 212 239
179 211 241
176 211 235
174 212 236
177 213 236
177 211 238
179 214 239
177 213 240
177 214 240
176 214 238
177 216 241
175 215 241
175 216 242
177 217 239
180 217 241
179 215 241
178 216 240
180 217 244
180 215 244
182 217 245
180 217 243
181 220 245
181 219 246
179 217 242
181 219 246
181 219 245
184 221 248
182 219 247
183 221 248
181 221 246
185 222 248
183 219 247
183 221 247
181 221 245
184 223 246
184 223 247
185 221 249
185 221 248
187 225 251
183 221 248
182 223 249
183 225 251
183 225 250
184 225 250
183 224 248
185 225 252
183 225 251
183 224 248
184 225 249
187 228 254
185 225 250
184 224 249
186 223 252
183 225 251
184 225 251
187 225 252
186 226 253
183 225 251
183 225 252
183 226 251
184 227 253
182 225 249
184 227 249
184 226 248
183 225 247
183 224 247
184 225 247
185 225 247
185 225 248
184 223 246
181 225 247
180 222 249
182 222 251
186 222 248
186 224 247
185 224 249
183 225 250
182 223 247
184 224 247
183 222 244
183 227 247
182 224 245
183 222 245
185 223 245
185 223 244
184 225 248
184 224 245
183 225 244
183 224 242
185 225 245
184 224 245
185 224 246
182 225 247
183 223 247
185 225 247
184 227 246
184 226 247
186 223 247
189 223 249
185 225 247
185 226 248
188 224 250
187 226 247
187 226 250
187 225 249
186 226 249
185 228 250
186 229 251
188 228 251
190 228 253
189 227 251
190 229 251
190 229 254
188 230 254
188 227 253
190 227 253
189 229 252
187 228 251
189 230 252
186 230 252
186 233 254
188 235 255
187 231 255
189 231 255
192 232 253
190 231 251
189 234 255
188 233 254
191 234 255
189 230 253
193 236 255
191 235 255
190 234 255
192 233 255
192 231 255
193 233 255
192 232 255
191 233 255
193 235 255
193 234 255
192 232 255
190 232 255
192 235 255
190 233 255
192 232 254
192 233 255
192 236 255
191 236 255
192 233 255
194 232 255
194 232 255
193 232 252
193 232 253
193 231 253
191 230 255
190 233 255
189 231 253
189 232 255
191 234 255
190 234 253
190 234 253
190 232 251
191 230 253
191 232 254
190 230 251
191 231 251
190 231 252
187 231 253
186 230 251
188 231 249
190 229 247
192 231 249
189 232 252
189 227 246
188 227 247
189 229 249
188 227 247
188 227 247
190 227 246
193 225 245
195 229 248
196 226 246
199 229 247
198 227 242
198 230 243
199 228 242
198 227 241
203 230 239
206 228 237
213 229 237
220 230 234
225 229 232
225 229 231
225 229 231
226 230 230
232 232 231
235 232 231
230 232 232
224 232 230
221 231 232
222 230 232
220 229 231
220 229 234
215 228 234
210 228 234
207 228 235
206 225 236
206 226 236
204 226 235
201 225 236
200 224 238
201 227 240
202 226 238
202 227 238
202 225 240
200 224 240
203 224 241
205 225 240
204 224 235
204 224 230
203 224 231
202 222 232
201 222 236
200 222 240
196 220 238
193 220 235
191 220 233
194 219 234
191 214 231
191 213 229
189 214 226
190 212 226
190 212 226
187 211 224
187 209 223
188 207 219
189 208 218
190 207 217
189 204 214
188 204 214
185 200 210
186 200 210
185 199 208
184 196 204
185 195 206
184 195 205
184 194 202
181 193 201
180 194 202
179 192 200
182 195 202
182 194 203
182 195 203
183 193 202
184 193 202
183 194 202
181 192 200
182 193 202
183 193 203
186 194 202
188 195 202
188 194 202
189 195 200
187 194 199
189 195 199
190 194 196
194 196 199
196 198 200
197 199 201
197 200 201
198 203 204
200 204 206
205 205 205
207 207 206
211 209 211
208 208 211
207 209 211
203 206 207
205 207 209
205 205 209
206 208 214
205 209 213
204 208 211
203 206 209
200 204 207
200 206 208
200 204 208
197 203 206
194 200 203
192 199 202
189 196 199
187 193 197
185 191 196
182 188 192
181 188 191
180 186 190
179 185 189
176 183 189
173 181 188
169 181 187
166 180 186
166 181 187
165 180 187
164 179 187
161 174 183
159 174 180
156 173 179
154 172 179
154 170 177
153 168 179
150 165 176
149 166 176
147 164 174
148 164 174
148 163 172
147 162 170
147 161 170
145 159 167
144 158 167
140 156 166
140 154 164
141 154 164
139 151 163
137 147 162
135 146 159
135 147 158
134 146 156
134 144 155
134 145 154
132 145 153
131 144 153
133 144 154
134 143 153
132 142 152
132 142 151
133 142 150
132 141 150
130 141 148
131 141 148
130 140 147
129 139 146
131 139 147
130 139 147
128 138 146
128 137 146
128 137 147
127 135 145
127 136 145
126 137 147
126 135 144
128 134 143
127 135 144
124 134 144
125 134 143
125 134 143
124 134 143
122 134 143
122 134 143
122 133 142
124 133 143
124 133 143
124 133 143
123 132 141
122 131 141
123 130 141
124 130 141
123 128 139
123 129 140
122 130 140
121 131 141
120 130 139
120 131 140
120 129 138
121 129 139
120 129 138
120 128 138
119 127 136
119 128 137
119 127 137
119 125 137
120 125 137
119 126 137
118 125 135
119 124 134
119 125 135
117 124 134
117 125 134
115 125 133
116 124 132
117 124 133
116 124 131
116 123 131
116 124 132
115 124 133
115 123 132
113 122 130
115 123 131
115 121 130
116 122 132
114 120 129
114 121 130
113 119 129
112 120 129
111 119 128
110 118 127
110 117 126
111 116 126
111 118 127
109 117 125
110 117 125
109 116 125
106 115 125
107 115 125
109 115 124
107 113 121
105 111 119
104 111 119
102 109 117
102 108 118
102 108 117
102 108 116
102 107 115
102 108 116
100 108 116
100 107 114
101 108 117
100 106 117
101 107 116
100 107 115
99 108 115
99 109 115
100 108 116
99 107 115
100 108 116
100 108 116
100 107 115
101 108 116
101 108 117
101 108 117
101 107 117
100 107 116
101 108 116
99 107 116
99 108 116
100 108 116
102 108 117
100 107 116
100 108 117
100 108 116
99 107 115
99 108 117
98 108 117
98 108 117
100 108 117
100 107 117
99 108 116
98 108 116
98 108 117
100 108 117
100 108 117
99 107 117
99 108 118
99 108 117
98 108 116
99 107 116
98 106 116
100 108 117
99 107 117
99 107 117
97 107 117
98 108 118
98 108 118
98 106 117
98 107 119
97 108 119
97 108 120
98 107 118
99 108 119
99 108 118
98 107 117
99 107 118
99 108 119
99 109 120
98 108 119
100 108 120
99 108 121
97 109 121
98 109 120
99 110 120
98 111 121
98 110 121
98 110 121
99 110 122
101 110 122
100 110 122
98 110 121
99 111 123
99 110 121
100 111 122
99 110 120
100 111 122
99 109 121
98 110 122
98 109 121
98 109 120
99 108 120
98 108 119
98 107 118
98 107 118
98 107 118
98 105 117
97 105 116
96 104 115
95 104 114
93 102 112
93 100 112
92 99 111
90 98 109
90 96 107
91 97 107
88 96 105
88 96 105
89 97 106
88 97 107
88 96 106
88 97 107
90 96 107
90 95 107
88 96 106
89 96 106
89 95 106
88 95 105
86 94 104
86 95 104
86 95 105
87 94 105
86 93 102
87 94 104
85 93 102
86 93 102
87 94 103
85 93 102
85 93 102
85 92 101
86 93 102
86 93 102
86 93 102
86 93 101
86 93 101
85 94 102
85 94 102
86 94 103
85 94 103
85 94 103
84 94 103
84 94 103
86 93 103
87 93 103
87 92 102
86 93 103
86 94 104
85 94 103
85 94 104
87 94 103
87 94 103
84 94 102
85 94 103
85 94 103
84 93 103
84 94 104
84 93 103
84 93 102
85 93 102
86 92 102
86 91 101
86 91 101
85 92 100
84 92 101
84 92 102
84 91 102
84 91 101
84 91 102
84 92 101
84 91 100
84 91 100
84 91 100
84 90 100
84 90 99
84 91 99
83 90 98
82 90 99
82 91 99
83 90 100
83 89 99
83 89 98
82 89 97
82 89 98
82 88 98
81 87 97
79 88 97
80 89 97
81 89 96
80 88 96
79 87 96
80 87 95
80 87 96
80 87 95
79 87 95
80 87 96
81 85 95
79 86 94
78 86 94
77 84 93
77 82 91
73 79 89
167 183 200
165 184 201
161 180 198
159 182 198
157 180 196
158 180 196
156 180 196
154 182 197
153 183 198
154 182 198
156 183 199
154 181 196
156 182 198
155 180 195
159 181 197
157 180 196
156 181 196
155 181 196
155 182 195
155 180 196
156 181 197
155 182 196
154 182 197
152 180 195
157 181 200
159 180 200
159 181 200
158 182 199
157 183 199
159 185 203
159 185 203
162 186 204
162 187 203
166 187 204
165 189 206
165 190 208
164 190 207
164 192 208
165 191 209
166 192 210
166 191 209
167 193 211
165 193 211
168 194 214
170 197 215
168 197 215
170 197 216
173 197 218
171 199 216
169 200 216
169 200 218
168 202 221
167 203 222
168 202 221
168 202 223
169 203 222
169 203 224
171 206 230
171 205 230
170 205 229
168 205 229
171 205 231
168 205 229
169 205 231
172 206 231
172 206 232
171 206 229
172 206 234
172 204 233
173 205 234
171 203 230
172 205 232
173 208 232
171 208 229
172 208 229
173 206 228
173 208 231
173 207 229
174 211 235
172 210 233
171 209 233
171 210 234
175 209 235
174 209 232
175 210 232
174 213 237
171 211 235
173 211 236
174 211 236
175 210 237
176 211 236
176 210 234
177 211 237
177 210 237
176 211 239
176 212 237
175 210 235
178 213 239
177 214 238
174 210 234
176 212 239
176 214 241
174 214 241
174 214 241
176 215 241
176 214 241
175 215 240
175 216 240
176 216 240
178 217 245
177 214 241
178 214 239
181 215 241
180 217 241
178 217 238
178 218 243
179 218 243
181 217 244
180 218 245
181 218 245
178 219 245
178 220 244
177 219 245
180 221 249
183 220 249
183 219 247
182 221 246
185 222 248
184 221 246
184 223 248
185 223 245
183 222 244
182 224 246
179 225 249
181 225 251
183 225 251
185 222 246
183 224 246
182 224 248
184 224 249
186 225 252
184 223 251
185 224 253
185 223 251
184 225 250
184 227 251
184 225 248
186 225 249
185 227 248
185 227 250
182 226 251
183 223 252
186 225 255
186 222 252
186 224 249
186 224 249
187 226 252
185 225 251
183 224 251
182 224 249
182 224 249
185 225 247
185 227 246
184 227 247
184 226 247
185 222 247
185 222 246
187 221 248
187 222 251
184 223 250
183 224 248
185 224 245
185 225 245
182 224 245
180 222 247
182 223 248
183 223 249
183 225 248
185 225 247
187 223 246
187 224 245
185 225 247
188 225 249
185 221 247
182 225 247
184 227 246
185 225 245
187 224 245
185 225 246
183 225 246
182 225 247
184 226 249
184 225 248
185 222 245
190 224 247
189 222 245
188 224 246
188 226 248
187 226 250
185 225 247
186 226 246
185 229 249
185 229 250
185 228 251
186 229 251
187 231 253
186 228 251
188 227 250
186 226 249
189 229 251
190 228 251
191 229 253
189 227 254
190 227 254
191 230 253
187 230 251
189 232 253
187 231 251
185 229 251
188 232 254
189 233 254
189 233 253
190 236 255
190 235 254
191 234 255
192 232 255
190 231 255
189 233 255
189 231 254
193 232 255
193 233 255
193 236 255
193 231 252
194 233 253
193 234 253
191 235 253
188 236 255
190 234 255
192 233 255
194 232 255
194 233 255
193 233 254
195 232 254
193 234 253
190 232 252
192 236 255
191 234 254
194 233 255
194 231 255
192 232 253
191 230 248
191 234 255
190 234 255
191 234 252
191 233 253
191 230 253
190 230 254
189 234 254
189 233 252
191 232 251
191 231 251
191 232 252
188 230 252
189 232 255
189 231 255
188 230 253
187 230 251
189 228 249
192 229 248
188 226 245
187 228 246
189 231 249
190 231 250
189 225 247
189 227 249
189 227 247
190 227 249
190 228 248
191 228 246
194 226 246
194 227 243
195 229 245
195 226 242
197 226 243
197 229 243
198 228 241
203 228 239
206 228 237
210 230 235
217 232 235
220 230 232
226 231 233
228 232 235
228 232 234
230 233 236
228 232 232
225 231 232
224 231 232
224 232 233
223 231 232
223 233 234
218 231 231
217 229 233
216 228 233
213 226 231
209 225 233
207 227 234
206 226 234
205 225 236
206 224 236
205 225 233
203 227 235
203 227 235
203 225 235
203 225 236
208 224 234
209 223 230
209 226 230
206 222 230
204 223 230
203 223 232
201 221 232
201 221 233
197 217 229
193 217 232
191 220 235
191 217 233
192 216 232
190 216 228
186 213 226
188 213 227
189 212 224
188 210 223
189 209 221
189 206 217
190 207 216
190 208 215
189 207 214
188 203 210
190 199 209
186 200 207
186 201 207
186 196 207
185 196 205
186 196 204
185 195 202
185 194 201
185 195 202
183 195 203
183 196 205
183 197 207
181 196 205
183 197 206
186 196 204
187 195 204
187 195 204
187 197 205
187 197 204
187 197 205
189 196 202
190 196 203
191 195 201
193 195 201
193 195 200
193 196 198
197 198 200
200 199 202
202 202 205
202 202 205
205 204 204
210 206 208
209 208 211
210 211 212
212 213 214
212 211 213
212 212 214
210 209 211
210 211 214
209 211 213
205 208 210
204 207 208
201 204 206
202 205 207
198 202 204
198 203 204
195 201 203
194 201 202
190 196 198
191 193 198
185 189 193
182 188 192
179 185 189
180 186 188
179 185 187
176 181 186
173 182 186
171 180 184
167 179 183
166 178 185
166 178 187
164 177 186
164 174 186
164 171 184
161 172 181
156 172 180
155 171 179
154 169 177
152 167 173
151 166 173
149 164 173
149 164 175
148 160 173
147 162 172
147 162 171
146 160 169
143 158 167
145 158 168
143 157 166
140 154 164
140 152 164
140 150 163
140 148 161
137 148 158
136 148 158
135 146 157
134 144 156
134 144 156
133 143 156
131 143 155
134 143 154
132 142 154
132 144 154
130 142 152
131 142 153
131 141 150
131 141 150
130 139 148
131 140 148
132 139 147
131 138 146
130 140 147
129 139 148
128 136 146
129 137 146
129 137 145
128 137 145
126 135 144
127 136 146
126 135 146
126 133 145
125 134 145
125 134 145
125 134 143
125 134 142
125 134 143
122 133 142
122 134 144
122 132 142
124 132 142
123 131 141
122 132 142
122 132 142
122 131 143
123 131 143
122 131 141
122 131 140
121 131 140
120 131 140
120 130 139
121 130 139
121 130 139
120 129 138
118 129 137
118 130 138
118 129 137
119 129 138
118 127 137
119 126 137
120 127 138
118 126 137
117 127 136
118 127 136
118 125 134
119 125 134
117 125 133
117 125 134
116 124 133
116 124 133
116 124 132
114 124 132
113 124 132
115 124 133
114 123 131
117 123 131
116 122 131
116 122 131
116 121 131
115 121 131
113 120 130
111 120 128
112 120 129
111 119 127
110 120 128
109 119 127
108 118 126
109 117 125
110 117 126
111 117 126
111 116 125
109 116 125
108 115 124
107 114 124
105 114 123
105 113 121
105 111 121
103 109 120
102 108 118
101 107 117
102 108 117
101 107 115
100 108 116
100 107 116
101 106 115
100 107 114
100 107 116
100 108 117
100 107 116
100 107 115
101 108 115
100 108 115
100 109 117
99 107 115
100 107 116
101 107 115
101 107 115
100 107 116
100 107 118
100 107 117
102 107 116
102 107 116
101 108 116
100 108 116
100 107 116
100 107 116
100 107 116
101 107 117
101 108 117
100 107 117
100 107 117
100 107 117
100 107 118
100 108 117
100 108 117
100 107 117
100 107 116
100 107 116
101 108 116
99 108 115
99 108 117
100 106 117
99 107 118
97 107 117
97 107 117
98 107 116
98 108 117
99 107 117
98 107 118
98 108 118
97 107 117
97 107 117
98 107 118
98 107 118
98 107 118
97 107 118
98 108 119
98 108 118
97 108 118
97 108 120
98 108 120
99 108 120
99 109 120
97 108 119
97 109 121
97 109 121
97 110 121
98 110 120
99 110 120
100 109 120
100 110 121
100 109 120
100 110 121
100 110 122
100 110 122
100 110 122
100 109 122
100 110 122
100 110 123
100 110 122
98 110 121
99 109 120
100 108 122
99 108 121
97 108 119
98 108 119
99 107 118
99 107 118
98 106 119
98 105 118
98 106 117
97 106 116
95 104 114
93 103 112
94 102 112
93 101 110
91 99 109
91 99 110
89 97 109
89 97 108
88 97 107
87 97 107
88 97 107
88 97 106
88 97 106
88 97 108
89 97 109
88 96 108
88 97 108
88 97 107
88 96 107
87 95 106
87 95 107
86 95 105
87 94 105
86 94 103
85 95 104
85 95 105
86 93 104
86 93 103
87 93 102
87 93 102
86 92 102
87 93 102
86 93 102
86 94 102
87 94 103
86 92 101
85 93 102
86 94 103
87 93 103
86 93 103
85 94 103
85 93 103
85 94 103
85 94 102
86 94 103
87 94 104
86 93 103
85 94 103
83 95 103
84 94 102
85 95 104
85 93 102
86 94 103
86 93 103
86 94 103
85 93 103
85 93 102
86 93 103
84 93 102
84 92 101
85 92 102
86 92 101
87 92 102
86 92 102
84 92 100
85 92 101
85 92 102
85 91 102
84 90 100
85 91 100
83 92 100
82 92 100
84 92 100
83 91 99
82 91 98
84 91 99
83 91 99
81 91 99
81 91 99
82 91 100
83 90 99
82 89 98
83 90 98
82 89 98
83 89 98
83 88 99
82 89 98
81 89 97
80 88 97
81 88 97
81 88 97
80 88 96
80 88 95
80 87 95
79 87 95
79 87 95
79 87 96
79 87 96
79 87 95
79 85 94
77 84 92
76 83 91
72 80 89
171 186 199
168 184 198
164 181 196
162 182 197
159 182 196
156 182 196
155 182 196
154 183 196
154 183 196
156 182 196
155 180 196
157 179 195
157 179 196
156 181 199
154 182 197
153 182 197
155 182 197
156 183 195
156 182 196
158 180 197
160 180 197
158 182 197
155 182 196
155 181 197
158 182 198
160 181 199
161 183 202
160 183 201
159 187 203
161 187 203
165 187 204
166 185 203
165 186 204
163 187 204
165 189 206
162 189 206
165 193 210
163 194 211
162 192 209
164 193 212
167 194 213
167 195 212
167 197 213
168 196 214
169 195 213
171 197 216
171 197 217
171 199 222
167 198 217
168 202 217
167 201 216
167 201 219
169 202 220
168 202 219
168 202 222
169 203 221
169 203 222
171 203 226
172 203 229
171 205 231
171 205 229
172 205 227
170 204 226
172 206 227
170 204 225
171 206 229
172 206 229
172 205 231
171 204 232
173 205 234
176 206 231
174 205 229
173 205 231
173 208 230
175 208 232
177 206 231
172 207 230
175 210 232
174 208 233
174 208 234
174 208 235
171 210 236
172 210 237
172 210 239
173 209 235
174 209 233
174 211 235
173 213 237
172 211 234
177 212 235
176 211 236
177 212 237
178 213 237
177 213 238
175 213 239
176 211 237
178 213 238
177 213 238
173 214 238
174 214 238
176 214 241
177 211 239
175 211 239
177 214 241
175 214 239
177 212 239
176 213 241
176 215 241
176 216 241
178 215 242
179 216 241
178 217 240
177 216 239
180 217 242
181 216 241
179 215 239
181 218 242
182 217 243
182 218 245
183 218 245
183 219 247
183 220 247
180 220 246
179 220 245
180 221 246
183 220 245
181 220 246
182 222 247
181 221 248
182 221 247
181 223 245
181 222 244
181 224 248
182 226 248
181 223 247
182 224 248
185 222 247
185 223 250
184 224 251
184 226 251
183 225 251
182 224 249
184 226 251
184 225 250
184 226 252
183 225 250
183 225 249
184 226 249
185 227 251
184 228 251
181 226 251
185 227 255
186 223 253
187 224 252
188 225 253
185 225 251
186 225 251
186 225 251
185 226 251
183 227 247
187 227 247
186 225 245
186 225 246
188 224 246
190 224 247
189 226 248
186 225 247
188 222 248
188 220 247
185 222 246
183 225 244
185 225 244
187 224 246
183 225 245
184 224 250
185 222 249
184 224 251
184 224 247
184 225 246
188 225 247
187 224 248
187 225 249
187 225 248
186 226 251
184 226 248
187 226 250
188 226 249
188 225 247
184 225 246
185 228 251
183 226 248
185 227 249
186 226 248
190 225 249
189 225 249
186 228 249
182 227 248
185 226 249
188 226 251
189 228 253
190 228 251
190 228 250
187 230 251
185 227 249
189 230 252
189 229 252
190 228 251
190 229 254
191 232 255
190 233 255
190 232 254
191 230 250
192 231 252
191 229 253
190 229 253
186 230 251
188 231 255
190 232 255
191 232 253
191 232 251
189 232 252
189 234 250
190 235 254
190 234 254
190 234 255
189 232 255
191 235 255
188 233 252
189 234 255
191 234 255
191 233 255
190 233 255
194 235 255
193 234 255
192 233 255
192 232 254
192 234 255
193 232 255
194 233 255
192 233 255
191 235 255
192 235 255
193 233 254
193 235 254
192 234 255
190 235 255
189 236 255
191 231 255
194 231 255
195 234 255
195 236 255
194 235 255
195 236 255
197 236 255
197 233 255
195 234 255
195 236 252
195 237 253
195 235 254
194 237 255
192 237 255
194 235 253
195 234 255
194 233 255
193 233 254
193 235 254
193 236 255
191 234 253
193 234 253
193 230 251
194 233 255
191 232 250
193 232 252
195 232 253
195 230 251
193 232 250
193 232 249
191 232 248
192 232 249
194 231 249
196 230 248
198 233 249
198 231 247
200 231 247
202 232 248
203 233 249
206 234 247
207 233 244
210 232 243
211 232 240
220 235 240
223 235 240
226 237 242
229 239 242
227 236 240
227 236 239
226 237 239
228 236 238
229 237 239
229 234 237
228 237 238
224 234 236
223 236 240
222 236 240
219 235 240
217 230 238
216 229 238
218 230 238
218 230 238
215 230 237
216 232 237
214 229 239
214 227 235
216 228 236
215 224 234
218 225 234
217 225 230
212 224 230
210 224 229
205 223 227
206 226 231
204 224 230
201 223 231
197 220 230
195 221 233
192 221 233
193 220 235
194 219 236
192 217 233
194 219 236
193 216 233
195 217 232
195 215 228
192 212 223
194 211 222
193 210 219
193 212 219
194 211 218
194 209 217
193 204 215
190 205 213
187 205 211
185 203 212
189 203 214
187 200 210
190 199 209
190 198 209
188 199 208
187 200 210
195 208 219
197 209 218
195 209 217
194 208 216
195 210 217
193 207 215
198 210 218
196 206 215
197 207 215
197 207 215
199 209 215
199 210 212
199 208 211
200 206 210
203 206 209
205 209 211
208 211 213
211 213 215
214 214 217
218 217 218
220 216 217
221 217 217
220 220 220
218 222 223
218 221 223
217 220 222
220 220 222
222 221 224
221 222 224
218 221 223
216 219 221
212 216 217
213 216 218
211 216 217
211 214 217
209 212 217
205 208 214
203 208 213
201 207 212
199 202 207
196 199 203
193 197 202
190 196 201
187 194 196
184 193 194
180 190 193
179 190 194
179 188 194
181 187 195
177 185 194
174 185 194
171 186 194
171 185 194
171 182 193
171 182 194
167 182 192
165 181 191
162 180 188
161 176 185
160 176 184
156 174 182
154 171 182
153 168 179
153 166 178
151 166 177
148 163 173
147 161 171
145 158 168
143 156 166
142 156 166
143 156 165
141 151 164
139 150 163
138 148 159
140 148 158
138 146 156
138 147 160
134 146 158
134 144 156
136 144 157
135 144 156
133 143 155
131 144 154
130 144 155
132 142 154
133 143 153
131 141 151
131 142 151
130 141 149
131 141 148
131 141 148
130 140 148
130 140 149
130 141 149
127 139 146
129 139 146
129 137 144
129 137 145
128 137 146
127 136 146
136 145 156
136 145 156
136 146 156
135 145 156
134 145 155
133 144 154
134 144 154
133 143 155
131 144 154
132 144 154
132 142 154
133 142 154
134 142 154
132 141 152
133 141 153
132 141 152
133 142 152
132 141 150
130 141 151
131 141 151
131 140 149
131 138 148
130 139 149
130 139 148
129 138 148
131 138 148
131 138 148
129 138 147
129 138 148
127 135 145
128 136 147
127 135 145
127 137 147
127 136 146
128 135 146
126 133 144
124 132 144
126 134 146
127 133 145
126 133 144
124 133 143
124 133 143
125 132 144
125 132 143
125 132 142
124 134 143
122 133 142
122 133 141
122 132 140
123 131 140
122 129 139
122 129 139
120 129 136
119 130 137
119 127 137
120 128 138
118 127 136
117 127 136
117 126 135
118 125 135
118 124 133
117 123 131
116 121 130
112 121 128
108 118 124
107 115 122
106 113 121
103 112 119
102 110 118
101 109 117
101 108 118
102 107 117
102 108 117
101 109 116
101 109 116
101 108 116
101 108 116
101 109 117
100 108 116
100 108 116
101 108 117
100 107 117
101 107 116
102 107 116
100 107 116
101 108 117
101 108 118
101 108 118
100 107 118
100 108 118
100 108 117
99 107 116
100 108 117
101 108 118
100 107 117
100 107 116
100 108 118
100 106 116
101 108 118
100 107 117
108 117 129
110 118 130
110 117 129
109 117 129
108 118 129
107 117 128
110 118 128
110 118 128
108 118 128
108 118 129
108 117 128
108 117 128
107 117 128
108 117 128
107 117 127
107 116 127
108 117 129
108 117 127
107 117 126
106 117 127
106 118 127
107 117 127
107 117 128
107 117 129
107 118 130
106 118 130
106 117 129
106 118 129
107 118 130
108 117 129
109 118 131
108 118 129
107 119 129
108 119 131
108 118 133
108 118 133
108 119 133
110 118 132
110 119 133
109 120 133
109 121 131
109 120 131
111 120 135
110 120 135
110 120 135
110 121 134
109 121 134
109 121 135
108 121 134
109 120 135
110 120 135
109 119 134
108 120 133
107 120 133
108 118 131
108 118 130
107 118 131
105 117 130
105 117 130
105 116 129
105 114 127
105 113 126
103 111 124
102 109 120
98 106 116
95 104 114
93 102 112
90 100 110
90 98 109
90 97 108
89 97 108
88 97 108
89 98 109
89 98 108
89 98 109
87 98 108
87 99 110
86 97 108
87 97 108
86 97 107
87 97 107
88 96 106
87 95 105
86 94 103
87 95 104
87 94 103
87 94 104
87 93 103
88 93 103
87 92 102
87 93 102
86 92 102
86 93 103
85 93 102
85 93 102
86 92 103
86 94 103
85 93 102
86 94 102
85 93 102
95 104 115
94 104 115
95 104 115
95 104 114
95 104 114
96 104 115
96 104 116
95 104 116
94 104 114
95 105 115
95 104 114
95 104 114
95 104 115
95 104 114
95 104 115
94 104 115
94 104 114
94 103 114
95 103 114
95 103 114
95 103 114
94 103 113
94 102 113
94 102 113
93 102 112
92 103 111
93 102 111
93 102 112
94 101 112
94 101 111
94 101 111
93 101 111
91 100 110
92 102 111
92 101 110
93 100 110
92 100 110
91 100 109
91 100 109
91 99 109
91 99 110
91 98 109
91 99 108
90 99 107
91 99 108
91 97 107
91 97 108
89 97 106
88 97 107
89 98 107
88 96 106
88 96 106
89 97 107
88 96 106
88 96 105
87 96 105
88 96 105
87 95 104
86 95 104
87 94 104
86 92 102
85 92 100
82 91 98
77 86 95
188 204 216
183 197 211
176 193 209
173 192 207
166 189 203
165 190 207
162 189 204
161 187 203
166 189 207
165 189 208
166 189 208
164 189 207
163 189 206
161 190 207
161 191 208
165 193 213
164 193 209
164 194 208
165 194 211
167 191 210
168 191 211
166 192 209
163 191 207
163 191 207
165 189 206
168 193 211
166 191 210
168 194 212
167 195 212
168 194 212
171 196 214
171 196 215
171 196 216
171 198 216
169 199 216
170 201 218
