P3
100 200
255
68 55 40 62 49 32 58 44 24 61 48 35 62 49 35 70 58 38 72 56 32 94 77 58 77 54 30 78 54 31 83 65 47 106 90 66 106 91 67 88 71 51 76 60 43 75 55 34 64 46 27 68 52 35 85 75 64 66 54 41 104 98 99 133 129 129 68 56 41 75 67 55 67 56 42 69 62 56 106 102 99 130 128 127 86 82 80 109 104 102 112 110 103 137 140 137 141 151 160 153 165 179 144 159 178 151 165 185 158 170 189 170 181 200 120 133 152 129 137 150 113 124 136 131 146 166 168 190 217 182 208 235 182 207 235 181 207 236 179 206 234 166 195 224 159 189 221 160 191 223 149 183 217 171 201 232 172 204 236 172 205 237 174 208 240 174 209 241 172 207 241 174 209 241 173 208 241 174 210 242 173 209 241 174 209 243 173 209 241 173 209 241 174 208 241 174 208 241 174 209 241 174 208 240 175 208 239 177 209 241 181 208 237 203 197 204 222 170 116 238 179 99 232 172 86 223 161 72 212 151 74 216 153 80 232 170 82 240 188 116 187 133 87 147 68 40 161 93 53 166 99 50 162 93 43 173 106 52 237 179 112 231 175 118 193 127 92 170 88 57 170 92 58 194 128 86 197 128 72 230 171 109 215 155 99 157 104 59 135 85 59 166 126 97 212 179 149 185 149 126 
57 44 24 65 52 33 66 53 34 61 46 29 63 49 30 75 65 51 81 67 46 90 71 50 78 57 37 81 58 40 83 63 38 99 82 57 91 71 45 73 52 28 78 66 54 74 58 39 78 67 54 95 87 78 60 50 35 59 53 41 79 77 73 93 88 82 68 59 43 75 68 56 78 71 62 86 80 74 74 69 64 105 101 95 125 121 114 150 146 145 154 155 156 197 200 205 190 199 211 174 183 197 150 161 179 160 169 187 156 165 183 156 168 184 127 137 153 119 125 137 129 136 149 148 158 176 172 191 217 188 207 234 181 200 225 174 194 220 163 185 212 149 173 203 166 189 217 159 182 210 150 174 204 148 174 202 168 196 226 174 207 241 173 209 241 175 210 242 173 208 241 173 209 241 174 209 242 173 208 242 173 209 241 174 210 243 174 208 241 174 209 242 175 210 243 174 209 242 174 208 241 175 209 241 177 209 241 178 209 241 179 206 235 209 206 215 222 168 120 228 163 82 230 166 87 220 151 79 248 185 101 248 186 94 251 190 106 225 166 90 177 110 59 166 101 53 166 100 50 160 93 43 167 98 55 230 173 100 215 161 99 169 101 67 152 76 48 158 96 67 153 85 55 156 89 55 199 142 94 221 159 100 202 136 79 152 102 74 192 173 171 201 192 200 194 187 197 201 198 207 
57 46 25 73 64 46 81 71 52 59 44 24 74 65 51 73 60 42 58 43 24 68 53 36 65 50 30 75 57 39 67 49 28 78 62 41 70 52 31 64 51 40 68 56 46 68 56 42 63 54 42 76 69 61 56 49 38 84 82 83 81 80 84 67 61 51 72 66 54 82 77 68 82 75 65 108 104 99 66 59 55 87 83 74 106 101 91 135 136 137 156 159 163 163 166 173 148 155 168 139 147 162 154 161 177 151 158 172 146 151 164 133 138 151 118 122 134 124 128 140 131 136 149 129 135 152 163 175 199 178 193 219 173 187 213 133 151 186 144 162 192 170 186 212 168 184 208 155 171 193 135 153 172 118 141 163 145 174 204 174 208 240 173 208 241 177 211 244 174 209 241 173 208 241 175 210 242 174 209 242 174 209 243 174 210 244 174 210 244 173 208 242 174 209 241 173 208 240 173 207 240 175 208 241 177 209 241 177 209 241 181 208 238 209 207 217 213 157 115 237 167 96 233 156 74 230 153 74 241 172 101 240 175 96 239 177 96 217 159 98 153 91 53 148 82 40 153 82 40 151 71 46 230 165 98 234 183 114 169 99 61 164 92 45 157 85 40 151 87 45 148 81 41 147 79 45 151 88 61 207 150 104 191 137 94 187 166 162 186 196 219 183 203 232 181 202 229 184 203 230 
60 51 38 55 42 26 59 46 28 57 45 30 57 44 32 56 44 32 55 43 31 67 58 49 87 80 76 87 80 76 73 62 48 73 60 43 66 53 35 74 65 52 67 57 46 64 55 43 60 51 42 54 46 33 56 48 41 64 59 57 63 63 69 64 60 55 69 64 54 56 47 34 67 60 51 93 90 82 136 136 128 116 115 108 171 168 166 163 163 168 140 141 153 113 112 119 126 126 136 156 158 171 158 160 178 139 138 151 125 122 135 110 108 121 126 124 136 122 120 134 124 123 137 125 126 143 128 139 161 156 169 195 182 195 218 171 185 212 159 174 200 170 184 209 165 178 199 132 145 160 137 151 172 143 162 185 166 191 221 175 207 239 174 209 241 174 209 241 174 209 241 173 209 241 173 208 241 174 210 243 172 207 241 173 208 242 174 209 241 173 207 241 173 207 240 174 209 241 175 210 243 175 211 242 177 210 241 178 211 243 179 208 237 199 197 207 210 162 123 249 182 125 255 173 108 254 167 94 250 166 86 215 140 85 245 185 110 164 101 70 135 76 43 135 74 40 143 69 36 172 90 63 255 200 133 186 123 74 165 91 46 163 84 45 166 95 48 151 87 41 147 81 40 146 79 41 148 81 59 178 121 85 177 131 114 190 199 215 182 203 232 179 203 233 180 204 233 183 204 232 
52 42 28 58 48 34 55 43 30 53 42 29 53 40 28 53 40 26 53 41 28 63 53 44 113 108 105 105 98 95 75 63 48 83 75 59 73 63 45 69 60 47 71 62 49 60 50 37 58 50 41 54 50 43 62 58 53 51 47 43 75 72 71 78 74 70 61 55 46 86 82 78 100 96 92 103 100 94 147 144 142 112 107 101 101 97 94 147 146 155 141 142 154 168 169 178 113 110 120 127 120 132 134 129 140 133 124 133 123 114 123 113 103 113 116 109 118 119 113 122 109 107 118 136 137 151 158 164 179 151 161 180 185 194 212 165 175 194 139 150 170 139 151 173 147 159 178 128 139 159 144 158 178 135 153 177 174 198 224 177 209 240 174 209 241 174 210 242 173 208 241 173 209 241 174 209 241 174 209 241 175 211 243 174 209 241 174 209 242 174 209 241 174 209 241 175 209 242 174 209 241 174 209 241 177 211 242 177 209 241 178 207 237 195 203 220 222 202 202 237 177 147 245 161 101 253 163 94 249 165 89 246 171 89 238 177 103 153 91 63 131 75 40 131 75 40 140 68 41 208 134 82 242 180 120 170 93 61 183 101 49 194 112 57 179 101 61 150 81 43 148 82 41 145 80 40 161 102 73 170 113 79 191 158 159 188 202 228 181 203 234 180 204 236 181 205 236 184 203 231 
49 41 28 49 40 26 49 39 25 49 39 26 50 39 24 53 42 28 53 40 25 56 43 30 55 43 31 59 46 33 61 49 32 78 69 55 61 50 29 64 55 44 76 70 64 76 70 64 93 91 89 106 106 111 159 158 160 107 107 115 117 117 118 115 114 112 61 57 54 114 111 109 128 125 120 97 91 78 99 96 90 94 87 75 76 67 55 86 83 87 164 163 171 164 163 170 116 107 110 124 108 111 143 130 135 143 129 132 124 105 110 113 93 95 118 104 107 107 98 106 104 101 111 157 158 168 140 146 161 137 145 162 186 194 209 173 179 194 163 171 185 174 181 196 143 152 169 149 161 179 138 153 174 111 133 161 168 193 220 175 207 238 177 210 241 175 210 241 175 209 242 175 209 242 174 210 242 173 208 241 175 210 243 175 210 243 174 209 241 175 210 242 174 209 241 173 209 241 175 209 242 175 209 241 175 209 241 175 208 240 178 207 238 186 207 234 203 204 223 243 202 200 244 158 114 248 154 83 240 149 71 255 181 101 232 166 96 189 123 67 200 142 82 138 80 38 138 66 54 230 168 122 209 137 93 172 82 59 222 141 96 255 174 114 248 159 103 164 83 52 155 83 43 149 80 41 155 91 66 166 110 76 207 180 183 187 202 229 182 204 235 181 204 234 181 204 234 190 205 230 
47 40 27 46 38 23 46 37 23 46 37 22 47 37 24 58 48 37 58 48 36 55 42 27 55 43 28 58 47 31 71 60 43 76 66 50 83 78 70 81 75 68 84 79 75 63 59 59 108 107 113 112 113 116 115 119 130 168 171 181 148 148 152 74 69 66 65 59 53 104 101 100 127 125 124 104 99 90 103 99 96 99 95 90 149 144 136 96 87 79 79 70 72 143 137 141 150 139 136 133 115 110 128 107 103 133 114 110 125 103 99 121 98 87 116 96 91 133 126 131 111 108 117 141 140 150 107 109 122 120 125 135 147 151 161 129 134 144 128 134 148 170 177 191 119 127 146 105 117 141 165 177 196 151 168 190 152 177 205 172 203 235 177 210 241 177 208 240 177 210 241 174 209 240 175 209 241 175 210 242 175 209 241 174 210 241 174 210 242 174 209 241 175 210 242 174 210 242 175 209 241 177 210 242 177 210 242 177 209 240 178 208 237 183 205 233 204 205 224 240 194 193 239 151 103 255 163 92 249 158 77 254 174 92 249 182 96 253 191 112 199 136 82 148 78 54 177 94 67 199 126 92 192 108 79 208 121 95 228 133 89 255 162 101 255 178 121 210 120 94 197 127 98 154 80 48 171 109 71 175 120 87 201 178 182 187 201 229 185 204 233 185 204 234 190 203 232 205 195 207 
46 38 23 46 38 24 45 37 22 46 37 23 45 35 20 53 42 29 56 46 32 52 42 27 57 46 30 62 53 45 97 91 86 57 45 33 72 65 58 70 62 55 76 70 66 121 119 116 155 154 157 93 91 96 75 80 92 81 88 103 126 126 128 135 130 126 117 111 107 103 99 98 101 99 103 73 70 69 111 109 108 119 117 114 174 172 170 150 146 145 100 91 90 158 149 148 139 124 118 139 119 108 124 99 84 120 95 85 123 98 87 124 100 84 114 93 85 143 136 142 136 132 140 130 128 135 109 108 117 128 129 139 149 151 159 152 155 164 159 163 175 138 144 160 101 108 124 117 130 150 146 161 182 141 159 181 155 178 205 180 208 237 178 209 238 178 209 238 177 207 238 156 187 214 170 203 230 177 210 239 171 204 236 165 199 231 174 208 241 175 210 242 174 208 241 172 207 240 174 209 241 173 208 240 175 210 241 177 210 241 179 209 240 186 208 236 212 203 215 227 158 135 251 161 103 255 168 99 255 166 92 255 172 96 251 172 101 241 166 86 222 146 87 203 127 82 223 158 121 212 137 104 230 165 142 250 186 166 223 126 87 255 158 114 254 156 112 240 167 140 251 204 191 216 161 145 183 122 90 164 113 84 141 111 111 181 190 213 188 204 230 189 202 228 194 188 212 174 139 133 
46 38 22 46 38 23 46 38 23 45 36 20 46 38 22 49 39 19 57 47 30 68 59 41 61 51 33 55 46 32 65 56 46 52 41 28 53 43 32 57 47 38 83 78 75 116 113 109 79 76 76 87 87 85 116 117 116 137 139 141 111 113 116 106 102 98 135 130 128 111 107 104 138 136 136 112 109 108 134 130 129 119 115 114 128 127 128 172 170 172 159 155 153 149 139 135 139 122 114 136 113 101 127 101 85 122 99 91 130 110 105 113 87 76 109 87 81 122 113 120 137 133 142 119 116 124 124 121 127 124 124 130 152 153 162 159 161 170 167 171 184 120 126 143 106 113 128 143 153 172 162 177 198 171 187 209 181 202 227 179 204 232 181 207 236 182 209 237 168 197 226 157 187 216 180 209 237 180 210 239 172 205 234 151 186 214 170 205 236 175 210 243 175 210 242 175 209 241 175 210 242 177 211 242 175 209 241 175 210 241 178 209 241 182 207 234 217 204 212 242 165 132 254 165 103 255 172 101 255 168 96 255 162 92 246 153 86 248 157 89 240 165 99 209 142 93 222 174 159 208 167 157 222 189 190 224 197 203 230 166 153 241 147 114 255 177 149 254 188 168 237 188 170 227 179 156 185 126 93 146 87 50 120 79 60 173 177 191 190 203 229 194 202 223 178 158 173 182 124 90 
58 53 39 52 45 33 48 40 23 52 46 35 47 39 23 55 48 34 59 50 28 67 60 40 64 54 33 53 42 28 51 40 24 48 36 20 52 42 31 62 55 49 91 87 83 98 95 92 80 77 74 123 120 116 89 87 83 92 90 86 72 68 64 125 122 124 111 107 104 116 111 106 106 101 94 76 69 61 99 94 92 108 104 104 93 87 86 135 129 130 147 139 135 123 108 103 120 99 89 123 101 90 130 109 97 116 91 83 127 106 102 106 80 70 117 97 93 127 115 117 130 124 128 132 126 130 123 117 115 120 116 117 117 117 128 122 125 141 136 139 150 128 134 149 135 143 159 160 170 188 191 203 222 187 203 224 182 201 224 150 175 203 178 200 228 186 208 237 168 192 222 149 175 208 168 194 223 178 205 234 171 203 232 171 204 234 174 208 241 177 210 244 177 211 243 175 210 241 177 212 244 175 210 242 174 209 241 175 209 242 179 210 241 186 207 233 201 170 165 242 163 120 251 162 101 253 162 96 255 162 96 247 144 83 233 123 69 237 141 86 232 156 101 199 130 94 217 197 206 190 195 212 195 200 220 198 203 224 236 193 195 230 148 127 251 183 161 229 151 113 238 167 125 215 143 94 194 131 83 173 114 65 152 108 86 192 189 203 194 203 227 209 205 217 221 197 188 236 194 158 
52 44 28 44 34 14 45 37 20 54 48 36 46 38 26 56 50 40 75 70 62 64 54 41 64 55 41 55 44 30 51 39 24 52 40 26 53 44 34 70 64 64 147 145 148 91 86 85 62 56 52 66 59 53 84 78 72 92 85 78 79 71 63 125 120 120 107 101 91 101 94 81 92 82 63 84 74 60 114 108 106 134 128 128 135 130 130 124 116 108 126 112 97 124 108 102 118 97 91 112 89 80 125 104 96 119 96 87 128 108 103 110 84 78 144 130 127 146 134 134 134 123 123 160 153 154 133 125 124 128 124 124 106 103 112 109 108 119 135 136 146 158 165 178 163 174 191 165 175 193 170 183 202 175 189 208 159 174 196 167 183 206 173 190 213 170 187 211 181 197 221 156 175 203 151 172 200 173 195 223 171 200 229 175 209 239 177 210 241 177 211 243 177 210 244 173 209 241 177 211 244 175 209 241 175 210 242 177 210 242 178 209 240 175 194 212 197 173 158 231 168 133 230 145 89 244 151 101 244 144 94 234 125 80 236 120 71 234 130 86 212 130 86 221 182 179 192 202 224 186 205 233 184 204 231 192 203 226 232 195 202 211 134 113 221 134 95 227 143 90 225 148 87 214 138 79 191 128 74 178 121 79 178 139 123 202 200 217 202 202 220 221 197 178 235 192 138 248 202 130 
49 41 22 50 42 28 46 37 19 46 38 22 47 38 24 60 51 39 71 64 56 51 42 27 51 41 26 51 40 26 56 43 30 60 48 36 52 40 32 71 69 72 119 118 124 55 47 41 81 75 70 90 83 76 91 81 73 98 89 78 76 64 54 107 99 94 101 88 79 87 73 54 101 93 87 130 124 123 136 130 134 146 141 143 142 137 139 153 148 146 122 109 107 127 111 109 130 114 116 124 106 108 128 109 104 114 90 80 116 94 90 128 109 105 128 110 108 127 111 109 135 120 119 146 135 135 132 125 125 137 130 132 113 105 111 114 107 112 139 135 143 170 174 190 180 188 212 184 191 212 150 158 178 151 158 176 139 147 163 152 159 178 136 143 163 137 146 165 148 156 174 137 145 164 144 153 172 169 186 210 168 195 225 177 209 240 177 210 242 177 210 243 174 210 241 177 211 243 174 210 241 175 210 242 175 209 241 175 210 242 175 208 239 179 203 230 196 206 222 207 199 206 213 176 166 232 174 161 237 153 143 224 115 85 237 128 94 228 132 99 213 158 151 208 203 221 185 205 233 183 207 236 182 204 233 196 202 225 218 178 183 210 118 89 224 136 90 225 140 86 218 138 82 204 128 76 177 110 69 159 99 65 191 155 151 203 201 223 200 188 193 212 171 115 250 197 110 255 202 103 
51 43 28 51 42 26 45 37 18 44 37 19 48 40 25 64 57 47 86 78 67 49 39 22 50 39 24 53 43 31 58 46 34 55 43 31 50 38 26 49 38 33 48 37 30 53 42 30 67 58 44 79 71 60 93 86 78 93 84 79 82 72 67 129 122 116 91 77 71 90 77 68 97 85 77 121 112 110 133 123 118 124 113 107 125 115 114 153 148 152 143 138 146 139 128 131 120 101 98 120 98 93 135 116 112 116 91 86 124 103 105 123 102 100 120 100 97 132 116 114 130 114 113 120 104 105 125 113 115 131 122 125 119 107 112 125 115 118 131 120 127 134 128 137 162 161 179 165 165 185 138 137 151 129 125 139 165 163 175 153 152 164 130 129 142 140 139 152 161 161 173 166 166 178 176 181 192 153 165 182 162 187 214 175 207 237 177 210 242 174 209 241 175 210 241 174 209 241 177 211 243 174 209 241 174 209 241 175 209 241 175 210 242 178 209 239 179 209 240 181 207 237 186 204 228 195 205 227 237 204 219 217 126 113 218 128 102 220 162 159 209 200 219 189 205 234 182 204 234 183 207 236 185 206 233 205 200 218 195 138 135 214 123 90 223 132 87 209 120 76 200 120 76 192 118 85 196 131 120 175 128 134 203 192 215 200 195 217 153 125 128 210 159 106 241 185 89 245 189 83 
49 41 24 45 36 16 45 37 18 42 36 18 45 37 20 47 38 23 54 45 30 53 44 30 48 39 28 50 40 28 50 39 24 53 42 30 51 40 28 51 39 28 51 38 25 64 54 40 68 56 38 68 55 37 68 58 42 96 88 81 98 87 80 98 84 79 117 104 98 109 92 85 110 94 91 104 85 72 137 118 96 136 118 110 126 110 109 163 153 159 152 143 147 155 143 144 120 97 89 113 87 76 130 109 104 127 107 103 130 108 114 130 108 106 127 106 99 121 101 98 139 123 121 133 119 116 136 123 123 121 110 114 122 108 109 121 103 101 134 116 111 125 108 102 139 126 131 150 141 154 162 153 164 145 133 138 145 136 139 171 166 170 159 153 159 136 129 133 147 141 146 145 138 140 139 137 139 124 135 144 165 190 217 168 201 232 175 209 239 175 210 242 175 209 241 177 211 243 174 209 241 174 209 241 174 210 242 174 208 241 174 208 242 175 209 241 173 208 239 175 208 241 177 209 239 180 209 239 203 197 216 187 128 128 206 174 178 206 203 222 186 206 234 182 206 236 182 206 236 181 207 237 186 207 234 195 181 191 201 116 98 221 123 89 218 123 86 218 134 115 208 162 161 212 189 195 184 168 180 190 186 210 197 201 227 176 167 175 140 95 67 223 167 98 238 177 80 244 182 80 
54 46 30 54 48 34 48 40 24 46 39 22 48 38 20 54 45 32 59 50 36 49 38 20 46 35 22 46 35 21 46 34 20 58 50 44 49 38 27 50 38 26 51 37 21 67 57 44 76 62 44 68 54 38 62 48 32 89 80 74 111 103 96 103 86 78 115 94 85 95 68 59 139 120 119 159 142 137 146 122 104 131 103 85 125 101 92 146 128 128 134 114 109 131 110 103 125 104 97 128 108 103 128 107 102 112 89 82 122 100 98 110 84 78 120 97 92 130 112 108 136 118 115 118 97 89 126 107 97 131 114 109 108 84 74 118 95 86 133 115 109 125 102 91 122 99 90 134 116 119 157 143 151 139 121 124 148 135 138 151 143 145 148 139 143 160 152 156 133 119 119 133 120 113 141 141 146 142 154 173 177 200 225 177 208 237 177 209 241 175 209 241 177 211 242 178 211 244 175 210 242 175 209 242 174 209 241 173 209 241 173 208 241 173 208 241 175 210 242 174 209 241 175 208 241 177 209 239 173 194 215 182 195 216 187 208 233 179 207 236 178 208 237 180 208 237 180 207 237 179 206 236 183 208 235 195 180 190 204 113 96 215 117 90 206 115 89 221 178 187 201 201 223 197 202 226 156 165 194 194 204 230 202 205 224 161 140 131 184 127 89 227 170 87 239 173 77 242 173 77 
62 54 41 50 42 23 46 38 20 48 39 23 47 39 20 48 39 23 48 37 19 46 36 20 52 44 33 51 41 29 48 39 26 73 68 63 49 37 21 53 42 27 59 47 32 59 46 30 71 60 49 78 66 58 78 67 56 72 60 50 72 56 46 108 91 81 106 82 70 116 92 80 131 106 95 146 120 106 118 82 64 125 92 72 124 95 82 116 85 74 130 104 96 142 121 116 137 117 112 137 118 117 129 109 103 115 92 83 151 134 128 118 94 86 128 107 102 125 104 102 112 87 78 120 96 81 133 112 96 145 128 119 135 115 109 131 107 99 128 105 98 146 126 121 137 115 110 141 122 122 150 133 133 137 117 114 142 128 128 136 124 127 142 132 139 147 139 145 128 117 121 143 137 139 132 133 145 153 166 185 169 191 217 171 201 231 179 210 241 177 209 241 175 210 241 177 210 242 177 211 241 173 209 241 175 209 241 174 210 241 174 209 241 174 208 241 174 209 241 175 210 242 174 209 241 175 209 242 175 207 239 177 209 241 177 210 242 174 207 238 178 210 241 175 207 237 178 208 239 178 208 239 182 209 238 195 184 196 190 111 101 194 108 89 193 128 114 201 198 215 189 205 233 183 203 232 165 183 217 189 205 233 190 196 213 170 134 113 209 162 96 224 163 80 234 165 74 235 162 71 
57 50 39 51 44 28 46 37 14 52 45 29 55 47 31 52 43 27 46 35 17 52 43 34 75 68 60 59 49 36 51 41 27 55 44 30 51 39 22 59 48 33 64 52 38 57 42 24 56 39 27 99 91 86 110 102 97 116 109 104 111 99 90 105 83 65 101 73 53 119 93 78 126 96 76 156 125 99 143 111 91 121 83 63 117 79 61 111 72 47 122 92 74 126 99 89 144 125 121 128 107 106 131 111 104 118 94 83 126 103 93 132 111 102 138 120 111 115 89 79 112 86 76 121 98 90 136 116 110 125 102 92 139 119 110 128 103 87 123 96 85 143 122 117 147 129 126 145 127 132 143 125 123 145 128 125 128 110 105 144 133 138 168 162 170 162 156 163 125 117 126 148 144 151 161 163 175 175 188 207 183 203 229 175 201 230 171 198 230 177 206 237 178 211 242 175 210 241 175 209 242 175 210 243 174 209 242 175 210 242 174 210 241 173 209 240 175 210 243 177 212 243 175 210 241 175 210 241 175 211 242 174 209 241 177 211 243 174 209 241 175 208 240 177 210 241 178 210 241 177 209 241 182 211 241 182 185 201 178 133 140 203 185 196 193 195 212 183 205 233 185 208 237 182 207 237 179 204 235 185 206 233 156 166 190 190 173 158 208 167 116 223 163 86 228 158 77 226 150 65 
47 38 19 48 38 18 46 36 11 56 50 33 53 45 24 49 39 22 45 35 19 48 39 26 50 40 26 48 37 18 51 40 24 56 46 32 52 40 20 56 44 28 56 42 25 54 38 22 60 46 32 79 68 58 87 76 72 107 97 91 129 115 106 110 84 67 104 76 59 107 76 55 108 68 50 121 84 67 148 116 96 125 81 55 134 96 78 128 87 65 123 86 63 117 87 68 122 96 87 145 126 121 136 116 107 123 96 80 128 106 95 115 90 75 112 84 68 121 98 89 128 108 108 138 121 123 145 127 127 116 90 78 122 96 71 121 92 65 127 102 85 128 103 88 118 90 74 122 96 85 139 119 113 130 109 106 139 123 124 174 168 173 157 152 158 140 135 142 123 117 123 150 147 155 168 170 181 183 198 217 184 201 224 145 167 191 104 133 156 152 177 202 180 210 238 178 211 241 177 210 241 177 212 243 174 208 241 174 210 242 175 212 242 175 211 243 174 210 242 175 210 243 173 210 241 173 209 240 175 212 243 174 209 241 175 211 242 177 211 243 174 209 240 175 211 242 175 209 241 177 209 241 179 211 241 168 195 221 181 203 230 181 208 239 179 208 239 179 208 239 177 207 237 177 206 237 178 208 237 178 208 238 180 207 235 191 208 226 219 201 197 211 156 103 218 144 69 226 146 65 
51 41 24 66 58 44 48 38 15 59 52 39 49 39 18 45 35 17 46 36 20 45 35 20 46 35 20 46 35 16 53 43 26 57 46 30 51 38 17 66 56 42 70 57 45 58 40 24 66 49 32 72 53 35 68 49 37 83 65 53 117 96 83 122 90 69 136 109 95 131 97 75 131 95 71 128 89 65 139 101 76 126 79 45 133 91 61 135 100 76 113 74 45 114 81 61 113 85 70 106 78 65 121 96 81 119 93 74 136 116 107 119 92 76 111 82 64 122 99 91 115 93 92 130 111 109 136 119 118 112 85 74 127 104 90 140 116 104 118 92 74 122 95 76 121 92 68 110 79 53 117 89 74 128 106 99 158 147 148 186 181 186 135 128 134 139 131 133 140 134 136 174 171 179 165 168 181 181 194 213 185 199 221 159 173 190 148 162 170 149 165 183 170 192 219 175 202 234 177 210 241 175 210 242 177 210 242 174 210 241 175 210 242 175 210 241 174 210 242 175 210 242 174 210 241 174 210 241 175 210 241 174 209 241 175 209 241 177 211 242 173 208 240 174 209 241 177 210 242 175 209 241 175 209 241 177 209 241 179 212 244 175 209 240 175 209 240 177 210 241 177 209 241 177 210 241 175 209 238 177 209 240 177 209 239 179 209 239 207 206 225 186 137 103 213 141 72 231 150 76 
52 42 27 46 35 14 43 33 14 45 34 16 45 35 15 50 42 24 58 50 38 46 35 18 48 39 23 56 48 35 61 51 35 50 37 17 53 40 23 69 55 37 61 43 22 63 39 26 98 79 61 94 67 46 100 77 54 117 97 81 116 88 68 130 98 74 151 126 116 136 97 72 143 99 61 137 94 55 146 104 70 149 109 69 145 104 67 116 71 40 110 70 39 114 82 63 92 55 38 87 51 45 112 83 60 118 91 71 125 99 85 109 78 55 117 89 71 108 78 63 112 89 81 115 97 94 141 126 127 129 108 102 123 99 91 145 126 121 106 75 60 114 86 69 119 90 68 115 85 64 119 91 74 116 90 80 127 113 112 161 157 165 178 174 179 169 164 171 131 125 128 157 154 163 155 156 168 162 167 183 169 175 191 150 156 171 144 149 159 154 161 179 154 166 193 173 195 227 175 209 240 175 210 241 175 210 242 177 211 242 174 210 241 175 211 243 177 212 244 174 210 242 174 210 242 174 209 241 174 210 241 174 210 242 175 210 241 175 211 242 174 210 241 174 209 241 174 208 241 177 210 242 177 211 243 175 209 242 175 210 242 174 210 241 174 209 241 175 210 242 174 209 240 175 209 241 177 211 241 175 210 241 177 210 241 175 209 237 198 206 228 168 125 99 211 137 83 224 143 79 
48 36 20 51 40 27 44 34 18 45 34 17 48 40 25 55 47 31 59 52 34 50 41 26 50 42 26 61 55 37 56 45 24 48 36 18 53 41 27 54 38 17 64 49 33 76 54 33 99 74 51 124 101 76 138 115 92 105 69 53 105 74 45 115 85 59 110 76 50 159 125 106 168 141 116 133 87 46 148 107 67 142 99 50 139 103 70 116 78 45 112 80 53 98 59 37 105 76 60 103 74 55 113 84 62 116 83 57 116 84 59 115 83 57 108 72 45 102 68 45 109 84 74 130 113 110 151 135 139 129 108 104 121 96 88 124 100 92 99 64 45 108 77 58 115 87 69 128 104 92 138 116 106 121 99 90 117 103 101 159 155 161 162 161 172 153 152 163 137 134 146 146 143 152 100 97 105 125 125 135 146 148 158 123 122 136 145 146 159 145 146 161 114 120 139 158 179 207 179 211 241 177 210 242 177 211 243 177 211 243 175 211 242 175 210 242 175 211 242 177 212 244 175 211 243 175 211 242 175 212 243 173 210 241 174 210 241 174 210 241 177 212 243 177 211 242 178 212 244 174 209 241 175 210 241 175 210 241 174 209 241 174 210 242 175 211 242 175 210 241 177 211 243 175 209 240 177 210 241 175 209 241 177 210 241 175 209 239 188 207 231 169 146 133 199 136 110 211 128 82 
47 38 22 47 37 21 45 36 19 47 38 24 50 40 26 48 38 21 46 36 19 48 38 19 50 41 20 52 43 26 53 43 24 52 41 26 55 43 30 53 39 22 73 57 38 103 81 48 101 70 41 107 76 50 127 97 66 123 96 72 100 66 38 98 68 39 101 73 52 115 76 53 109 64 40 121 81 48 135 99 59 129 95 54 123 90 48 108 72 38 87 53 34 84 51 34 98 67 45 93 56 33 93 58 32 130 107 82 138 112 83 116 81 51 106 66 40 104 70 50 106 81 70 143 125 121 115 93 92 128 106 101 108 79 64 113 84 66 115 86 68 116 87 70 110 78 61 128 106 95 146 128 119 138 122 117 110 97 96 174 168 173 173 168 178 135 132 143 115 111 128 125 122 136 130 128 137 143 142 148 160 159 170 168 168 179 156 156 168 154 156 171 170 175 194 151 173 197 172 204 234 177 210 241 175 209 241 175 211 243 177 211 243 177 211 242 174 210 242 175 210 242 177 211 243 177 212 243 175 211 242 175 212 243 177 211 242 174 209 241 177 212 243 175 210 242 177 211 242 175 210 241 174 209 241 174 210 240 177 211 243 177 210 242 178 212 244 175 212 242 174 209 241 174 210 241 175 210 241 175 209 241 175 211 241 175 210 240 181 210 237 183 195 211 216 190 200 186 111 87 
50 42 26 47 37 20 45 36 18 47 37 21 47 37 20 47 38 22 50 40 24 54 46 30 57 50 36 57 48 30 63 55 41 52 41 24 51 39 23 51 38 20 78 64 42 132 114 74 128 103 62 120 88 48 125 91 50 113 80 44 98 65 38 94 62 37 98 66 40 93 58 29 100 69 42 108 78 38 119 91 54 123 99 64 125 102 68 101 73 40 80 49 38 78 48 26 95 66 45 100 66 44 94 59 48 137 113 81 124 92 58 114 79 43 105 64 40 108 75 57 103 75 64 142 124 120 114 87 76 106 77 60 107 77 57 106 75 49 107 75 53 104 71 48 106 76 57 105 75 55 116 91 78 113 92 85 108 95 93 169 163 169 175 170 178 144 139 146 157 154 168 181 181 198 147 144 155 151 146 152 170 167 175 155 151 159 155 151 159 153 151 165 168 174 191 149 170 194 163 196 227 177 210 241 177 210 242 177 211 242 178 212 244 177 212 243 175 211 241 175 211 243 175 212 244 175 211 243 175 211 242 174 210 241 175 211 242 177 212 243 177 211 242 175 210 242 177 211 242 174 210 241 175 210 241 175 211 242 178 212 244 174 209 241 174 209 241 173 209 241 173 207 241 175 210 241 175 210 241 177 210 242 175 209 241 175 211 241 177 208 240 181 209 237 183 189 211 144 107 106 
54 46 30 50 41 24 45 35 18 46 36 20 47 37 21 46 36 21 45 34 18 53 46 35 81 76 69 62 55 42 58 48 31 62 53 38 53 43 26 52 40 23 73 58 30 115 95 60 95 65 44 114 86 48 126 99 61 122 95 61 113 86 58 116 90 61 110 81 52 86 49 35 97 73 48 87 58 39 87 64 46 93 71 38 101 80 52 86 58 36 82 55 35 94 67 50 90 59 35 99 67 43 123 96 62 137 108 72 121 88 56 130 102 73 121 91 66 103 70 48 101 71 57 112 88 78 110 84 69 106 78 60 109 81 61 117 91 74 104 73 50 104 75 54 117 92 73 115 85 62 116 90 74 106 85 78 112 97 98 151 144 152 135 128 138 119 108 115 137 128 135 145 137 142 123 111 114 114 98 95 118 107 112 123 116 123 165 159 165 136 131 141 144 149 160 135 155 178 156 187 217 177 209 240 177 210 241 174 208 241 175 210 241 175 210 242 174 209 241 175 211 244 174 210 242 175 210 242 174 210 242 174 210 241 177 212 244 175 212 242 177 211 242 174 209 241 175 211 243 175 210 241 178 211 244 177 211 241 174 209 241 174 210 241 175 211 243 175 211 242 174 210 241 175 211 242 175 211 243 177 211 242 177 211 242 175 210 242 177 211 241 179 210 241 183 210 238 176 198 224 
56 48 31 51 43 22 46 36 16 46 36 14 50 41 20 49 40 20 46 36 19 46 35 20 49 38 24 50 40 21 54 44 25 57 46 27 53 44 26 51 40 19 67 52 28 102 81 46 109 88 49 115 95 63 98 73 39 100 77 46 91 64 39 84 58 38 104 86 60 75 48 30 80 59 33 81 59 30 74 54 34 92 75 46 91 71 45 73 49 35 88 62 46 111 89 68 109 84 53 110 83 52 113 84 45 116 86 49 111 82 46 107 76 40 111 86 69 123 102 94 103 76 66 93 66 56 126 107 96 119 97 85 98 69 49 103 76 53 100 73 50 100 71 48 107 81 62 107 80 59 98 68 49 83 56 45 92 73 70 96 81 89 131 122 129 110 98 101 118 107 107 137 126 125 146 135 135 126 111 105 113 96 91 157 148 151 158 150 154 117 106 109 150 154 164 175 191 208 162 190 218 177 209 238 178 212 242 177 210 241 177 209 241 175 210 241 177 211 242 174 210 241 175 211 243 175 210 242 175 210 241 175 210 242 177 212 243 177 212 243 175 211 242 177 211 244 175 210 241 175 209 242 175 211 242 175 210 241 174 210 242 174 211 242 173 208 241 175 211 241 175 210 243 175 210 242 175 212 244 177 211 243 177 211 243 177 211 243 177 210 242 177 211 242 175 211 241 175 210 241 
49 40 19 46 36 12 47 38 11 52 41 23 71 63 45 56 46 24 52 42 23 55 47 32 51 41 25 51 40 21 58 48 28 52 41 16 53 43 26 56 46 29 55 43 21 65 49 24 84 68 43 106 91 61 95 79 47 84 66 35 81 63 35 70 53 27 72 55 30 70 52 27 71 56 42 96 85 71 68 50 29 73 56 33 75 53 28 74 50 35 94 74 69 207 195 181 130 108 85 99 68 40 108 81 47 119 93 50 117 93 61 108 81 53 113 92 79 117 99 92 85 58 48 94 71 63 122 105 96 124 108 97 105 83 66 95 71 49 97 74 55 96 71 55 94 70 55 87 60 43 86 61 50 88 65 55 91 71 65 120 107 109 110 95 98 103 87 88 108 93 95 118 106 105 142 130 126 154 141 135 132 118 110 119 103 96 114 97 90 130 120 121 158 161 174 171 187 206 173 198 223 179 209 238 179 210 240 178 210 240 179 211 241 179 212 241 177 210 241 159 195 224 170 204 235 178 212 243 179 212 243 177 212 242 178 212 243 175 210 241 174 209 239 177 211 242 170 203 235 161 197 229 175 208 240 175 210 241 174 210 241 175 211 243 175 211 242 177 212 244 174 211 241 175 211 242 175 212 243 175 211 242 175 212 244 177 212 244 175 210 242 177 211 243 174 209 240 175 211 243 
64 56 34 52 44 20 66 58 38 67 55 36 71 60 40 63 53 38 68 59 41 61 54 38 53 43 25 50 39 18 58 49 33 55 46 27 50 41 18 51 42 20 53 42 22 50 37 15 59 44 26 73 60 38 71 57 35 65 50 29 69 55 31 66 51 30 67 51 27 62 46 27 64 49 32 91 80 65 61 44 26 64 48 33 63 43 24 86 68 47 90 70 47 100 76 48 95 67 43 113 89 54 126 103 66 123 98 59 90 61 36 89 60 35 104 85 71 114 96 91 90 66 61 103 84 76 104 83 71 113 95 82 96 74 54 95 71 50 105 85 70 94 70 54 85 62 47 81 53 34 79 56 44 79 58 49 103 88 88 135 124 124 121 108 105 102 86 77 122 109 106 136 125 124 132 119 114 121 105 96 110 90 77 118 101 90 117 99 89 125 115 119 166 167 181 187 199 217 182 202 226 175 200 228 170 197 227 165 194 224 180 210 239 178 209 238 173 205 235 166 199 229 170 203 235 177 211 241 179 211 242 179 212 243 178 212 241 178 211 242 179 211 242 178 209 241 129 159 188 134 165 197 166 198 230 175 209 241 177 211 241 177 211 243 174 210 241 177 212 243 175 211 242 174 210 241 175 211 243 174 210 242 174 209 241 175 211 244 177 211 243 178 212 244 175 210 242 174 209 241 
48 39 8 62 56 34 81 72 45 73 62 36 48 37 8 46 35 8 62 54 38 58 49 31 49 40 22 48 38 18 54 46 30 54 44 24 48 38 14 53 43 22 52 42 20 53 42 24 54 42 24 64 52 34 63 50 31 58 45 24 59 47 27 61 49 30 63 51 35 73 63 48 63 48 30 57 41 22 58 41 24 56 39 22 69 53 34 87 72 49 87 67 36 93 72 40 103 82 48 119 95 54 110 85 45 99 73 41 93 68 45 88 63 43 95 71 55 114 98 90 90 67 54 84 60 45 83 60 43 88 65 48 96 76 62 95 74 60 106 89 76 97 78 66 87 63 45 92 69 53 80 57 40 88 70 60 95 78 74 135 122 119 123 109 103 89 68 55 116 104 99 120 106 101 110 92 83 99 77 63 122 105 95 115 96 86 113 94 82 98 81 79 120 114 125 149 151 168 154 158 178 125 133 157 134 141 166 133 141 166 187 204 230 185 211 239 178 206 236 168 199 230 172 203 233 174 206 236 178 208 239 179 210 241 179 209 240 179 211 241 179 210 241 173 206 236 135 165 194 131 159 185 128 164 195 177 212 241 175 211 242 177 212 242 179 213 244 177 212 244 177 212 243 175 211 242 177 212 244 178 212 244 177 212 243 175 211 244 174 211 241 177 211 244 175 211 243 175 211 242 
44 36 14 49 41 15 60 53 28 64 56 36 51 43 28 48 39 22 49 40 23 48 38 21 45 35 16 49 40 23 56 48 32 55 46 30 52 43 23 71 64 46 64 55 37 53 42 22 50 40 24 53 42 26 59 49 34 59 48 31 51 38 18 50 38 19 55 43 24 63 51 32 69 56 40 55 40 22 58 42 28 56 40 26 64 48 30 73 56 33 83 63 35 77 53 26 99 75 45 94 66 35 91 63 39 90 60 28 80 49 24 77 48 27 83 59 40 86 63 48 89 68 52 79 56 37 82 62 43 81 58 40 79 54 37 86 68 57 123 109 101 116 101 93 114 99 89 112 96 82 103 85 74 106 91 83 99 80 69 153 142 138 127 114 108 121 108 102 101 83 75 102 84 73 108 91 81 123 107 92 115 97 80 99 76 61 107 87 76 114 99 92 105 93 92 137 131 136 109 100 107 111 100 110 136 124 133 158 149 162 167 170 189 187 198 219 188 200 221 190 204 225 161 178 203 144 165 196 181 206 236 182 210 239 182 210 241 181 210 241 183 212 241 181 210 240 163 192 220 175 202 229 177 205 233 179 212 242 175 210 241 177 212 243 177 211 242 174 210 241 177 212 243 175 212 244 175 212 242 175 211 243 175 211 243 177 212 243 175 211 244 177 212 244 175 211 243 178 212 245 
48 41 20 49 42 18 55 48 27 52 43 22 45 35 14 45 35 20 44 34 20 45 35 21 47 38 23 50 42 27 48 38 18 48 38 18 53 44 19 81 76 56 67 57 34 48 37 15 48 38 20 47 37 18 49 39 20 53 42 26 48 37 20 49 37 22 53 42 27 63 53 39 66 53 37 58 45 32 57 41 27 52 35 22 56 39 23 62 45 24 80 63 44 89 70 49 91 66 40 96 71 46 93 68 40 99 76 52 87 60 36 73 46 24 79 56 35 90 70 53 83 61 43 82 60 42 85 66 50 86 67 53 86 65 51 76 52 40 110 95 87 128 115 109 111 94 82 99 81 65 92 71 57 80 58 44 108 93 84 130 116 109 114 99 90 124 110 104 96 75 60 91 69 51 99 78 62 117 101 80 122 106 91 116 99 91 101 80 73 112 99 93 116 107 104 104 92 89 111 100 96 120 110 106 140 125 121 138 124 127 133 126 133 122 116 123 136 131 142 168 166 175 149 148 161 163 168 184 175 196 224 187 209 237 188 211 237 185 207 234 181 204 232 186 210 237 173 198 221 158 184 211 172 200 226 175 207 237 172 207 237 175 212 241 175 211 242 178 212 244 177 211 243 177 212 244 174 211 242 175 211 242 175 211 243 175 211 243 174 211 243 177 212 244 175 212 244 175 212 244 
52 45 26 48 40 11 48 40 16 44 34 8 44 35 12 44 34 15 41 31 11 41 32 14 44 35 18 48 39 23 49 40 19 61 54 38 63 55 30 70 62 32 67 58 35 52 42 21 48 39 20 49 40 23 48 38 19 46 37 17 46 36 18 48 37 23 50 38 23 53 40 27 52 36 22 56 43 30 54 39 21 53 37 21 58 42 29 61 45 29 81 66 52 88 68 48 76 51 30 78 53 29 80 55 31 78 53 30 75 50 31 70 44 24 81 60 40 109 93 81 80 57 33 78 56 35 86 66 50 77 55 37 81 61 46 86 66 53 116 102 90 121 108 97 107 90 74 103 84 69 94 74 59 74 53 37 82 63 48 103 86 76 114 99 90 109 93 83 113 98 88 115 99 87 103 84 66 110 93 76 117 98 85 106 87 74 105 89 81 103 87 83 122 113 113 137 129 132 146 139 142 136 127 126 147 140 137 185 182 185 171 167 173 130 125 126 133 126 131 145 139 142 150 144 144 144 143 152 172 187 211 188 206 232 170 188 215 155 174 202 146 168 189 138 159 181 147 167 191 159 179 203 127 151 175 141 174 201 165 201 232 175 211 241 175 212 241 177 212 244 178 212 244 178 213 244 175 211 243 177 212 245 175 211 244 177 212 244 177 212 244 178 213 245 175 212 244 175 212 244 
48 40 15 54 46 26 50 43 22 46 37 11 55 49 30 52 44 26 50 41 22 48 38 19 46 37 20 48 39 22 51 43 19 68 59 35 71 63 33 72 64 39 80 73 50 51 40 20 49 38 21 49 40 24 49 40 22 56 47 33 51 40 26 49 38 24 49 36 22 50 37 25 52 38 24 56 43 28 63 52 39 55 41 25 53 38 22 55 38 21 74 59 44 70 50 29 74 53 34 72 49 27 69 44 24 68 43 26 86 69 52 72 44 28 92 76 64 123 109 97 86 66 47 77 56 35 89 71 57 84 66 52 81 61 50 100 84 74 128 117 110 126 113 103 117 100 78 116 100 83 102 84 71 95 79 74 78 60 50 92 77 70 112 98 92 109 94 88 120 107 98 129 119 110 113 99 85 112 98 85 106 90 76 93 75 60 99 84 77 96 84 82 149 142 145 162 159 164 135 128 132 110 103 105 152 148 151 165 162 169 169 166 171 147 143 151 141 135 141 137 127 125 128 116 107 110 105 103 149 164 186 187 203 230 194 209 231 175 191 213 138 156 177 179 196 216 139 158 183 112 127 146 136 154 166 165 195 218 174 208 237 178 212 242 177 212 244 175 212 244 175 212 243 178 212 244 175 212 244 177 212 245 177 212 243 177 212 244 177 212 244 178 213 245 177 212 244 175 212 243 
51 42 22 70 64 46 52 44 19 56 49 31 66 60 39 52 44 22 55 48 34 51 42 24 50 41 27 45 36 16 52 44 27 57 49 29 78 71 49 62 53 30 55 45 20 48 38 19 48 38 22 49 40 23 50 40 24 54 44 29 50 38 23 48 36 20 49 36 22 49 36 20 50 36 21 53 39 22 55 40 20 55 41 22 54 38 21 56 39 24 65 46 28 68 48 26 69 48 24 74 52 31 82 62 43 67 41 26 83 62 42 88 68 50 81 60 40 81 60 40 81 63 44 75 57 35 82 63 46 92 77 64 84 65 50 101 86 76 114 102 93 136 125 117 117 102 83 121 106 85 104 89 72 88 71 62 91 75 68 95 81 75 124 114 111 93 78 74 104 92 82 103 90 80 128 118 109 124 112 103 120 107 98 108 96 84 108 96 89 92 82 80 123 117 120 142 137 143 108 103 106 121 117 117 159 155 158 159 155 157 128 122 124 130 124 127 132 127 132 160 157 162 177 175 180 168 172 179 180 193 213 191 208 234 193 208 232 186 201 222 171 186 208 182 197 219 161 182 209 159 185 211 171 200 226 168 201 228 151 191 224 175 211 242 178 212 243 177 212 244 175 212 243 177 212 244 177 212 244 175 211 244 177 211 243 175 212 244 175 212 244 175 212 244 177 212 244 177 212 244 
51 42 19 62 54 35 50 43 23 50 42 20 45 37 8 48 40 22 47 38 16 48 39 20 49 42 26 43 34 15 46 38 20 46 38 20 52 43 23 52 42 20 59 52 38 49 39 20 48 38 21 48 38 21 49 39 24 49 38 22 51 38 25 50 37 25 53 40 25 59 47 31 54 40 22 57 45 25 61 48 28 66 54 40 71 57 42 63 45 25 63 44 28 81 66 48 77 60 38 74 55 34 77 55 33 72 49 25 83 63 45 97 78 61 87 71 54 111 99 91 107 95 87 92 77 69 81 63 49 79 60 44 81 62 49 90 74 59 103 89 76 116 104 90 116 103 89 114 98 78 95 78 59 83 65 51 84 68 57 81 67 59 91 81 79 110 100 97 89 75 67 88 74 66 94 81 74 125 114 110 126 117 116 123 115 110 142 135 133 108 101 100 135 131 133 153 150 153 106 99 101 99 91 89 132 125 125 162 158 157 146 141 140 160 155 156 158 154 158 161 159 164 131 130 138 180 187 200 195 208 232 190 207 233 183 197 218 167 182 201 142 155 173 132 145 167 137 158 182 163 191 219 166 201 231 180 214 243 179 213 244 178 212 244 177 212 243 175 211 244 174 211 243 174 212 243 175 212 243 174 211 242 174 211 243 175 211 243 175 212 244 179 215 247 178 214 246 177 212 244 
48 38 20 48 38 18 47 38 20 45 38 15 48 41 22 49 41 23 48 39 22 53 47 33 47 39 22 42 33 16 43 34 20 45 36 21 45 36 20 47 37 18 52 44 28 49 38 18 47 37 19 47 36 20 47 35 18 48 38 22 53 41 27 52 40 25 57 44 28 73 59 42 60 45 21 70 57 35 68 53 31 67 53 33 77 64 47 73 59 40 78 64 43 76 61 38 71 52 30 78 62 47 86 68 53 76 55 37 72 50 29 85 71 57 92 78 66 94 81 72 99 88 81 76 62 57 91 79 72 85 71 64 91 79 71 92 80 71 83 68 55 100 87 73 142 133 126 115 103 89 98 84 69 95 81 72 95 83 75 94 83 80 97 89 91 148 141 138 117 108 104 103 93 90 111 102 99 109 101 99 118 112 117 151 147 151 163 158 159 150 145 146 146 142 145 120 115 118 89 80 82 100 91 86 105 94 89 97 84 79 117 107 104 140 135 135 136 130 133 160 157 160 153 152 158 169 175 183 183 196 215 194 208 231 175 188 207 142 157 177 129 140 159 108 117 137 145 167 192 166 196 224 160 196 227 178 212 243 179 212 243 178 213 244 178 212 244 177 212 244 179 214 247 177 213 246 174 212 243 178 212 245 179 214 247 177 212 244 177 212 244 177 212 244 178 212 244 177 212 244 
42 34 18 42 34 14 53 46 32 47 40 21 48 41 26 49 42 26 45 37 19 48 40 25 44 35 17 42 33 18 42 33 16 46 38 20 46 37 18 45 35 19 44 34 14 48 38 23 50 40 24 48 38 21 48 37 21 56 46 27 60 49 30 54 41 24 57 43 22 66 51 27 73 59 36 74 59 36 71 57 34 78 63 45 71 55 34 74 58 35 70 52 29 69 50 30 65 46 25 68 49 29 70 50 30 69 51 34 69 51 36 72 57 41 96 85 76 80 66 55 76 62 52 75 63 55 103 96 91 108 101 96 96 90 88 137 133 137 142 137 136 135 129 126 125 119 115 115 105 99 96 83 74 101 92 85 105 98 98 107 100 99 98 89 84 117 109 102 117 110 105 120 112 110 116 109 107 95 85 87 139 134 139 126 117 116 123 114 112 127 119 118 137 129 129 133 127 125 99 91 90 127 121 123 108 100 99 96 87 85 126 120 117 121 115 113 139 133 131 152 147 148 163 163 168 173 176 185 166 175 192 186 197 218 190 201 218 171 185 203 149 165 187 164 180 200 177 199 223 180 209 238 177 210 241 178 212 242 177 212 243 177 212 243 175 212 244 175 211 243 177 212 244 177 213 244 175 212 244 177 212 245 175 212 243 175 212 244 177 213 244 177 213 244 179 214 246 177 212 244 
39 30 14 43 36 19 48 42 30 44 38 20 43 35 14 45 37 22 44 36 20 45 37 22 43 35 19 43 34 18 43 34 14 49 41 27 52 44 31 45 35 11 46 36 14 50 41 24 49 38 21 49 37 18 60 51 39 70 59 42 66 55 34 81 72 54 80 69 46 76 64 40 73 60 37 67 50 25 62 45 19 71 53 33 72 55 32 63 46 22 64 47 27 70 53 37 66 48 30 67 48 30 64 46 28 65 48 32 73 58 46 76 62 51 94 83 75 89 77 69 86 74 65 90 81 75 120 116 115 101 94 92 90 81 75 105 101 102 116 111 109 140 135 131 110 103 100 107 99 93 102 91 84 92 80 71 89 78 71 118 111 104 99 89 79 88 75 55 114 107 99 125 117 116 111 103 102 122 115 114 149 143 143 112 100 93 105 91 81 110 97 91 97 86 81 105 96 92 121 115 115 171 170 175 144 139 138 120 113 108 135 129 127 123 117 115 132 127 125 146 143 143 174 174 178 144 145 152 149 155 167 178 188 204 155 167 183 151 166 185 157 173 193 144 163 183 178 202 227 179 211 241 179 212 244 178 212 243 178 213 244 175 212 243 177 212 244 178 213 244 177 212 245 177 212 244 177 213 244 178 214 246 177 212 245 175 212 244 178 212 244 178 213 244 177 213 245 178 213 244 
41 33 19 44 37 21 51 45 33 43 36 19 43 35 19 44 37 20 45 38 22 48 41 27 43 35 18 43 35 17 54 48 33 53 46 30 49 40 18 50 40 18 50 40 16 52 43 23 56 48 33 50 39 16 50 37 11 58 48 28 59 46 20 64 50 33 72 60 38 74 60 35 72 56 38 70 54 31 70 54 34 70 53 33 90 73 52 67 52 30 65 48 28 67 49 31 67 50 32 67 50 34 65 47 32 64 47 32 93 83 76 88 74 65 119 109 105 125 118 114 91 80 74 78 66 58 83 74 70 87 79 75 86 77 68 103 96 92 138 133 130 131 126 123 122 117 113 80 67 57 90 80 71 91 79 64 96 86 73 106 96 87 84 71 58 86 74 58 94 82 72 99 91 87 108 99 93 106 97 92 131 124 124 112 101 90 104 87 68 104 91 76 109 99 95 116 109 108 147 143 143 143 137 136 130 124 120 133 129 128 138 134 136 131 127 130 140 136 139 130 126 125 134 131 132 159 161 165 171 177 185 179 186 195 165 175 186 156 175 194 166 187 208 176 199 222 173 201 229 174 207 238 178 212 244 178 213 244 177 212 244 177 212 244 177 212 244 178 214 245 178 214 247 177 212 245 177 212 244 175 212 244 175 212 244 175 212 244 175 211 243 177 212 244 178 214 246 177 212 244 
42 34 18 41 34 17 46 39 25 48 41 28 43 36 21 43 34 19 41 33 16 41 33 16 44 37 22 46 39 23 52 44 28 44 35 10 49 41 24 71 63 46 58 50 28 52 43 19 54 45 25 53 43 23 56 46 26 59 50 33 61 51 35 71 59 46 89 77 56 77 64 40 80 68 45 74 59 37 72 56 32 67 49 24 78 62 40 65 49 29 67 51 31 65 48 28 68 52 35 68 51 37 76 62 53 66 48 38 103 94 88 105 94 86 109 100 93 115 106 103 84 73 66 75 62 53 75 63 54 86 77 70 87 78 71 114 108 102 168 164 161 170 166 164 141 137 136 101 94 90 89 79 68 86 75 61 91 80 66 86 74 63 65 50 34 70 56 40 85 73 61 126 119 113 135 127 119 113 103 92 103 91 84 100 86 78 97 82 68 101 87 74 111 103 98 137 134 140 165 162 166 145 139 137 106 97 91 100 93 91 131 126 129 159 157 157 161 159 161 116 112 115 144 144 146 115 117 119 145 149 156 151 158 165 158 170 183 182 203 223 182 211 237 182 213 242 180 214 242 179 213 244 178 213 243 178 212 244 177 213 244 178 213 245 175 212 243 178 212 245 178 214 245 177 213 244 178 214 246 178 213 245 177 212 244 177 212 244 178 213 245 177 213 244 177 212 244 178 212 244 
43 35 20 42 34 19 42 33 19 44 36 23 42 33 19 42 33 19 41 33 17 42 34 17 43 35 17 42 34 14 42 34 14 44 35 19 47 39 19 55 47 25 58 49 27 54 45 24 56 47 31 54 45 26 54 46 28 51 41 12 87 81 66 72 61 43 60 46 32 71 56 27 84 72 44 80 63 33 81 66 42 75 58 35 70 55 35 64 48 26 61 43 23 60 43 23 65 48 31 73 57 46 75 58 48 68 51 36 98 87 78 96 85 74 84 72 61 92 80 71 90 79 71 82 71 63 85 75 67 108 100 96 95 87 77 107 99 93 142 136 133 146 141 137 148 146 147 119 117 121 129 125 121 89 79 69 86 76 62 84 73 60 75 63 49 78 67 53 99 90 81 136 128 124 121 112 105 133 123 113 110 99 92 101 90 82 94 82 75 94 83 75 110 102 102 138 135 141 134 130 132 108 101 96 100 90 83 106 99 96 116 111 111 94 86 82 99 93 95 113 111 116 170 173 182 179 184 194 144 149 155 137 142 141 130 141 144 161 185 207 179 210 237 180 212 242 180 213 243 180 215 244 179 214 244 178 213 244 179 214 245 179 214 246 179 214 245 178 213 246 177 212 244 179 214 247 178 213 244 177 213 245 177 212 244 174 212 244 177 212 244 175 212 244 175 212 244 177 212 243 
49 43 31 43 35 20 40 32 18 39 30 16 40 31 17 41 33 17 42 33 11 43 36 15 48 40 25 47 41 24 47 40 22 43 34 14 48 41 22 53 46 27 54 46 27 52 42 16 53 43 22 53 44 24 48 38 14 48 38 15 56 46 27 58 48 26 85 79 57 74 63 37 76 61 36 74 59 34 70 52 32 85 71 52 67 51 29 66 49 29 64 48 29 65 49 32 65 48 28 70 52 33 71 53 35 71 53 33 92 78 68 102 91 84 76 61 49 83 69 58 70 55 40 73 59 47 85 73 68 138 132 129 95 87 80 108 101 99 102 96 92 111 103 94 94 86 76 86 82 80 120 115 115 115 109 104 84 76 71 80 70 61 84 74 61 82 71 58 123 117 111 144 138 135 129 122 118 148 141 136 105 95 90 119 112 112 108 101 97 88 76 71 103 95 92 122 119 121 119 114 112 81 68 60 87 78 70 87 78 71 91 83 74 92 84 73 112 107 107 137 137 147 153 159 174 190 195 208 161 169 181 149 158 171 155 166 175 171 195 217 182 212 241 180 213 241 181 215 245 178 213 244 178 213 244 178 213 244 178 212 244 177 212 245 177 213 245 177 213 246 177 212 245 178 214 245 178 213 245 175 212 244 177 213 245 178 214 245 177 213 244 178 213 244 178 214 246 178 213 244 
47 40 27 45 37 23 40 32 19 38 30 16 39 30 16 39 31 8 62 58 45 51 44 26 43 36 17 49 42 26 47 40 22 43 35 11 51 43 23 56 48 30 45 35 10 46 36 11 50 40 19 52 44 26 51 41 16 46 35 8 49 39 14 55 46 26 55 45 22 58 47 26 60 48 23 64 50 27 63 48 24 67 52 30 59 42 19 59 42 22 66 52 34 71 56 38 70 55 37 83 69 53 86 71 53 74 54 30 87 73 61 110 100 92 85 70 60 84 70 58 79 64 49 70 53 39 71 59 54 131 126 126 121 115 112 90 83 80 87 81 76 93 85 77 98 91 84 95 87 79 110 103 97 108 101 91 99 91 82 75 62 44 79 66 52 80 69 56 120 113 108 140 134 131 115 108 101 137 130 126 102 91 84 130 125 122 87 77 72 84 71 64 99 90 86 115 108 106 92 81 77 82 72 66 95 85 80 93 84 77 101 93 81 97 88 83 157 154 157 150 150 159 166 172 183 190 196 208 146 155 169 118 130 146 139 155 170 169 195 218 181 212 242 181 215 243 180 214 244 179 214 244 177 212 244 175 212 244 179 214 245 179 216 247 178 214 245 178 214 245 178 214 246 179 215 247 178 214 246 179 214 247 178 214 246 179 215 247 177 212 244 175 212 244 175 212 244 174 212 244 
39 31 14 38 31 14 38 31 17 38 30 18 37 30 17 39 31 12 50 44 27 44 37 14 41 34 14 41 33 8 49 42 27 44 37 15 51 44 27 54 46 27 50 42 22 48 39 14 64 57 39 67 61 45 53 45 20 51 41 19 50 40 16 56 47 27 57 47 26 56 45 24 57 44 24 56 44 23 59 46 25 65 52 34 58 43 21 60 43 26 65 49 32 68 52 30 80 68 56 82 66 54 84 68 54 79 61 41 86 69 50 89 70 53 82 66 51 84 67 51 89 75 61 75 58 46 60 46 41 87 80 80 111 103 104 133 129 134 143 139 143 147 141 139 161 157 157 128 122 121 150 144 141 111 101 89 127 121 114 107 99 87 104 97 88 98 88 78 103 95 89 130 124 120 121 114 108 117 108 102 106 97 91 85 73 64 84 72 64 97 87 81 91 80 74 79 66 57 79 67 60 92 83 78 126 120 119 141 137 135 114 107 104 96 89 90 157 157 164 173 175 183 155 159 168 150 157 166 124 133 145 138 150 167 181 197 214 177 201 224 181 213 241 182 214 244 180 214 244 180 214 245 178 213 244 178 212 244 180 215 246 178 214 245 178 213 246 177 212 244 180 215 247 178 214 247 179 215 246 178 214 245 178 214 245 178 214 247 177 212 245 177 212 245 178 214 245 177 213 246 
39 32 14 38 30 12 37 29 14 36 28 16 35 27 12 37 29 12 44 38 24 51 46 33 43 36 14 42 36 15 48 41 24 44 37 14 48 40 19 55 47 29 51 42 19 57 50 33 47 38 14 48 38 10 56 48 31 55 46 26 52 42 18 53 44 22 57 46 26 55 43 22 57 44 25 58 46 28 59 46 27 61 48 30 57 41 16 64 49 31 61 42 24 63 46 27 78 65 52 79 63 52 82 69 60 101 88 73 90 73 54 98 79 59 95 78 59 96 77 58 88 72 55 75 58 45 76 65 58 104 95 90 100 93 92 144 141 146 161 156 157 145 140 137 169 163 163 122 113 113 131 119 114 125 116 108 121 115 108 110 101 91 123 117 111 107 99 92 83 73 61 92 82 74 94 85 76 107 99 92 105 96 90 93 84 75 119 112 108 82 70 59 79 66 55 81 70 63 103 96 93 126 121 119 118 113 111 157 153 152 126 122 121 125 121 121 157 157 161 170 171 182 181 185 196 158 166 178 168 179 195 156 171 192 144 165 189 168 196 221 182 214 242 181 214 244 178 213 243 180 214 244 180 215 246 178 214 245 179 215 246 180 215 246 179 215 247 178 212 244 179 214 246 178 214 245 178 214 246 178 213 245 178 214 245 180 215 247 179 214 246 177 213 245 178 213 245 178 214 245 
39 31 0 44 38 27 38 30 12 36 28 14 35 28 14 35 27 10 42 35 16 43 37 18 45 39 22 45 38 20 42 34 14 41 34 14 45 38 14 54 47 30 48 40 15 58 51 38 47 37 14 48 37 14 50 40 20 52 42 22 52 42 20 55 45 24 57 47 27 52 40 16 54 42 20 55 42 18 56 43 19 56 43 17 59 45 23 64 50 28 68 53 33 81 68 50 75 60 43 70 54 41 73 57 51 89 73 59 73 54 32 88 73 58 91 71 49 91 71 50 77 57 33 80 64 51 102 90 83 118 106 100 80 63 57 108 93 87 139 127 122 155 145 139 140 129 121 146 137 131 112 96 85 106 95 81 97 87 75 91 80 67 105 96 86 110 103 97 128 123 119 85 74 61 95 85 74 104 97 92 95 85 77 111 106 101 103 95 91 90 81 74 85 75 68 94 86 86 112 107 110 111 106 108 112 107 107 132 128 127 148 145 146 148 146 150 176 176 183 165 167 177 143 149 162 129 138 155 175 188 204 172 188 208 144 166 190 174 201 226 180 212 240 179 213 242 179 214 244 179 213 243 178 213 244 179 214 245 179 215 245 178 213 244 178 214 245 178 214 245 179 214 246 180 215 246 177 213 245 178 214 246 178 213 245 178 214 245 178 213 245 178 214 246 178 214 246 178 213 245 
41 34 18 43 36 20 40 33 14 39 32 14 37 29 8 38 31 11 42 35 15 44 39 22 44 37 18 45 39 21 42 35 15 43 36 15 53 46 30 55 47 30 46 37 14 51 44 27 48 38 18 50 41 22 48 38 22 48 37 14 55 46 27 56 46 26 53 43 23 54 41 22 55 42 20 58 46 27 58 45 23 60 48 27 60 46 23 63 50 30 79 65 37 91 77 49 76 58 36 71 53 33 75 58 44 89 75 60 74 55 40 86 71 61 92 76 61 103 84 69 78 56 34 71 49 32 73 56 43 95 84 80 102 86 81 128 106 92 122 93 73 128 109 98 112 92 79 116 103 92 93 77 64 108 97 87 91 80 69 97 88 78 100 92 82 115 110 105 118 112 107 86 77 66 86 75 61 104 96 90 81 69 59 95 87 80 89 80 71 95 86 78 107 99 95 108 101 97 86 78 75 92 85 84 83 75 71 111 106 104 118 114 116 123 119 118 153 150 153 154 155 161 128 134 144 149 157 171 155 169 187 175 194 214 186 204 226 186 211 236 182 212 241 180 212 243 181 215 244 178 212 243 180 214 244 179 214 245 179 215 246 179 213 246 179 214 246 178 214 245 178 213 244 179 214 246 179 214 246 178 214 245 179 214 246 178 213 245 178 213 245 178 213 245 178 214 246 177 213 245 
42 34 11 38 30 49 42 35 12 42 35 15 42 36 15 46 40 22 47 41 25 47 40 24 45 38 20 46 39 22 44 37 20 43 36 16 46 38 20 50 42 26 46 39 21 46 38 20 47 39 18 50 40 20 57 47 30 61 50 33 60 50 33 59 49 30 55 44 24 55 44 25 55 43 22 59 48 28 58 46 24 58 45 22 58 44 21 58 43 22 77 62 39 104 92 59 92 78 50 82 66 45 75 57 38 79 61 45 86 72 68 98 84 80 82 64 45 97 78 59 88 63 41 83 58 39 87 65 47 91 74 68 104 83 68 132 109 86 130 100 77 119 98 82 113 92 77 96 75 59 107 96 87 110 100 91 82 72 64 92 81 73 115 107 100 131 128 126 96 91 84 97 89 80 79 69 57 88 79 70 72 60 49 83 74 63 92 83 75 86 77 70 89 82 77 108 100 97 86 78 73 82 74 68 81 72 64 86 76 69 98 91 88 131 128 125 170 168 171 157 158 166 136 142 157 157 168 182 175 190 207 182 200 219 186 205 228 189 212 237 182 212 239 180 211 241 180 214 244 178 213 243 181 217 246 180 215 246 179 214 244 179 214 247 179 214 244 178 214 245 179 215 247 180 216 247 179 215 247 178 213 245 179 214 245 178 213 246 179 213 246 178 214 245 178 214 245 178 214 246 
61 56 38 47 39 20 60 54 38 50 44 21 44 36 14 45 38 17 45 38 18 41 34 11 42 34 15 43 36 20 45 38 22 46 40 26 47 39 22 45 38 20 46 38 20 47 38 19 50 41 22 51 41 21 56 47 30 51 40 18 56 46 27 58 48 29 63 53 36 61 50 29 58 46 25 58 46 24 67 55 36 66 54 34 66 53 37 66 51 28 81 68 43 87 73 42 83 68 46 92 77 60 80 62 48 100 87 77 83 66 58 84 66 57 85 64 46 93 69 52 108 81 65 99 67 45 113 86 68 103 73 55 117 89 71 117 86 57 131 107 93 128 104 91 128 108 94 104 86 71 115 103 94 131 123 120 82 71 67 124 118 116 128 127 133 171 170 179 121 117 116 104 97 92 83 75 67 83 75 71 80 73 71 123 120 121 154 152 153 120 116 113 115 110 108 136 132 130 104 97 93 78 67 59 75 65 58 93 87 84 107 101 101 127 123 122 133 129 131 141 142 148 160 167 181 155 167 189 173 190 211 169 188 212 163 185 209 158 182 205 131 159 188 151 181 212 179 210 240 181 215 244 182 216 246 180 216 245 180 215 246 179 214 244 179 214 245 179 215 246 179 214 245 178 213 245 179 216 247 179 214 246 178 214 245 180 215 247 178 213 246 178 213 245 179 214 246 180 215 247 
62 55 33 54 47 22 67 61 37 60 53 27 48 41 20 47 40 22 42 35 8 40 33 11 41 34 15 40 33 14 40 32 16 43 35 19 44 36 19 45 36 18 47 38 21 51 42 23 51 43 22 51 42 17 60 51 35 51 39 19 54 42 24 57 46 27 63 53 34 61 50 30 57 45 22 56 43 20 66 54 34 66 52 29 66 52 33 77 64 43 74 58 30 71 54 31 114 104 90 101 85 69 92 76 60 107 95 84 88 69 51 85 63 46 87 64 47 93 66 46 103 75 54 108 78 55 124 96 74 113 81 56 121 92 72 113 81 55 107 76 59 118 93 78 117 96 76 100 81 63 120 109 99 112 103 100 91 81 75 107 103 97 128 124 126 133 127 128 115 108 104 81 71 63 99 93 88 122 116 113 99 93 90 161 159 164 152 151 155 99 94 92 83 75 70 83 74 70 91 83 79 103 97 92 104 97 92 71 61 58 120 116 116 130 125 123 142 138 135 117 117 123 126 135 152 154 168 193 189 206 229 184 202 223 148 171 196 144 167 192 132 157 186 96 125 153 158 190 219 180 212 243 180 213 244 180 214 245 180 216 245 182 217 247 181 217 246 179 216 245 179 215 246 180 216 247 181 217 247 179 216 247 178 214 245 179 215 246 180 215 247 179 216 247 179 215 246 178 214 245 
45 37 48 50 42 22 78 74 56 54 45 23 48 40 18 47 39 17 41 33 0 44 37 18 46 39 20 43 36 18 44 36 18 43 36 16 44 37 19 44 36 19 44 36 17 51 42 22 57 50 33 58 49 29 61 52 35 52 41 19 53 41 22 55 44 26 61 50 31 59 48 28 54 43 16 57 44 19 63 51 29 66 53 32 68 53 32 73 59 36 78 64 42 70 53 31 84 70 55 89 74 59 85 70 57 84 66 49 81 58 35 84 60 36 78 50 42 99 71 47 107 76 53 111 80 58 132 106 85 107 71 50 103 67 48 119 91 73 110 80 57 117 91 71 111 87 67 106 88 72 119 105 96 94 78 68 90 79 70 112 106 97 118 109 103 106 95 90 104 96 87 106 99 93 99 93 89 87 79 71 98 93 85 131 128 127 109 104 103 106 99 98 83 74 69 74 63 55 72 63 63 86 77 71 86 77 70 83 75 71 78 70 67 84 77 75 93 89 90 137 138 144 126 133 146 138 151 167 165 181 200 149 168 190 144 168 188 139 166 192 134 163 192 150 179 205 144 177 208 174 206 236 181 215 244 182 216 246 181 216 245 181 216 247 180 215 246 180 217 247 179 215 244 180 215 246 179 215 246 177 213 244 179 215 246 179 215 246 180 216 247 179 214 245 177 212 244 179 215 247 
52 47 27 54 47 23 58 51 30 54 46 24 46 38 16 47 38 10 49 41 20 48 39 22 48 40 23 46 37 15 50 43 29 50 43 26 46 37 18 45 36 19 46 37 21 47 38 16 54 46 27 58 50 31 54 43 17 55 44 24 57 46 27 56 44 22 58 45 21 61 50 27 59 48 28 71 61 45 60 46 19 63 49 27 69 53 32 65 48 27 71 54 36 70 53 33 71 54 37 72 55 39 68 50 36 76 57 40 92 72 52 111 86 64 102 71 45 122 95 73 120 89 62 118 85 53 120 85 48 127 95 61 115 82 55 117 85 57 115 86 60 111 84 59 101 74 53 122 104 93 125 110 101 123 109 101 117 103 95 125 113 102 102 89 77 89 72 64 81 66 57 89 81 74 106 101 95 95 89 84 146 142 139 129 125 123 112 107 103 112 106 102 92 84 77 80 70 63 80 70 69 85 74 70 74 64 57 89 82 79 91 85 82 76 68 67 79 73 72 113 113 113 118 123 130 109 122 137 148 165 185 141 164 187 168 190 211 179 202 224 170 194 218 177 202 227 172 201 228 177 205 234 183 212 241 174 206 235 177 208 239 181 215 245 180 216 246 181 216 247 179 216 245 180 217 247 179 215 246 178 214 245 178 214 247 179 216 247 179 214 245 179 215 247 180 217 247 180 216 247 
60 54 33 53 46 23 46 38 48 46 38 6 57 49 24 76 65 40 59 48 32 46 36 0 49 38 14 58 48 28 53 42 22 53 44 24 48 39 20 47 38 18 47 39 22 48 38 20 51 42 20 53 43 19 59 49 27 66 58 37 67 58 38 65 55 35 59 47 23 60 49 25 59 46 22 69 57 37 68 56 33 65 50 29 69 52 30 73 58 40 65 47 28 83 70 60 92 79 69 78 63 49 81 65 53 86 68 51 93 71 46 104 71 39 98 59 47 106 72 49 134 106 82 142 113 79 143 114 73 132 98 63 111 74 44 117 84 53 111 80 43 122 96 71 114 87 67 159 145 135 148 132 122 125 109 97 98 78 61 87 70 50 115 104 96 122 112 108 89 76 73 104 95 90 119 113 109 118 114 112 150 147 145 135 132 131 120 116 111 118 112 108 99 92 86 70 58 46 66 52 42 71 59 50 70 59 52 89 82 80 107 102 104 98 94 95 114 112 113 137 137 143 163 167 177 131 145 161 185 200 218 182 202 222 166 191 214 181 204 228 186 208 233 189 212 237 189 214 239 165 193 218 149 177 204 136 166 194 174 203 232 181 214 244 181 217 247 180 216 246 180 215 246 180 216 247 181 217 247 180 216 247 180 216 247 181 217 247 179 215 246 178 214 245 181 216 246 179 214 245 
47 38 0 48 39 8 48 41 25 56 49 32 64 55 28 93 83 52 104 94 63 64 55 33 53 42 16 67 58 40 65 55 39 58 48 32 53 44 24 61 54 41 48 39 21 47 39 21 49 40 22 53 43 20 66 58 37 68 58 35 58 47 18 63 53 29 63 53 29 56 43 16 60 47 25 67 54 33 70 57 38 64 50 27 74 61 44 77 62 44 69 52 42 76 61 49 98 86 76 82 66 52 74 53 34 77 54 30 95 71 50 114 86 66 128 101 71 115 81 50 113 75 50 125 91 55 109 71 38 108 69 42 97 58 41 110 76 50 117 89 64 129 103 75 103 73 47 118 94 75 113 89 67 128 108 93 101 80 56 91 73 53 117 106 98 117 108 104 108 99 98 115 108 105 90 85 81 128 124 122 151 147 144 143 141 138 118 114 110 118 114 110 101 96 92 79 70 60 65 52 39 71 61 51 72 61 54 73 64 62 81 75 79 100 99 102 133 132 136 135 136 145 133 138 148 140 151 165 174 191 211 177 197 220 177 199 222 190 212 236 191 212 237 189 212 237 189 214 238 169 196 222 151 178 204 174 200 225 177 203 232 182 214 245 180 214 245 180 216 247 181 217 247 180 215 246 181 217 247 180 216 247 179 215 245 180 215 245 180 217 247 180 216 247 180 216 247 179 215 247 
57 49 28 49 40 12 51 43 27 56 48 30 62 53 30 83 74 45 106 98 64 83 74 50 60 51 33 56 48 30 54 45 28 56 46 24 55 44 26 62 55 42 68 61 49 50 41 22 49 39 19 52 42 20 64 54 28 67 57 30 63 52 31 67 56 36 69 58 37 56 43 18 65 52 32 66 53 30 68 54 32 63 49 26 69 56 38 76 61 40 68 50 31 65 48 33 70 52 37 66 45 26 71 49 26 83 60 36 84 54 45 101 69 46 130 97 63 134 101 58 125 89 54 111 70 38 112 75 45 138 107 71 136 102 69 115 83 62 116 85 54 125 99 71 107 78 53 106 80 54 123 101 83 125 104 85 102 81 56 100 81 60 123 113 106 104 91 84 97 85 80 109 100 94 124 116 112 107 101 95 108 102 96 104 97 92 98 91 83 103 95 91 95 87 86 97 89 85 86 77 71 82 72 65 70 59 53 73 64 62 87 82 86 103 102 109 124 125 135 81 81 93 67 71 82 87 108 126 141 164 187 181 200 221 182 203 226 189 212 236 186 208 232 181 203 227 173 198 221 173 196 219 153 178 200 176 201 224 153 183 213 172 207 237 179 214 245 181 217 247 180 217 247 180 215 246 180 217 246 178 213 244 179 215 246 180 215 246 180 215 247 178 214 246 181 217 248 180 217 248 
58 50 28 57 50 31 48 38 11 46 37 12 56 49 31 55 47 33 52 43 24 51 42 23 52 42 21 53 44 25 49 40 20 74 66 49 50 39 11 52 43 24 67 59 46 54 44 24 52 41 23 60 51 28 76 69 45 82 73 50 65 53 30 56 43 17 57 45 18 60 47 20 83 74 53 70 56 35 64 50 27 64 49 27 72 58 39 87 73 56 69 51 33 62 45 28 76 58 45 86 69 51 95 74 48 99 76 53 115 90 60 109 76 50 136 104 65 132 98 55 106 68 40 108 71 39 104 65 31 120 87 59 133 99 59 127 98 71 108 74 48 107 75 42 111 85 59 104 78 53 125 106 87 126 108 90 111 91 71 96 77 57 85 68 53 96 84 76 92 77 72 107 97 94 135 127 122 95 80 64 105 92 78 94 79 59 103 92 76 111 101 91 102 92 87 127 120 119 122 116 116 100 93 89 83 75 74 112 108 112 108 107 112 74 71 78 86 87 97 74 77 87 94 101 112 136 151 165 163 181 201 166 187 209 187 204 226 182 200 221 168 187 206 156 177 195 137 158 178 118 139 160 144 165 185 151 175 194 137 168 197 177 211 240 179 214 244 179 214 245 179 216 247 180 216 246 180 216 246 179 215 247 180 216 247 179 215 246 181 216 247 179 215 247 181 217 247 181 217 248 
58 50 29 52 44 19 49 40 20 45 37 19 45 38 15 48 40 19 48 40 21 48 39 21 45 36 14 49 41 24 46 36 0 55 45 24 53 42 22 52 42 22 52 41 22 58 48 32 63 52 37 66 55 41 66 53 35 76 66 46 67 54 32 59 45 20 57 44 18 66 54 32 68 54 29 68 55 33 62 48 24 63 47 27 70 55 42 81 66 47 79 63 43 70 51 40 91 74 55 99 82 62 107 88 64 115 91 57 128 102 67 120 90 52 116 84 48 127 97 55 111 74 38 103 62 37 91 50 32 94 53 41 126 95 62 120 89 53 98 66 51 103 71 43 108 78 51 110 85 59 121 101 85 122 103 89 94 70 50 94 75 58 92 75 66 111 100 94 87 70 64 89 73 65 107 93 78 112 100 85 106 92 74 91 76 57 126 116 107 124 112 102 103 91 81 94 84 78 112 104 102 88 78 73 86 78 77 83 76 81 71 64 67 80 77 78 100 100 105 114 118 126 151 158 166 174 185 199 152 167 189 166 180 200 158 171 188 143 155 168 143 156 171 188 199 211 187 197 209 144 157 170 165 185 201 173 196 214 188 212 235 182 214 243 181 216 245 182 217 247 181 217 247 180 216 247 181 217 247 181 216 247 180 216 247 178 213 244 180 216 247 180 216 247 179 215 245 180 217 247 
67 57 36 52 44 21 51 43 22 47 38 18 44 36 17 46 38 19 43 35 16 42 33 14 45 36 18 53 46 31 51 42 20 56 48 30 55 44 24 61 51 35 55 43 26 58 47 31 61 48 31 62 49 27 65 52 28 67 53 31 79 66 48 65 51 28 60 46 20 61 48 20 65 52 25 71 60 37 61 46 23 68 55 32 90 79 56 83 69 39 76 57 30 94 77 60 91 71 50 97 80 61 99 74 53 113 88 58 138 119 101 115 83 49 111 78 47 106 69 37 110 75 45 142 111 71 115 79 45 104 64 44 139 110 69 114 80 45 98 66 47 94 63 48 119 93 70 117 90 62 119 96 79 131 114 106 101 79 61 78 53 44 91 72 59 92 74 60 91 74 61 101 86 73 123 111 99 101 85 64 93 76 52 91 74 52 102 88 74 101 86 70 91 75 59 82 69 58 91 79 74 68 53 43 76 64 57 76 66 60 81 74 72 91 89 91 87 90 96 153 157 165 160 166 174 138 146 157 122 133 148 135 144 161 163 170 181 113 116 118 127 130 134 120 126 136 135 139 137 141 150 143 143 161 170 126 153 171 173 201 224 183 215 244 181 216 245 181 216 247 182 218 248 179 214 245 179 216 245 181 217 247 180 215 246 180 216 247 180 216 247 179 215 245 181 216 247 179 215 245 
71 61 39 55 48 23 60 54 33 48 41 14 47 39 15 45 38 14 44 36 14 43 35 16 44 35 14 51 44 27 55 47 29 69 60 45 51 39 17 56 42 20 64 52 34 67 57 40 64 51 31 61 49 27 64 51 27 71 57 34 85 72 53 69 56 32 73 63 44 60 45 23 62 48 20 71 59 37 62 48 27 74 62 43 89 77 51 94 81 53 83 64 37 99 76 52 129 108 83 108 87 60 96 66 39 106 78 42 108 79 41 111 78 45 113 80 38 107 71 32 100 63 36 118 85 42 130 98 54 143 111 62 136 103 59 114 81 57 93 60 36 110 82 70 127 101 75 114 83 49 99 71 44 91 64 45 97 74 53 82 58 36 94 76 58 91 70 53 103 87 74 104 89 76 128 118 107 122 109 94 103 86 66 87 67 40 83 64 43 81 62 39 82 66 47 82 67 53 78 63 49 77 63 51 120 111 105 104 95 89 110 103 102 116 113 117 121 121 127 151 155 165 145 150 160 146 151 161 101 109 121 111 118 127 140 146 152 124 128 127 141 147 157 159 168 179 174 182 189 142 155 165 149 173 194 165 192 216 168 198 225 177 211 241 181 215 245 180 216 245 181 216 246 181 216 247 180 216 247 180 216 247 181 217 247 180 216 247 180 216 247 179 215 246 180 216 247 181 216 247 
57 49 27 49 42 18 60 53 28 69 64 45 54 47 16 61 54 33 63 56 37 45 36 11 49 42 22 47 39 17 49 40 19 54 43 21 53 40 19 62 45 27 80 63 45 84 70 48 74 62 42 73 61 44 68 54 32 66 53 30 78 68 49 76 65 43 76 64 45 74 64 42 69 57 34 61 47 18 59 46 25 65 51 32 66 51 30 76 60 30 76 58 27 89 69 45 107 84 53 103 80 50 107 80 48 102 78 42 99 74 35 101 70 45 111 78 48 117 90 52 115 83 42 113 82 47 119 87 52 137 105 62 131 96 54 112 78 57 97 58 33 103 70 42 115 89 63 102 71 50 103 77 54 89 63 38 88 64 41 83 60 37 89 67 45 96 80 65 101 84 68 95 76 60 97 79 59 129 117 103 110 94 73 118 106 92 88 71 51 79 60 37 73 55 32 87 72 58 78 61 44 86 71 55 127 117 106 111 101 87 112 104 96 114 109 106 138 137 137 128 131 139 122 128 141 123 127 136 112 119 127 103 109 115 115 120 126 128 133 139 149 158 167 140 151 162 147 156 166 139 156 171 178 201 223 186 213 239 180 212 239 180 213 242 182 216 246 182 218 247 181 217 247 182 217 247 181 217 246 181 217 247 181 216 247 182 219 248 181 217 246 180 216 245 181 217 247 181 217 247 
43 37 48 48 41 12 49 42 16 57 50 28 63 56 28 70 63 37 66 59 36 46 38 8 52 44 24 51 43 25 48 39 20 59 48 30 77 67 54 87 66 47 137 113 81 112 87 54 77 58 27 73 58 40 71 57 36 67 52 28 83 75 61 81 70 51 71 58 33 78 66 45 71 58 36 63 49 25 67 56 35 79 69 49 74 63 39 67 51 32 78 61 34 87 67 40 94 72 43 85 61 36 85 61 33 91 71 42 94 71 38 89 61 38 118 91 57 108 80 44 108 78 43 96 61 32 105 74 55 127 99 79 110 72 45 105 69 44 110 74 45 110 74 46 107 77 50 120 99 77 104 81 57 85 60 34 79 56 27 78 55 29 90 69 44 101 85 68 106 90 74 107 92 76 119 106 93 116 102 87 108 92 68 116 102 85 84 64 43 84 65 43 74 55 33 83 67 50 74 54 32 77 59 37 92 77 55 98 84 65 101 89 76 96 84 72 103 97 90 118 119 122 151 156 165 133 137 144 110 115 124 106 113 125 153 160 170 159 166 176 159 168 177 127 136 148 107 119 133 156 172 187 181 203 225 188 216 241 185 217 241 182 215 243 182 217 247 182 218 247 182 218 247 181 216 245 181 216 247 180 215 246 181 217 247 181 217 247 181 216 246 180 217 246 180 217 247 180 217 247 
49 42 19 61 55 35 74 67 38 63 57 30 52 45 10 55 47 18 50 43 11 52 45 19 52 43 16 53 43 19 49 39 11 57 44 19 79 63 35 94 72 41 101 70 37 99 76 44 90 74 43 104 93 69 82 70 46 77 66 49 75 63 42 64 50 31 72 59 35 80 69 46 69 55 32 59 46 22 62 50 27 65 53 27 78 68 48 74 60 43 86 72 57 82 64 48 76 54 33 78 56 32 83 62 30 70 48 31 78 56 30 89 63 39 103 78 48 92 60 33 95 69 40 98 68 38 97 67 41 121 97 82 110 72 38 114 79 48 125 92 59 141 107 74 117 86 65 105 75 40 99 71 39 90 64 40 83 58 34 81 60 39 92 71 44 94 73 48 97 80 57 98 80 57 118 106 92 112 97 80 118 103 84 102 84 58 80 60 35 88 72 52 74 53 31 73 53 32 76 58 40 85 70 53 99 84 65 91 75 54 89 75 59 91 80 67 95 86 78 105 102 99 125 128 133 93 96 103 108 115 122 120 127 139 121 130 143 137 146 157 109 118 129 99 107 117 90 103 118 103 121 139 137 164 190 183 212 239 183 214 241 185 217 244 182 217 246 182 216 245 181 217 246 179 215 244 166 204 235 180 216 246 180 217 246 181 217 247 181 217 247 182 218 248 182 218 247 180 217 247 
71 64 37 107 101 63 99 93 52 58 50 32 49 42 16 50 43 16 53 45 16 68 62 38 58 49 18 54 44 14 53 43 15 67 57 35 82 68 41 101 87 59 84 61 31 84 63 34 97 83 52 98 85 52 75 60 31 64 49 27 72 62 40 67 53 28 68 56 30 72 60 31 66 53 28 55 42 18 52 40 14 53 39 11 66 54 35 72 59 44 86 72 53 81 61 32 85 64 33 80 59 33 85 65 36 81 60 30 76 53 27 86 66 42 95 72 42 81 55 27 80 52 27 87 60 30 84 58 28 105 80 63 109 78 50 119 89 53 134 108 75 116 83 46 125 96 65 122 93 63 120 89 60 107 76 50 90 65 45 73 49 32 92 73 53 100 80 57 95 76 50 98 79 54 94 74 47 99 81 55 117 101 76 124 108 87 101 83 58 88 70 45 78 59 37 79 61 43 79 61 43 89 76 60 95 79 58 89 74 54 83 67 49 93 83 72 86 79 70 83 80 76 117 120 126 142 146 155 159 165 173 178 183 192 123 133 145 89 100 116 85 98 109 122 135 149 129 141 157 132 150 164 132 160 183 145 178 205 173 206 233 186 218 244 182 217 245 183 218 246 182 218 246 167 205 234 150 192 224 170 208 238 180 216 246 181 217 246 181 217 247 181 217 247 181 217 247 181 218 247 
73 69 47 76 68 36 82 75 36 74 67 37 55 48 23 52 45 19 54 46 19 71 65 40 66 59 30 57 47 16 58 48 26 58 45 25 57 43 26 75 63 43 81 65 35 76 58 30 67 49 23 81 66 41 72 57 33 60 45 11 66 52 27 62 48 18 70 58 35 69 58 37 62 49 22 53 41 12 59 47 24 65 53 28 59 45 21 67 52 27 76 57 31 75 56 32 100 84 58 92 75 46 83 64 37 85 66 37 80 58 32 82 63 40 85 66 36 78 54 28 68 43 21 76 51 27 84 60 31 76 48 33 87 58 38 117 92 67 120 93 59 101 70 53 97 61 46 106 76 46 110 78 50 105 75 53 95 68 48 85 63 49 108 92 74 93 71 45 91 70 43 92 71 45 92 71 42 101 84 62 122 106 81 121 104 75 98 78 47 87 67 43 82 63 41 72 53 30 79 61 46 86 69 52 82 63 42 92 79 65 87 75 62 85 74 65 102 100 101 92 92 93 115 119 125 148 152 159 137 145 153 159 167 175 129 143 156 122 139 153 141 158 172 140 157 177 169 186 205 166 187 207 188 212 233 178 207 232 170 203 230 183 216 244 178 212 241 179 213 243 178 213 241 160 199 229 175 212 242 174 212 242 182 217 247 181 216 246 183 218 248 183 219 249 181 218 247 181 217 247 
51 45 15 57 50 27 77 72 45 90 83 55 55 48 19 55 49 24 52 45 15 49 41 8 67 60 36 89 81 52 95 88 59 65 53 26 54 43 8 56 45 18 58 46 17 57 46 17 58 47 20 60 50 25 61 52 27 56 45 15 57 46 22 55 43 12 55 42 6 55 43 14 53 41 0 67 58 32 65 53 30 70 59 35 70 58 40 77 63 37 71 53 30 68 50 29 74 58 38 82 62 33 89 71 38 97 80 48 92 75 47 77 55 30 101 86 58 94 73 41 71 48 27 84 63 36 79 56 26 85 62 40 80 53 33 96 64 40 96 63 38 114 92 69 108 80 51 106 82 63 87 54 28 82 52 40 89 63 42 79 56 44 91 73 49 98 78 55 96 76 55 90 69 43 101 84 61 100 82 55 102 84 59 107 88 59 102 84 63 83 63 38 90 74 58 74 54 32 80 63 47 108 95 85 102 89 77 111 101 92 100 89 80 80 70 60 88 85 83 87 91 94 143 150 157 121 130 141 97 108 115 87 101 112 149 162 172 131 149 165 178 195 210 188 208 225 188 210 230 189 212 235 192 215 238 189 216 241 177 209 235 168 203 232 172 207 236 180 214 244 165 202 232 166 203 233 182 218 246 182 218 246 182 218 247 181 217 246 183 219 247 183 219 247 180 216 245 181 217 246 
46 41 18 47 41 15 56 51 30 56 48 27 48 41 18 47 40 11 49 41 17 47 40 16 75 68 47 82 73 43 91 82 57 64 54 29 64 54 29 86 81 53 72 63 35 54 44 17 54 45 21 51 42 14 54 44 20 54 45 21 49 39 0 53 43 16 61 52 30 60 51 25 58 48 24 77 69 42 76 66 36 61 50 20 65 52 26 79 65 44 99 84 53 78 57 40 78 60 38 87 69 43 77 56 34 79 58 32 65 45 22 73 52 32 105 88 57 89 69 39 76 52 27 74 50 30 76 54 35 89 68 40 87 62 28 95 71 41 116 94 72 111 87 58 94 68 36 88 59 35 78 53 34 87 61 43 99 76 58 84 62 43 114 99 84 111 95 78 94 72 45 101 84 64 96 78 55 98 80 55 101 84 61 98 81 57 104 88 67 92 74 55 104 89 74 71 50 29 87 71 56 112 102 92 104 92 81 98 86 79 111 103 96 102 96 90 92 91 91 102 107 114 135 144 155 152 161 171 112 125 132 134 146 157 139 152 163 165 182 197 161 181 200 146 167 185 175 199 219 191 213 233 191 215 238 188 215 240 178 211 237 150 188 217 171 206 235 177 212 239 173 211 240 179 214 243 182 217 245 185 220 249 183 219 248 183 220 247 182 219 247 182 219 247 183 219 247 181 217 247 
44 38 19 46 41 24 43 38 15 44 38 17 42 35 6 43 36 11 46 37 0 49 41 16 60 52 28 51 42 24 63 53 31 62 52 25 66 57 30 76 67 36 58 49 19 53 45 17 50 43 19 46 38 14 46 38 10 47 38 8 49 41 16 59 51 32 60 50 27 58 47 18 73 65 42 64 53 27 56 44 14 59 47 18 61 47 30 83 68 38 127 111 74 117 101 68 94 78 48 90 72 43 77 58 32 72 51 31 64 45 24 82 63 38 111 89 57 83 61 33 91 70 45 98 79 58 85 63 35 77 52 32 85 63 44 119 100 80 134 114 93 128 108 83 113 93 71 111 89 70 88 64 47 117 100 90 73 48 32 98 80 70 128 113 105 111 94 79 97 77 56 127 114 104 116 103 96 116 101 85 104 89 70 100 84 62 105 91 73 106 92 78 106 92 79 76 57 37 98 84 72 100 87 75 117 107 98 91 78 67 85 75 66 105 104 101 122 131 139 161 171 180 133 146 157 156 168 177 121 135 144 111 128 138 121 140 150 160 181 198 172 194 214 170 194 214 167 189 209 150 177 195 159 185 206 153 183 206 174 206 231 127 167 195 166 203 233 170 206 235 183 218 246 183 218 245 182 218 247 183 219 247 183 219 247 183 219 248 183 220 249 183 219 248 182 218 247 182 218 247 
40 34 16 41 34 16 42 36 16 44 38 17 50 44 26 45 39 10 55 48 29 63 57 38 55 46 20 56 47 20 61 52 24 64 55 29 67 58 32 60 51 23 58 51 31 64 57 40 46 38 12 46 38 14 49 42 22 51 43 24 49 40 14 52 43 18 53 44 22 55 45 22 57 47 19 58 48 22 61 50 26 66 55 29 80 70 46 100 85 48 102 85 54 122 105 68 94 74 40 87 65 35 76 55 31 91 73 43 81 62 35 86 67 36 101 83 53 87 66 37 82 59 38 81 57 33 81 60 37 82 60 40 86 63 40 96 74 57 93 68 42 103 82 52 101 78 42 116 98 74 110 88 64 105 83 66 73 45 31 116 98 92 135 120 113 107 86 71 111 94 82 119 104 95 131 120 117 116 102 91 107 93 76 113 99 84 107 92 76 103 87 70 96 80 64 81 62 45 102 89 77 113 102 91 110 100 90 97 85 74 81 71 64 142 146 157 133 148 166 174 190 203 143 163 178 128 151 166 120 143 157 148 170 185 160 181 198 166 188 208 181 203 225 181 204 225 173 195 213 150 173 188 156 180 199 128 159 185 163 195 221 133 173 204 165 202 232 180 215 243 185 219 247 185 219 247 183 219 247 182 218 247 180 216 246 181 218 247 182 219 247 183 220 249 183 220 247 181 218 246 
38 33 15 41 34 18 45 38 21 43 36 18 47 41 22 53 46 29 60 52 33 48 40 11 49 42 11 56 48 23 54 45 16 59 50 32 59 50 25 53 45 17 51 44 18 52 45 23 44 35 8 46 38 17 48 40 18 48 40 17 49 41 18 51 42 22 51 41 18 52 42 16 56 46 26 62 53 31 67 56 31 62 50 24 74 63 28 82 66 33 88 68 38 99 77 43 104 83 50 85 64 33 82 61 35 100 84 55 88 68 35 85 66 36 87 67 36 90 71 43 92 74 55 81 61 35 81 60 36 86 65 40 88 66 37 77 52 33 76 51 37 89 66 41 98 72 33 111 84 50 108 81 45 108 85 58 106 80 55 114 88 69 106 78 59 103 79 68 116 96 87 159 148 142 154 145 144 129 120 123 124 113 105 116 101 90 90 73 58 96 80 64 103 90 78 94 79 63 98 82 68 105 92 79 106 94 83 97 85 74 86 78 73 128 133 145 154 168 185 151 170 187 119 147 163 140 169 190 178 202 223 185 209 231 188 210 232 181 201 221 173 194 213 158 182 202 136 163 184 143 161 179 152 179 198 161 189 213 143 179 208 166 202 231 185 219 247 187 221 248 185 218 246 185 220 247 183 219 248 183 218 247 182 219 247 183 220 247 183 219 248 182 218 246 182 218 247 183 220 249 
38 32 14 39 33 14 42 36 19 42 36 17 43 38 19 47 42 23 47 40 19 45 38 12 49 42 26 56 50 32 71 64 43 112 106 76 105 97 70 47 40 20 48 41 18 43 36 8 44 36 14 45 36 14 46 38 16 46 38 18 48 39 17 50 41 23 55 46 30 55 45 26 57 48 30 60 49 28 64 53 27 75 64 36 78 66 39 80 65 40 86 69 43 66 46 23 70 50 31 77 56 30 66 46 28 85 66 41 85 67 38 71 49 27 78 58 32 98 81 54 83 63 40 78 59 27 70 52 26 61 43 15 71 56 36 86 66 32 88 69 39 93 72 40 103 81 48 116 90 57 103 75 45 91 60 29 101 73 40 109 78 48 98 63 39 117 93 82 109 82 72 118 97 88 124 109 104 120 110 110 117 104 95 122 111 101 91 75 59 99 84 69 95 81 69 105 93 81 113 101 89 108 95 77 101 86 69 91 79 66 86 80 75 119 123 135 139 155 170 143 165 181 156 182 202 187 211 235 191 216 240 192 217 240 189 212 233 178 200 219 133 158 173 117 145 161 151 175 193 150 174 190 158 184 204 156 187 215 173 206 235 187 219 247 185 219 246 185 219 247 185 219 246 183 219 246 183 219 247 183 219 248 183 219 247 182 217 247 183 219 248 183 219 249 183 219 248 183 220 249 
41 34 15 41 34 15 42 35 16 42 35 16 40 33 11 45 39 22 47 41 24 47 41 24 46 40 23 57 50 36 94 91 84 86 78 60 86 76 53 48 40 26 49 42 22 44 37 11 47 39 19 47 39 18 52 43 27 54 46 31 51 43 27 53 44 27 53 45 26 53 44 24 51 39 19 49 38 23 53 41 12 58 46 20 60 48 22 57 44 10 65 51 24 66 51 24 70 53 31 88 71 41 81 62 31 68 51 25 77 59 31 81 62 37 69 49 31 88 71 44 78 59 31 73 56 30 67 52 31 73 57 28 70 53 34 82 65 37 97 81 53 78 53 37 88 62 35 97 71 38 92 64 37 79 49 35 93 64 38 116 91 62 114 85 55 117 88 66 111 78 55 93 59 48 102 74 57 100 77 53 115 99 81 95 74 60 112 98 80 97 81 64 81 66 52 121 112 104 140 131 123 128 117 104 101 89 77 96 84 74 84 76 73 81 86 98 119 137 152 146 170 189 189 212 237 191 215 240 192 216 241 192 216 241 192 212 234 184 203 223 165 188 207 173 195 213 173 195 212 155 178 197 165 191 216 187 214 241 187 219 246 186 220 247 182 217 245 186 221 247 186 221 247 185 219 247 185 220 248 185 219 247 183 219 248 185 221 248 182 219 247 183 219 248 185 220 249 183 219 248 
44 37 17 45 38 18 48 41 23 46 38 17 43 36 12 44 38 16 44 38 18 45 40 22 52 46 30 47 40 22 63 58 46 58 51 33 51 43 22 49 43 23 51 44 26 48 41 21 53 45 28 52 45 28 49 41 23 50 41 24 64 58 48 73 68 58 51 42 22 50 40 19 51 40 21 57 46 26 73 63 38 67 57 33 57 46 17 57 45 14 62 48 15 67 52 21 68 51 31 79 61 35 81 65 41 65 49 39 66 50 39 115 101 67 112 96 59 82 64 38 77 58 36 80 63 43 80 62 39 69 52 35 77 64 36 87 72 42 80 60 36 79 59 38 85 63 40 86 64 32 96 75 42 89 61 29 83 50 30 89 56 31 102 69 45 109 76 45 114 80 51 105 74 50 119 92 64 118 91 61 104 76 43 101 80 50 99 80 59 86 67 51 83 70 63 122 114 113 149 143 145 128 122 122 128 120 120 90 79 79 143 142 146 110 118 133 123 141 162 178 200 219 190 213 236 190 214 239 191 214 238 190 212 237 171 194 212 166 185 201 128 152 172 137 158 177 140 161 178 163 186 203 184 209 231 190 217 244 188 219 246 185 218 247 185 219 247 185 220 247 185 220 249 185 219 247 183 220 248 183 220 248 185 220 249 185 220 248 182 220 247 185 220 249 185 221 250 183 219 247 
47 39 19 47 40 20 58 52 36 73 67 55 61 54 35 46 39 16 43 38 16 47 41 21 50 45 26 52 46 28 46 39 18 44 37 15 49 42 24 49 42 24 49 41 23 48 42 22 55 49 35 50 43 26 49 40 23 51 43 27 54 45 32 54 45 28 49 39 18 46 36 14 48 37 18 52 41 22 53 42 24 51 39 6 54 41 12 61 49 24 60 46 18 65 52 24 82 68 40 119 105 63 118 104 58 143 129 77 123 107 63 130 113 64 119 100 52 120 103 63 97 77 45 135 117 71 119 102 63 93 75 45 93 74 41 90 72 43 77 54 36 79 55 43 86 58 40 105 83 48 108 82 44 97 68 32 88 57 39 97 66 38 115 87 66 108 71 46 102 66 39 107 73 42 109 78 52 112 84 52 117 93 70 111 91 69 91 70 49 77 58 43 70 57 55 126 122 133 104 100 108 91 81 82 89 77 79 71 59 63 116 118 135 127 137 159 188 201 220 182 203 223 181 204 228 190 212 235 180 202 224 181 202 221 165 185 203 121 141 161 107 129 151 146 165 184 161 175 192 126 148 171 169 195 219 187 214 242 188 221 247 183 219 245 186 221 247 186 221 248 185 220 248 185 221 249 183 219 247 183 221 248 183 220 247 186 221 249 183 219 248 185 221 250 182 220 247 185 220 249 
44 35 14 48 40 21 48 40 20 58 52 38 63 58 45 68 63 53 49 44 27 47 43 24 54 49 33 52 46 28 43 36 14 46 38 18 50 43 24 46 39 18 48 40 21 48 40 20 49 42 22 47 38 17 47 38 19 49 41 23 49 40 22 48 39 18 52 43 26 49 40 19 51 41 24 52 41 23 55 42 22 56 43 18 65 50 28 85 74 45 84 72 43 62 49 32 77 61 32 90 72 36 87 68 45 128 112 59 146 131 74 109 87 39 101 77 37 103 83 48 119 98 56 122 99 50 98 74 40 109 90 53 102 81 52 85 60 47 108 86 57 123 102 69 124 98 55 120 98 60 102 75 40 114 93 65 110 83 53 101 70 43 118 88 62 103 67 38 100 66 48 106 73 47 117 89 61 138 115 94 108 76 41 98 71 45 96 80 72 120 111 109 102 95 94 103 98 101 108 102 105 101 92 93 112 103 104 89 81 87 108 112 125 168 177 188 153 166 181 159 176 195 163 181 203 155 174 198 166 182 201 161 177 192 167 182 200 142 159 181 163 182 203 172 189 207 125 142 156 148 168 186 148 174 198 146 179 208 174 209 237 182 218 245 185 220 247 186 221 249 183 219 247 183 219 247 185 220 247 182 218 247 183 220 247 185 221 249 186 220 249 185 220 248 185 221 248 183 220 249 
47 38 20 50 42 26 46 38 20 44 35 17 42 33 10 50 43 29 45 39 22 46 40 19 50 44 25 44 37 16 44 37 16 44 37 18 47 40 20 45 38 14 49 42 26 49 42 26 47 40 21 47 39 20 48 40 22 54 46 30 57 49 31 51 41 22 48 39 17 51 42 22 52 42 20 62 50 31 69 55 35 71 58 34 80 68 38 82 69 40 103 93 50 88 76 47 78 64 36 79 63 38 83 66 35 109 92 51 127 109 63 109 89 42 102 78 46 96 71 39 92 67 36 103 81 43 95 70 33 88 63 38 97 73 44 92 66 44 92 64 35 114 90 57 117 91 53 104 76 39 83 54 35 88 57 27 98 67 35 110 82 52 119 91 58 121 96 71 122 98 72 115 86 55 124 96 68 128 98 67 123 94 67 108 87 68 106 94 87 117 111 115 161 157 159 103 97 99 97 90 91 103 93 91 117 106 103 83 71 73 139 137 141 179 178 183 170 170 176 135 135 144 165 166 176 159 161 173 142 143 158 122 127 141 143 153 171 161 176 196 156 173 194 123 140 160 147 165 179 181 200 220 165 193 218 149 185 214 160 199 229 182 218 246 187 221 251 185 220 248 183 220 249 186 221 249 183 221 248 185 220 247 185 221 248 188 222 251 185 221 249 186 221 250 185 220 248 186 221 250 
50 41 25 46 37 18 44 35 15 44 36 16 48 41 21 59 54 40 48 42 20 46 40 16 45 38 8 46 40 14 43 36 6 44 37 14 45 38 18 47 40 20 49 43 26 50 42 24 50 42 28 47 39 23 47 38 22 49 40 23 52 44 27 55 45 30 52 43 24 53 44 32 57 46 29 71 61 46 71 55 32 81 70 47 100 88 57 113 101 62 106 91 55 96 85 57 80 66 38 66 50 27 69 52 31 88 67 40 104 85 48 112 94 48 110 89 45 105 82 41 100 75 37 101 79 41 100 78 40 90 63 27 110 90 66 120 98 71 114 92 64 133 104 61 114 88 43 109 83 40 97 68 32 87 58 27 104 77 51 112 86 57 102 72 48 116 94 79 133 115 95 119 95 68 114 86 58 124 93 68 120 88 58 95 72 51 128 120 114 107 103 109 138 135 139 131 127 127 100 89 85 99 87 80 109 94 84 87 68 57 104 92 87 125 115 112 100 87 82 99 86 81 123 113 111 126 118 117 112 105 109 135 134 142 156 165 180 146 163 182 126 148 170 130 148 165 133 154 173 167 190 213 188 214 240 188 219 247 186 221 248 183 219 247 183 221 247 183 221 247 183 220 247 185 221 248 183 221 248 185 220 247 185 220 247 185 221 249 185 221 248 183 220 249 185 221 249 185 219 248 
51 43 29 49 40 24 53 46 29 53 44 27 47 39 12 51 43 20 52 46 24 50 44 17 55 49 23 64 60 38 55 48 20 52 46 29 46 39 15 48 41 23 48 42 25 47 40 21 48 41 22 44 36 20 44 36 20 45 36 19 47 38 22 50 40 24 59 51 38 54 44 27 55 44 24 56 44 24 59 46 22 68 53 26 83 69 38 92 82 51 74 61 42 64 52 39 63 48 30 64 49 28 69 53 32 66 46 35 111 96 69 97 78 39 95 75 41 89 67 37 107 86 48 105 86 45 112 93 58 88 63 43 88 64 44 95 70 40 127 102 63 168 140 85 121 90 44 111 85 50 108 84 51 100 71 38 99 68 38 94 64 42 103 75 45 107 79 60 105 74 49 91 59 30 87 59 37 94 68 46 88 63 43 90 69 50 101 91 85 96 91 94 116 110 111 150 146 145 101 89 82 89 73 63 98 79 63 82 60 43 79 59 48 84 66 54 83 64 52 86 68 57 85 67 57 85 68 58 98 84 75 114 111 115 170 177 190 166 182 201 174 196 214 166 190 210 172 198 220 178 206 231 183 214 242 187 220 247 187 221 249 186 221 249 186 221 247 183 221 248 183 219 246 182 219 247 187 222 250 185 221 248 183 219 247 185 221 249 185 221 249 183 220 248 183 220 247 185 221 249 
46 36 19 48 39 18 58 51 34 53 46 25 73 66 43 73 65 41 67 61 39 68 62 43 82 74 44 61 53 28 57 50 24 50 44 26 49 43 25 45 38 18 47 39 20 49 42 24 51 44 28 43 34 14 43 34 15 45 37 22 46 38 23 49 40 25 51 42 27 48 38 18 59 50 35 65 54 36 63 50 25 71 58 33 68 56 33 71 60 38 58 45 28 51 35 6 52 35 16 64 50 27 77 63 36 71 55 30 87 72 39 83 66 33 89 71 32 83 67 32 100 83 46 105 87 42 106 89 51 103 85 61 103 83 57 108 83 57 112 89 58 128 101 53 125 103 61 113 89 50 106 76 45 99 70 36 104 75 41 105 78 50 113 87 56 127 103 83 108 78 50 93 61 31 89 61 39 102 81 66 99 80 64 92 74 57 74 61 52 90 81 81 131 125 124 109 100 95 87 72 58 83 65 50 88 68 50 91 71 57 75 50 33 84 67 55 85 64 52 81 61 50 114 103 96 103 89 80 122 112 106 127 118 117 141 146 159 154 173 192 175 199 219 186 211 232 188 215 240 189 218 244 187 218 246 188 221 248 187 221 248 187 221 250 185 220 247 185 221 249 183 220 248 185 221 248 187 222 251 185 221 248 186 222 251 185 221 247 186 222 250 186 221 249 185 221 248 185 221 248 
45 35 14 51 41 20 51 42 18 58 49 27 79 69 43 92 83 48 101 94 59 89 81 54 105 95 63 90 79 51 61 53 27 48 41 22 46 39 18 45 38 18 46 38 20 48 41 23 51 44 24 51 45 26 52 45 29 45 37 20 46 37 20 46 38 22 47 40 23 49 40 26 50 42 24 53 44 28 47 36 0 59 47 20 75 65 43 58 44 17 60 48 25 66 53 33 55 40 19 59 45 27 79 68 45 73 59 34 80 67 36 97 85 48 92 78 45 83 68 38 77 61 38 104 92 54 101 85 53 70 52 30 92 73 48 108 86 51 126 107 64 119 97 56 117 93 54 113 90 50 111 86 51 117 94 57 103 75 45 95 66 45 118 93 63 115 90 58 104 76 45 102 77 53 100 78 65 123 109 102 113 99 91 98 83 72 73 55 45 82 71 71 129 124 121 111 101 98 132 123 120 105 91 83 85 66 53 85 64 50 84 64 48 86 67 52 81 60 43 89 72 60 106 93 84 105 91 81 133 124 120 129 120 116 148 154 165 174 190 209 193 212 232 190 215 236 192 220 244 190 220 245 189 221 247 188 221 249 187 221 249 187 221 249 185 221 248 186 221 248 183 221 247 185 221 248 185 220 247 186 221 249 185 221 249 185 221 250 185 221 250 187 222 251 187 221 249 185 221 248 
46 36 17 54 45 28 59 51 35 59 51 33 61 52 26 56 47 20 64 54 30 64 54 28 62 48 28 64 52 35 52 45 24 45 38 16 41 33 11 46 40 24 50 44 28 48 41 24 46 40 16 60 54 37 53 46 26 44 37 18 44 36 17 43 36 18 46 38 23 47 40 26 45 38 18 44 37 18 43 36 15 47 40 20 61 53 37 47 37 11 54 44 23 70 61 42 57 43 25 58 44 23 67 55 32 72 58 31 72 59 31 105 94 62 95 82 45 72 56 36 70 56 35 94 81 46 87 71 38 71 57 35 87 69 45 96 75 43 93 69 40 99 73 41 114 89 49 107 81 51 101 74 50 116 93 60 98 70 47 105 79 50 113 88 56 101 73 36 107 82 53 104 80 57 113 96 89 99 86 84 96 85 81 81 64 54 65 47 34 76 64 58 116 108 106 125 119 116 130 123 118 83 67 59 125 115 106 97 82 68 116 99 81 96 78 62 82 62 46 88 70 55 95 80 66 108 95 80 121 108 102 129 118 114 158 163 173 175 191 208 171 195 214 178 204 227 192 219 244 191 221 247 189 220 247 188 221 248 186 220 247 187 221 250 186 221 249 186 221 251 186 222 250 187 222 250 185 221 248 185 221 248 185 221 249 186 221 251 183 221 248 186 221 250 186 221 250 186 221 249 
53 43 28 48 38 16 49 40 19 55 47 26 55 48 26 48 41 14 49 42 20 44 36 12 41 34 8 42 36 15 43 37 18 44 39 24 41 34 17 40 33 14 41 35 18 43 36 19 45 38 19 49 44 28 43 37 16 43 37 17 43 36 16 42 35 18 44 38 20 49 44 27 49 44 30 43 37 18 41 34 14 42 35 17 42 34 12 43 36 17 46 39 12 58 50 29 62 53 33 53 42 14 54 43 23 55 42 22 60 46 29 69 54 33 88 77 43 84 70 36 83 71 47 78 62 38 88 74 45 82 67 31 78 61 44 95 76 42 90 68 37 99 78 42 99 75 41 107 81 57 106 80 55 104 78 45 106 82 57 107 80 48 106 81 50 113 91 61 107 85 62 83 61 36 72 50 33 76 58 43 72 54 40 74 58 48 68 50 40 82 69 61 95 85 80 128 121 118 104 93 88 74 57 48 103 92 83 93 80 63 114 97 75 96 79 64 90 73 59 96 81 70 95 81 69 108 96 83 84 65 51 106 96 91 131 135 143 150 168 189 154 178 200 163 192 215 183 212 238 189 218 244 189 220 247 187 221 248 186 221 247 186 220 247 186 220 248 187 221 249 186 221 249 186 221 248 186 221 249 188 224 251 188 224 251 187 222 250 187 221 249 187 222 249 185 221 250 186 221 249 
61 53 30 50 42 17 50 42 15 57 50 27 50 43 20 43 37 14 43 36 17 41 35 15 40 35 14 40 34 14 40 36 15 41 36 18 41 35 18 40 35 19 40 34 16 40 34 16 41 35 14 45 40 22 46 41 21 52 48 32 47 42 23 41 36 14 46 40 19 45 38 12 46 41 20 44 39 18 42 36 16 41 36 16 40 34 14 42 36 14 47 42 22 56 49 28 57 50 27 52 43 16 63 52 27 74 64 39 84 71 40 72 58 35 96 85 53 92 79 41 87 73 43 75 60 36 106 95 59 92 77 45 89 73 40 86 66 31 87 67 39 86 62 29 91 67 39 95 72 48 100 78 52 88 60 40 107 87 69 95 67 46 103 81 60 97 71 45 92 66 42 78 58 38 78 59 43 71 51 31 86 71 57 86 71 61 76 60 50 67 50 40 75 60 51 95 84 79 69 53 45 89 77 72 97 86 81 119 112 106 107 96 89 121 114 108 133 125 120 108 100 100 116 111 117 134 130 132 121 117 119 132 132 133 154 160 169 158 175 194 170 192 212 176 203 225 182 212 237 190 219 244 190 221 248 188 221 248 187 221 247 186 221 247 187 222 249 186 221 248 187 221 250 186 221 249 187 222 250 188 223 251 187 222 249 186 223 251 187 222 250 187 222 249 183 221 248 185 221 248 
54 46 22 48 40 11 62 56 40 64 57 40 45 37 14 42 34 14 43 37 20 43 38 20 42 37 18 46 42 26 57 55 40 41 36 18 38 34 17 38 34 14 40 35 15 41 36 18 40 35 14 44 40 21 53 49 32 55 51 33 46 42 20 41 36 6 46 41 19 60 56 35 63 59 36 52 47 28 48 43 24 49 45 29 43 38 18 48 43 25 51 45 26 53 46 22 62 56 35 55 46 19 69 61 38 72 61 33 87 76 37 90 79 42 88 75 36 86 72 38 79 65 36 73 57 27 83 68 33 78 61 33 83 68 37 81 63 28 74 55 24 71 50 31 73 53 34 94 74 47 88 64 33 74 48 26 83 57 32 102 82 61 103 79 57 100 78 62 84 60 42 75 54 42 87 71 60 80 63 49 79 62 41 83 66 50 75 59 48 71 57 49 64 48 37 64 49 38 71 57 49 74 62 58 90 78 71 104 95 91 126 119 116 156 152 154 161 157 158 156 154 156 152 151 161 135 137 149 191 195 203 178 186 194 182 191 202 174 191 209 186 205 224 193 217 237 194 221 244 183 212 237 173 205 231 183 214 241 191 223 251 189 222 250 188 221 250 187 222 249 186 221 249 186 221 248 187 222 249 187 222 250 188 222 250 187 221 249 187 223 251 188 224 251 185 221 249 186 221 249 
53 44 25 55 48 27 44 36 14 42 34 11 41 33 16 40 32 14 41 35 15 44 39 21 42 37 20 43 38 19 40 36 14 38 33 12 38 32 12 41 36 18 43 38 22 43 39 22 42 37 19 41 36 12 41 36 8 53 50 34 42 39 14 42 42 22 40 35 49 71 68 46 73 69 44 62 58 39 48 43 19 47 42 19 45 40 18 44 39 16 47 41 18 53 48 26 52 46 17 57 49 18 85 78 50 72 62 30 87 77 41 95 85 45 111 101 53 90 76 36 69 55 32 74 59 26 75 59 30 74 57 29 84 69 40 79 62 33 76 59 32 81 65 40 79 61 38 96 82 55 101 84 58 77 53 33 84 63 41 107 89 68 85 59 40 91 70 54 93 76 64 100 86 78 97 84 73 92 77 62 71 52 27 84 70 54 74 58 44 62 47 34 59 44 31 60 45 32 64 50 40 68 56 48 70 55 44 83 71 58 103 93 81 104 94 92 131 127 131 151 148 152 139 138 146 174 177 191 191 199 213 189 199 213 201 213 230 201 216 234 189 206 225 175 195 214 173 194 214 159 183 205 124 153 179 156 186 214 181 212 240 188 222 249 188 222 250 187 221 250 187 222 250 189 223 251 187 221 249 186 221 248 187 222 249 186 221 249 187 221 249 187 223 250 186 221 249 187 222 250 
43 35 10 45 38 16 44 36 18 46 39 23 40 32 14 42 34 17 47 41 29 42 38 21 38 33 14 40 35 18 43 38 22 48 44 31 40 35 15 42 37 18 40 35 14 42 37 15 52 49 34 44 39 18 39 35 10 38 33 49 44 44 26 50 55 33 40 36 48 40 34 48 40 35 48 44 39 6 51 46 24 45 40 17 44 39 18 42 38 15 43 38 14 53 48 24 56 51 30 57 49 26 78 72 44 68 58 33 84 75 43 90 79 43 113 103 57 96 84 42 68 55 31 76 62 33 68 53 32 71 55 30 73 56 31 73 56 27 66 48 23 66 50 23 77 60 35 93 75 46 80 59 36 85 67 40 85 66 40 87 68 43 83 64 46 83 63 38 82 63 46 88 72 57 105 92 83 107 94 84 75 58 40 63 48 32 70 58 45 70 58 47 69 56 44 66 54 42 72 61 52 80 72 66 88 80 73 93 85 79 102 91 76 101 86 76 96 82 80 95 87 90 114 114 120 146 151 162 137 145 158 179 189 201 191 203 218 192 207 224 161 178 195 115 133 148 108 125 142 118 135 152 126 150 169 141 171 199 166 198 225 172 207 236 186 220 247 189 222 250 187 221 249 187 221 248 187 222 250 186 221 248 187 223 249 188 223 251 189 223 251 187 221 251 187 223 251 187 223 250 
44 37 18 46 41 25 44 37 18 50 43 25 56 49 32 48 40 24 45 40 26 41 36 18 38 33 12 36 31 11 39 34 16 39 34 14 41 36 15 44 40 23 44 40 20 45 41 23 46 42 23 46 42 24 43 40 20 42 39 20 35 32 36 42 39 10 58 55 36 50 46 20 46 40 8 55 51 26 66 62 39 47 42 16 42 37 12 44 40 18 48 42 17 48 44 23 51 45 16 64 57 32 74 71 48 58 51 30 55 47 23 61 51 31 76 66 35 97 88 51 77 65 33 81 70 42 70 57 28 70 56 31 71 57 31 71 59 38 76 63 44 60 42 22 68 49 31 93 78 52 88 70 45 85 68 43 85 66 40 68 49 35 82 64 39 92 75 53 81 60 37 81 66 48 98 81 66 92 74 63 74 57 40 62 49 37 63 52 40 58 46 33 68 58 48 74 67 59 99 95 90 112 109 110 131 128 126 102 97 96 100 91 84 104 92 81 102 90 80 96 86 84 122 122 130 119 125 143 125 133 148 139 151 162 154 170 185 173 186 200 133 151 169 115 133 151 117 134 146 122 140 148 131 154 168 145 175 198 150 184 212 179 212 240 188 222 249 188 222 251 187 221 249 187 221 251 188 222 251 186 221 249 188 222 250 188 223 251 187 222 250 188 222 250 187 222 250 186 221 250 
44 39 22 44 38 22 44 38 18 53 48 28 68 61 43 55 48 32 40 34 16 41 36 19 40 35 20 37 32 8 41 36 12 42 37 10 44 38 17 45 40 22 50 46 31 43 39 20 39 34 12 42 38 18 46 43 25 42 39 20 35 33 6 40 37 0 51 46 24 52 48 25 55 50 24 68 63 36 58 53 24 44 39 6 45 40 16 44 39 12 45 40 10 48 43 16 53 48 24 60 54 29 57 50 20 57 50 20 63 55 26 69 63 37 64 55 27 64 55 28 60 51 20 61 53 23 61 50 27 65 55 33 59 48 19 61 50 26 61 47 24 64 50 39 84 71 51 72 54 30 67 47 28 72 53 32 81 63 37 66 47 24 69 51 34 74 56 27 79 63 41 72 55 28 69 53 31 65 50 31 60 48 34 64 56 47 54 45 33 54 45 33 56 47 37 78 74 73 145 145 147 169 170 178 167 167 171 126 125 128 115 113 113 114 110 106 117 113 110 128 126 124 123 125 132 141 151 166 168 177 191 158 171 183 185 196 206 170 182 197 161 175 190 158 171 188 165 178 194 161 178 195 136 162 183 175 200 222 180 209 235 190 222 248 185 219 246 187 221 249 188 222 250 188 222 250 188 223 251 188 222 251 187 222 250 187 221 249 189 224 251 189 224 252 188 224 252 189 223 251 
43 37 20 42 35 19 41 34 16 46 41 22 51 45 28 41 34 12 37 31 11 38 32 11 38 33 8 43 38 14 51 47 27 68 64 45 54 50 32 44 40 11 51 47 27 42 37 14 35 31 0 36 32 8 37 34 8 37 34 11 40 37 18 48 44 24 46 42 19 52 48 22 57 52 27 60 55 28 59 54 32 47 42 8 49 45 20 50 46 22 46 41 12 48 42 14 54 49 24 58 53 27 50 44 14 49 43 16 55 48 14 71 64 38 59 50 23 71 65 37 55 48 22 58 50 22 67 59 39 70 61 40 62 51 27 66 55 31 62 51 27 58 43 37 133 127 120 85 70 53 66 48 38 71 51 36 83 67 45 71 53 27 75 61 42 92 80 64 92 81 64 90 78 60 84 75 66 76 67 60 63 54 46 79 75 73 53 45 36 55 47 39 57 51 42 64 59 56 97 96 98 106 104 107 96 94 95 91 96 100 171 174 179 172 176 180 156 161 169 168 175 183 195 204 214 203 213 226 200 211 225 192 203 217 203 213 224 187 197 207 153 164 177 143 156 172 154 167 183 177 193 214 188 210 232 182 207 231 179 209 233 168 203 232 182 217 245 189 223 251 188 223 251 188 222 250 189 222 251 188 223 251 187 221 248 187 222 250 188 224 251 190 225 251 187 222 250 187 223 250 
40 33 17 40 33 18 39 33 18 40 34 17 43 38 20 40 34 16 39 32 8 45 38 19 49 43 22 47 42 24 50 45 18 52 48 24 49 45 19 46 40 14 48 41 19 49 44 23 48 43 24 40 36 8 39 36 14 36 33 0 42 39 19 48 44 24 53 48 26 52 46 22 51 46 18 52 47 20 52 46 20 51 46 20 53 48 23 55 50 27 55 50 27 49 45 19 48 43 0 53 47 18 58 52 26 59 52 23 62 55 31 52 44 0 50 43 12 65 58 32 65 58 33 56 48 18 59 50 23 64 55 31 64 53 28 56 45 6 60 48 24 66 54 33 86 73 55 83 70 49 107 96 72 112 97 74 100 87 73 77 61 45 83 73 63 101 94 92 116 111 109 105 98 87 85 78 68 79 73 68 86 82 77 83 80 78 69 64 58 59 53 43 62 56 49 65 61 60 75 72 74 91 89 91 125 127 130 146 155 162 177 185 192 174 183 191 173 185 198 149 163 181 174 187 205 187 200 214 171 183 195 178 188 200 161 170 182 145 151 160 135 142 150 120 128 139 114 124 130 156 171 186 158 182 205 134 166 194 149 183 211 174 210 237 187 221 248 189 222 251 189 223 250 187 221 249 189 223 251 189 222 250 187 221 249 188 223 251 186 221 249 188 222 250 188 224 251 187 222 250 
40 34 20 40 34 20 38 32 15 38 33 15 44 38 22 46 39 15 50 43 17 86 80 53 82 75 49 48 42 14 50 45 17 52 46 22 49 43 16 45 40 0 48 43 20 47 42 20 47 43 20 52 49 31 55 53 34 41 38 14 38 34 12 38 33 49 44 39 0 66 59 37 58 48 28 49 42 14 54 49 27 64 60 41 52 48 21 49 45 16 53 48 24 51 46 18 52 47 22 53 48 19 59 54 25 60 53 24 56 49 19 55 48 24 55 47 19 56 49 22 57 50 21 50 42 67 55 46 24 65 55 29 59 49 22 60 50 25 74 64 36 86 77 47 93 80 48 82 66 35 94 78 42 106 90 72 105 89 72 75 61 51 108 106 106 141 143 156 142 145 158 95 92 86 79 72 56 64 59 52 66 59 53 67 62 56 65 61 54 78 74 70 92 90 88 79 78 79 112 112 117 166 168 179 151 157 171 202 209 224 207 213 225 180 189 201 188 199 212 204 215 230 178 192 209 166 180 196 146 160 174 174 183 194 142 144 151 103 98 97 114 111 104 148 153 151 116 122 116 115 130 141 130 157 182 169 198 225 183 213 240 190 222 248 191 224 251 188 222 251 190 225 251 189 223 250 188 223 251 189 224 253 188 222 250 188 223 251 188 224 251 188 223 250 189 223 251 185 221 247 
38 32 16 40 33 19 40 33 17 40 33 15 43 36 19 59 53 33 73 66 40 78 70 40 70 58 29 83 75 51 56 47 14 62 55 29 75 70 41 59 53 27 54 49 27 50 45 23 40 35 48 40 34 49 41 38 11 40 37 8 44 39 15 46 42 24 43 38 11 84 78 56 96 89 67 50 43 19 46 40 11 51 47 19 51 46 20 50 46 19 52 48 23 57 52 24 52 47 16 52 46 15 57 51 22 60 53 19 55 48 15 53 46 16 52 45 16 56 48 21 52 45 18 53 45 15 70 64 44 70 61 30 81 73 45 79 70 41 65 52 28 69 54 25 86 73 41 96 79 44 104 86 55 102 82 59 106 92 79 108 101 97 162 161 162 181 184 192 148 151 159 125 125 127 81 77 72 87 85 83 92 92 94 78 76 70 65 64 57 81 80 79 78 78 76 93 92 94 103 103 106 119 120 125 156 161 168 198 203 210 191 200 212 184 195 207 186 196 211 194 207 224 201 212 227 202 212 227 192 201 214 178 183 191 116 113 113 106 101 99 96 92 92 158 163 166 127 135 138 134 151 165 155 182 208 193 221 247 191 222 247 189 221 248 190 224 251 190 224 250 189 223 251 189 222 250 190 225 252 190 224 252 188 223 251 188 222 251 189 224 251 187 222 249 189 224 251 188 222 250 
39 33 17 39 33 16 40 33 18 41 34 20 40 34 16 46 40 14 65 60 38 54 47 22 51 42 10 50 39 11 66 57 34 77 69 39 71 64 33 80 75 46 62 58 39 66 63 43 47 42 14 45 41 17 45 40 14 48 43 22 50 45 24 50 45 25 47 43 20 51 46 32 57 50 24 49 44 16 49 43 15 49 44 15 51 46 20 49 44 15 51 46 15 57 51 24 64 59 38 87 82 54 62 56 31 69 60 31 79 71 40 56 48 23 54 44 19 54 45 14 52 43 11 57 48 18 75 68 43 74 65 38 78 69 41 77 67 42 66 55 32 69 56 29 81 66 33 84 64 32 85 62 41 89 67 40 84 68 49 96 90 84 102 103 106 159 159 164 116 119 128 180 180 187 75 71 69 81 78 73 107 106 107 98 98 96 83 85 83 77 80 82 106 108 108 135 136 137 112 112 115 86 85 84 121 123 123 161 163 171 155 163 177 162 171 188 178 186 201 149 159 175 182 188 201 157 165 178 154 160 170 141 141 146 104 97 94 102 96 90 115 113 112 154 160 167 163 176 186 187 204 221 185 215 239 192 223 248 190 221 247 191 224 250 188 222 248 190 224 251 188 222 249 188 222 249 190 223 251 191 225 252 188 223 251 189 224 251 189 225 252 188 222 249 190 225 251 189 223 249 
42 36 18 43 39 23 40 33 17 41 34 19 41 36 17 45 38 15 58 53 38 49 43 12 50 43 18 76 67 43 91 82 53 71 63 33 66 58 33 72 66 37 41 36 48 61 56 36 57 52 28 52 46 22 54 50 30 51 46 20 48 42 18 46 41 19 47 42 15 47 41 14 47 42 15 49 44 18 52 48 23 52 47 22 73 68 42 55 50 27 46 41 49 55 50 19 85 80 50 91 86 54 51 45 8 59 53 32 73 67 48 81 74 48 94 84 56 59 50 25 55 46 18 60 52 25 76 68 37 70 60 32 70 60 38 61 49 22 70 58 39 77 64 34 76 59 37 113 96 63 94 73 52 73 53 38 79 62 43 89 81 75 84 86 95 94 99 109 92 95 104 121 121 127 69 63 58 90 86 78 84 81 76 105 104 104 75 80 80 136 139 149 129 133 148 99 102 112 123 122 124 80 77 79 128 128 128 110 109 110 83 81 86 122 123 130 135 133 136 157 155 157 158 155 157 127 123 127 113 107 108 103 96 91 104 97 88 112 107 98 119 118 115 120 126 131 145 159 170 181 200 217 192 221 245 191 223 247 189 222 248 190 224 251 187 221 248 188 222 249 190 224 251 189 224 251 189 224 251 190 225 253 191 225 252 190 224 251 189 224 251 189 223 251 189 224 251 187 221 249 
44 39 19 50 45 30 43 37 18 44 37 22 44 36 19 44 38 23 49 44 30 60 57 40 59 53 30 73 66 45 51 42 15 51 43 16 68 62 41 56 50 24 47 40 11 62 57 37 48 42 17 45 39 6 54 49 26 58 53 31 52 48 27 46 41 8 48 43 14 56 52 32 52 47 24 49 45 21 54 49 26 63 57 30 106 102 68 101 95 62 46 41 14 56 51 30 61 53 27 53 46 19 53 46 15 67 61 37 96 90 64 65 57 27 75 67 39 58 48 22 57 48 23 67 58 33 76 68 43 75 64 39 72 63 39 67 56 35 73 60 37 77 64 42 74 58 37 131 111 80 150 126 86 74 53 33 81 67 49 77 67 59 97 96 104 101 103 108 88 89 92 87 84 84 80 75 67 93 89 81 89 88 87 133 133 132 150 151 152 79 86 97 74 77 88 75 74 76 107 106 104 60 56 52 98 95 92 95 88 80 88 79 69 85 74 64 85 73 59 124 116 109 116 107 97 104 93 81 101 90 77 104 96 88 135 131 127 106 99 95 120 116 116 112 118 121 159 173 185 184 204 222 189 220 244 192 225 251 191 225 251 191 226 251 190 224 251 190 224 251 189 223 251 189 224 251 190 225 252 189 224 251 190 225 251 188 222 250 189 224 251 188 223 249 188 222 250 189 222 250 
45 40 17 43 38 15 45 39 18 45 39 22 44 38 20 42 36 18 41 34 12 45 39 16 52 46 22 55 49 28 45 38 18 45 38 21 42 35 11 51 46 30 48 42 21 53 47 23 52 47 26 45 39 10 51 45 23 51 46 18 62 57 34 54 49 21 49 43 10 63 59 36 58 55 34 51 46 19 61 57 37 66 62 36 75 71 51 104 97 64 56 50 25 53 48 24 59 53 33 53 48 29 54 47 28 55 47 19 63 55 30 52 42 12 59 51 28 50 38 14 51 40 18 56 46 24 55 44 22 58 47 27 64 53 30 68 58 40 73 62 41 71 56 32 69 52 30 95 73 49 139 115 81 78 57 35 77 63 45 69 58 47 65 61 62 116 118 125 122 123 131 92 88 88 62 56 46 84 83 85 145 145 153 144 145 146 132 133 137 158 159 167 116 116 119 80 75 76 98 95 93 96 93 93 75 69 66 92 84 76 98 88 76 77 62 44 82 68 50 86 72 53 88 73 54 91 75 57 97 83 64 97 86 75 81 70 57 90 82 76 110 109 108 131 138 143 112 132 145 146 172 191 182 214 239 186 220 245 190 224 250 191 225 251 190 223 251 192 226 253 190 224 251 189 224 251 190 225 251 190 225 251 189 224 250 190 224 251 188 222 250 191 226 252 188 223 249 189 223 251 
44 39 14 43 38 14 47 41 22 49 43 24 50 44 29 44 37 22 45 38 20 42 36 14 41 34 6 43 35 0 41 33 10 43 36 20 43 37 20 44 38 19 45 40 20 44 38 15 47 42 18 47 41 17 42 35 6 44 38 8 53 47 19 54 49 19 55 50 20 62 59 36 58 57 28 50 46 17 63 59 43 67 63 43 61 56 34 64 60 43 54 49 33 66 61 46 101 96 71 109 104 70 85 79 47 55 48 24 56 47 24 53 43 23 46 35 12 48 38 16 57 47 29 59 49 28 57 46 24 60 49 29 63 53 35 67 55 33 65 53 33 69 58 39 61 46 23 56 40 22 79 63 38 64 48 26 65 52 36 60 48 35 56 48 38 90 87 87 111 110 111 73 66 60 64 57 48 77 75 77 96 98 109 153 155 159 164 164 166 130 130 138 117 116 122 100 94 91 91 81 74 92 85 79 73 60 50 80 70 59 111 103 89 88 76 61 96 85 76 100 89 81 100 88 77 91 75 60 98 87 69 109 99 84 104 97 87 115 111 109 135 138 139 178 187 195 161 178 189 154 182 200 175 209 233 185 218 244 191 225 249 191 225 251 191 225 251 191 226 251 190 224 251 190 224 251 190 224 251 190 226 253 191 225 251 189 224 250 190 225 251 190 226 251 189 222 249 190 225 251 
51 46 25 46 40 17 46 40 19 50 45 28 46 41 23 44 37 22 51 45 30 48 42 26 45 39 19 45 38 11 50 43 24 44 37 18 44 37 19 45 39 21 45 40 22 44 39 18 46 40 17 51 45 25 49 44 16 53 46 18 61 55 31 55 49 18 55 50 25 62 56 34 55 50 27 49 45 21 55 50 26 67 62 34 62 57 32 51 46 25 59 56 43 66 63 55 60 53 33 91 87 64 81 73 43 79 74 48 73 64 40 65 57 37 70 62 46 57 47 27 62 51 31 60 50 30 62 52 32 66 56 36 87 80 67 74 64 42 69 59 39 60 48 25 53 40 20 55 42 24 65 54 40 54 40 22 65 55 44 56 44 31 82 77 71 134 132 132 102 98 95 66 57 49 105 101 99 131 129 131 99 102 111 133 133 139 119 116 117 101 94 92 80 68 66 77 64 55 77 63 49 72 58 41 75 63 50 69 53 35 101 94 85 114 106 99 128 121 117 98 89 83 80 64 51 77 64 48 87 76 62 92 82 67 101 94 90 125 124 125 142 147 153 183 198 209 199 219 235 189 214 233 191 221 245 192 225 251 190 224 249 190 225 250 192 226 251 191 225 252 189 222 249 182 218 244 190 224 251 189 224 250 191 226 253 191 226 251 190 225 252 190 224 251 189 224 251 189 223 250 
49 44 22 46 39 16 46 40 20 41 34 14 41 34 17 42 36 21 44 38 22 44 38 18 46 39 14 63 58 42 63 56 36 48 42 20 40 33 14 43 37 18 45 39 22 43 37 15 45 38 8 57 50 26 57 51 28 60 54 29 62 55 23 67 62 35 65 59 39 108 101 66 110 105 70 69 64 33 62 58 30 66 61 38 65 61 42 44 41 19 50 47 33 52 49 39 52 46 32 62 55 44 49 40 23 59 50 31 85 80 60 51 40 22 51 40 19 59 48 24 62 51 31 56 44 15 58 48 27 60 48 24 62 51 29 65 54 30 73 63 45 63 52 33 51 40 21 52 40 22 63 53 41 54 40 24 57 45 30 56 44 31 76 69 62 79 72 69 63 53 45 81 74 67 131 129 130 142 142 145 155 153 153 134 132 129 114 107 106 84 71 65 84 74 68 82 70 61 78 66 55 74 61 50 84 74 65 84 75 64 84 72 58 100 91 83 129 122 116 73 58 46 71 56 40 92 84 73 84 72 60 87 77 66 123 119 116 185 186 189 199 211 220 194 214 230 199 222 244 197 223 246 192 222 245 192 225 250 190 223 248 190 224 250 190 223 249 192 226 251 186 220 247 185 221 247 191 225 251 190 224 251 190 225 251 192 227 252 190 225 251 188 223 249 189 223 249 190 224 250 
52 46 25 45 39 12 43 37 14 43 36 18 41 34 14 41 33 6 45 38 16 47 40 20 48 41 18 52 46 22 63 57 35 61 55 36 44 36 18 43 36 18 45 38 20 44 38 15 49 42 27 74 65 39 75 67 44 51 44 0 58 52 20 54 48 15 57 51 31 65 58 37 86 80 51 75 71 42 100 95 61 77 70 37 67 62 34 54 51 30 49 46 34 55 50 35 52 47 23 66 59 38 52 42 17 57 47 26 60 51 32 58 49 30 63 54 38 59 49 25 60 48 22 61 50 24 64 54 30 68 57 35 66 56 34 67 56 32 64 52 28 57 46 25 54 43 32 74 67 60 66 56 46 55 43 29 64 54 46 76 68 60 60 51 41 59 49 39 64 55 42 93 83 74 110 104 101 100 93 88 97 90 80 81 71 60 87 77 71 66 50 40 82 72 66 90 83 79 120 116 111 93 86 79 98 93 87 103 97 87 88 76 60 90 77 67 87 74 61 87 76 67 86 75 64 135 129 120 128 122 116 97 89 80 130 126 124 136 137 137 195 207 217 193 212 229 196 219 241 196 222 247 194 224 248 192 224 248 192 226 250 192 226 251 188 222 249 191 225 250 188 223 250 182 218 244 192 226 252 190 225 251 191 226 251 192 226 252 190 225 251 190 225 251 190 225 251 190 225 250 
48 42 14 46 40 14 42 37 16 42 35 17 44 39 22 51 45 28 58 53 32 57 50 30 57 49 34 65 56 34 60 53 25 49 42 15 47 40 22 43 36 16 46 38 19 51 45 27 69 62 39 89 80 43 89 80 49 60 53 29 56 49 21 55 50 31 50 45 24 55 50 30 70 64 36 77 72 47 100 92 52 107 100 58 96 90 53 74 69 42 57 52 28 54 49 27 47 42 16 60 53 30 63 56 32 61 52 29 63 55 37 61 51 31 53 41 15 57 46 21 68 59 32 74 63 32 72 61 31 83 75 46 77 67 37 69 57 38 71 60 40 63 53 39 51 43 40 129 126 124 83 79 72 56 45 37 62 52 38 72 61 45 77 70 61 55 45 35 75 69 61 87 77 66 96 87 79 87 78 66 69 57 43 66 56 46 71 62 56 68 60 51 68 60 50 67 61 53 79 75 69 103 101 94 102 97 90 100 94 83 88 81 70 93 87 80 106 99 91 143 141 138 121 118 113 171 168 163 144 142 137 129 125 117 152 150 148 146 148 148 188 201 211 170 192 208 195 219 240 197 223 247 195 225 249 192 225 249 193 227 251 191 225 250 192 225 251 191 225 251 189 222 248 168 206 233 191 224 251 191 225 251 190 225 251 190 225 250 190 224 250 192 226 252 189 223 249 190 225 251 
60 54 30 48 42 19 47 41 23 44 37 18 42 35 14 49 42 17 74 70 47 72 66 41 72 64 52 113 104 80 67 54 37 47 38 10 44 36 15 46 39 18 52 46 25 62 56 38 81 75 52 83 76 41 96 91 59 72 65 36 58 52 22 64 59 34 52 46 20 61 57 38 86 82 67 98 92 60 98 91 54 97 91 52 104 97 60 54 50 39 72 67 44 67 63 44 62 58 41 43 36 0 81 76 57 88 81 51 70 61 32 66 56 32 76 68 50 65 56 36 81 71 51 92 83 54 95 85 57 81 71 45 86 78 49 69 58 36 79 68 51 77 69 58 49 39 33 84 81 78 76 74 70 83 79 74 73 65 55 91 80 66 73 63 50 53 45 34 70 65 60 79 73 68 85 80 73 81 75 66 65 56 44 66 58 48 88 84 80 92 88 85 88 85 81 112 113 111 101 101 101 95 93 87 120 118 114 101 100 98 102 103 108 144 145 154 144 146 148 113 114 116 140 140 139 144 145 145 131 128 121 132 127 108 117 111 96 156 158 161 190 199 210 171 187 203 185 203 221 182 205 225 190 215 240 185 214 240 193 224 249 192 224 250 193 226 251 191 224 249 181 215 242 177 213 240 192 226 251 192 225 251 191 225 251 192 227 253 192 227 252 192 226 251 192 226 252 192 225 251 
64 54 34 59 49 25 63 55 31 69 61 35 65 56 27 78 70 48 76 68 47 59 49 20 60 51 31 59 50 30 62 53 34 76 70 56 49 41 8 46 40 20 47 42 24 46 40 22 44 38 17 48 43 25 53 47 32 54 48 32 54 48 30 66 61 46 77 71 57 52 48 27 46 40 18 49 44 23 51 46 20 70 64 41 78 70 47 73 64 34 93 85 61 92 82 50 99 89 55 107 98 67 99 91 53 108 100 56 135 130 93 141 137 105 131 128 95 84 87 56 81 87 52 88 96 59 98 106 68 121 125 99 83 85 49 70 71 37 61 61 30 77 75 45 108 107 83 87 86 56 66 66 32 59 59 29 55 55 22 67 67 35 91 91 65 87 88 56 89 89 56 70 72 41 145 152 112 178 184 136 144 155 81 160 172 108 164 173 107 171 177 112 188 192 135 172 173 115 179 179 124 169 170 110 169 172 111 190 192 144 182 184 129 179 179 127 186 182 137 137 132 73 123 118 60 125 120 68 118 114 66 110 106 58 104 100 50 111 111 60 108 114 58 96 104 57 67 80 37 124 133 87 170 180 124 181 189 128 141 148 87 109 115 65 116 119 58 147 147 111 111 109 64 103 101 49 130 127 90 117 111 74 125 117 78 108 101 63 101 95 65 76 69 44 71 66 36 94 91 64 
62 52 29 73 65 41 97 91 69 91 85 60 74 66 43 91 84 64 75 68 46 59 49 23 57 48 28 56 47 27 55 47 26 65 59 43 45 37 8 43 37 20 43 38 18 44 38 21 43 37 18 44 39 21 49 44 27 54 49 33 50 45 24 71 67 54 83 78 67 49 43 20 43 38 16 45 41 20 48 43 22 63 56 35 87 81 63 66 57 31 89 81 57 97 88 60 105 95 64 105 97 63 100 96 57 141 138 97 146 143 101 144 142 108 138 139 109 102 108 68 97 108 69 108 118 85 124 133 99 132 137 109 88 89 53 75 74 38 74 72 36 107 106 81 130 127 105 109 106 81 70 66 31 56 54 22 50 49 15 59 59 28 62 62 32 72 73 43 102 102 73 99 100 58 129 141 88 156 169 106 171 182 121 169 182 118 154 166 95 149 154 78 157 161 89 162 165 99 162 165 101 144 145 78 173 174 118 205 206 162 206 207 160 171 169 111 170 167 111 143 137 75 130 125 68 137 132 89 110 106 58 90 86 40 96 94 49 131 130 91 124 126 85 98 102 53 71 77 26 124 131 91 184 190 144 180 185 131 138 143 88 109 113 61 96 98 56 111 110 70 111 109 68 108 107 63 122 118 85 105 98 60 118 113 81 99 92 59 86 80 53 65 60 32 59 57 29 72 70 41 
66 57 34 89 81 57 107 100 71 107 105 73 71 64 40 85 79 57 82 76 57 61 53 30 58 50 29 53 44 20 50 42 19 57 51 37 43 37 14 42 36 17 43 36 18 42 37 17 42 37 18 43 37 17 48 42 27 54 49 34 51 45 27 58 53 36 64 60 46 44 38 12 43 38 19 44 39 21 46 42 24 53 47 26 69 64 46 58 49 20 80 73 47 103 96 70 97 89 53 104 99 60 153 153 118 160 163 117 155 157 110 131 132 91 120 125 89 130 138 99 117 128 86 119 131 93 138 148 116 125 131 101 84 86 47 92 90 59 86 84 50 111 108 85 125 123 100 103 100 74 81 77 50 65 62 37 56 52 20 54 52 24 56 54 27 66 66 40 106 107 79 113 118 75 148 163 109 172 189 131 167 184 120 160 177 109 152 166 92 149 155 79 158 160 91 161 164 99 169 170 110 149 149 90 133 134 68 169 171 111 206 206 160 174 171 106 179 173 108 182 174 121 148 143 93 125 120 71 99 94 44 73 71 42 84 83 46 103 102 68 95 94 64 108 108 72 84 83 52 87 90 41 114 116 75 120 123 71 109 113 64 116 118 73 98 99 55 90 89 40 94 92 47 94 92 53 96 91 59 93 89 58 108 104 81 79 74 39 63 60 32 58 56 28 56 55 28 58 58 29 
74 65 45 95 87 62 110 102 66 134 133 99 83 79 51 76 70 37 71 64 40 57 49 22 65 59 41 59 52 33 48 41 14 56 50 36 44 37 15 42 36 18 43 37 20 43 38 21 42 37 18 43 37 18 45 39 22 49 44 28 54 50 36 50 44 27 52 47 32 45 39 17 43 39 21 43 39 22 45 42 25 46 41 21 47 42 20 49 44 21 65 60 35 98 93 67 95 90 50 114 111 71 137 141 97 178 183 138 170 172 131 117 122 70 131 136 96 167 171 141 140 149 114 152 163 131 155 163 134 109 116 82 83 82 45 101 98 71 83 79 49 85 82 50 106 104 79 94 90 63 75 70 43 70 66 42 77 74 55 64 63 40 59 57 30 61 60 29 85 85 50 109 120 70 163 182 126 168 187 127 153 175 104 170 187 126 167 181 117 155 164 93 158 162 94 168 171 110 158 160 98 145 146 81 153 155 85 184 186 126 211 211 165 190 186 133 212 206 159 197 191 145 148 142 96 122 116 74 86 81 34 67 63 41 70 66 34 71 68 33 84 81 50 128 125 100 102 101 69 103 101 72 85 81 41 81 77 33 82 79 34 95 94 53 108 104 69 112 108 74 108 104 70 96 92 59 79 76 44 73 68 39 74 69 41 68 64 35 61 59 35 57 55 30 55 53 27 60 61 31 
77 69 50 101 92 68 115 107 67 166 167 131 139 140 97 118 117 80 72 68 37 57 49 22 61 56 36 60 54 35 46 40 10 55 49 34 44 38 20 41 36 18 42 37 20 45 40 24 43 38 20 43 38 20 45 40 25 48 42 27 54 50 36 53 47 32 56 52 39 48 42 25 42 38 18 42 37 18 44 39 21 44 40 18 43 38 18 46 41 18 52 46 20 76 70 43 99 95 65 142 140 111 103 106 67 137 142 94 147 150 99 116 120 65 138 141 108 138 144 109 130 139 104 153 161 133 129 135 105 82 85 46 82 79 48 98 95 71 68 66 37 70 65 38 99 96 74 97 94 72 70 64 36 62 57 31 64 62 38 71 69 50 69 69 48 66 65 40 73 77 42 132 149 103 168 189 135 172 192 135 181 200 144 183 200 143 169 187 120 167 182 116 166 179 112 159 168 102 144 149 80 153 160 90 191 197 137 190 199 136 201 203 155 179 177 126 190 184 142 174 167 127 133 125 79 112 104 65 106 99 67 89 84 56 61 57 25 63 60 29 83 80 45 112 110 84 92 91 61 84 82 50 75 72 37 84 83 54 75 72 42 84 81 46 132 129 104 146 143 115 128 126 99 96 92 64 71 68 39 62 59 33 57 55 27 54 51 23 56 55 28 61 60 35 56 56 29 57 62 33 
69 60 40 103 94 72 131 125 91 171 172 136 164 166 126 153 153 119 98 94 63 71 65 39 62 56 36 55 49 29 49 43 20 49 44 26 43 38 18 41 36 17 41 35 14 42 36 18 43 38 20 43 38 20 45 40 23 49 44 31 55 50 39 57 53 39 54 50 35 49 44 27 42 37 16 43 38 19 43 38 20 43 38 18 44 38 19 46 42 14 68 64 47 67 63 42 79 76 59 122 121 90 79 82 69 166 170 124 175 177 131 126 127 81 117 118 81 111 114 77 98 101 61 105 107 73 91 93 53 76 75 40 72 70 38 88 86 58 72 69 39 77 73 43 94 91 67 92 89 66 75 70 45 62 56 31 54 51 21 56 53 26 61 60 36 71 73 48 97 109 71 153 173 127 164 187 129 172 193 134 185 204 149 168 188 127 144 167 90 178 195 132 178 194 127 155 173 101 154 169 99 166 181 117 170 185 122 165 178 112 181 187 138 164 164 118 153 147 99 144 136 92 130 121 79 106 97 60 113 108 81 89 83 62 58 54 26 60 58 29 80 78 52 92 91 65 76 74 43 71 69 36 66 64 31 75 73 43 76 75 43 83 81 52 100 100 70 109 108 75 96 92 57 77 74 42 66 64 36 54 52 24 51 51 25 51 50 25 52 51 22 61 60 34 62 61 35 58 66 28 
64 55 34 89 81 56 131 125 97 149 147 116 114 115 72 125 124 87 136 133 111 104 99 81 64 58 36 57 52 31 55 50 33 49 44 24 43 38 18 41 36 15 42 36 18 43 38 20 45 40 23 46 41 27 45 40 23 46 41 26 52 47 33 63 60 47 59 55 40 50 46 27 44 39 20 44 40 22 43 39 20 44 40 18 46 41 17 66 62 46 80 76 62 56 51 28 63 60 32 99 99 69 93 94 55 182 182 143 174 173 131 115 115 74 81 82 54 79 80 43 78 79 39 104 104 73 101 101 68 76 75 39 81 79 48 84 81 52 77 74 40 84 82 48 93 90 62 82 79 52 73 70 44 62 59 33 54 52 25 52 51 27 53 53 29 66 74 42 137 153 115 160 182 132 163 186 128 170 191 133 168 189 130 129 153 81 101 129 68 152 174 107 169 187 120 148 169 89 179 195 136 164 180 120 128 150 76 123 145 69 132 144 85 127 128 77 144 138 96 147 138 99 138 130 94 97 86 53 81 71 41 75 69 42 58 54 24 56 54 26 66 63 36 79 78 52 70 68 40 65 64 35 65 64 35 71 70 37 76 75 43 77 76 44 78 76 43 78 77 42 75 72 40 68 65 35 61 59 32 51 50 23 50 49 22 53 55 28 61 63 34 70 70 42 69 69 40 63 73 56 
61 51 29 75 66 41 98 90 63 79 72 50 115 110 86 127 123 101 119 114 94 98 93 72 104 100 88 89 85 74 52 47 26 53 48 31 45 40 22 41 36 15 41 37 20 42 37 18 43 40 22 46 41 25 45 41 24 44 39 22 49 43 27 66 62 48 68 64 48 55 50 32 45 40 15 43 38 19 48 44 27 52 48 31 59 55 38 70 66 52 60 57 37 53 48 24 69 66 42 100 99 64 97 96 53 117 116 73 123 121 83 90 88 49 70 69 40 65 66 35 70 70 38 123 122 95 125 125 95 95 93 61 87 84 52 76 73 38 75 74 43 94 96 65 94 95 63 79 79 47 78 76 52 62 62 37 54 52 26 52 51 25 51 53 31 92 104 76 159 174 138 165 185 135 168 191 132 169 190 125 139 166 86 116 144 94 116 141 70 107 138 59 161 182 111 149 170 102 146 169 110 178 195 143 156 174 123 126 147 88 123 140 76 111 120 65 101 99 64 132 125 83 139 131 97 94 82 43 74 64 46 74 68 37 61 58 27 59 57 28 58 57 27 68 67 41 77 76 52 58 58 28 63 62 34 80 79 51 72 70 36 76 75 43 75 74 42 74 71 40 73 70 40 75 72 47 62 60 34 52 51 23 48 49 14 59 60 34 75 77 50 79 80 52 75 77 47 82 94 68 
65 58 39 77 70 48 93 87 69 73 65 45 92 86 67 92 86 64 82 76 49 91 86 64 112 110 98 99 97 87 47 42 12 56 52 38 48 44 27 42 37 20 41 36 18 41 36 17 43 39 20 45 41 24 42 38 20 44 40 23 48 42 24 63 59 44 75 70 53 65 61 44 46 41 15 43 38 18 43 39 18 56 52 36 70 67 54 69 65 51 52 47 19 59 55 36 133 131 103 201 198 164 163 160 125 79 75 47 88 86 52 70 68 38 59 58 30 64 65 39 79 80 44 120 119 91 127 126 97 102 101 69 85 84 46 72 72 31 68 71 35 73 79 38 84 88 55 75 76 45 75 75 49 67 67 45 52 52 20 51 51 24 51 55 30 122 133 104 164 179 141 160 182 127 167 189 118 184 205 127 175 197 113 170 191 111 163 182 113 144 168 89 172 190 134 118 143 83 92 126 82 163 184 132 161 182 131 151 172 121 139 157 103 116 126 72 92 98 80 126 123 72 130 125 85 120 113 81 88 82 49 85 80 49 73 69 37 64 61 35 62 59 40 62 60 33 70 69 43 58 58 32 68 67 41 104 103 85 86 86 58 74 73 39 72 71 37 71 69 36 76 72 44 78 75 49 65 63 33 63 63 38 61 62 34 60 61 31 67 69 37 71 72 41 72 76 40 89 98 54 
66 60 42 76 69 51 89 83 67 74 68 50 53 47 19 58 51 28 71 67 40 91 88 67 90 87 69 63 59 39 45 40 0 53 50 33 48 45 28 41 38 19 41 38 20 42 38 20 43 40 20 45 43 27 42 38 18 44 40 25 46 42 22 62 59 45 68 64 46 70 66 50 49 43 20 43 39 17 44 39 16 56 52 37 58 55 38 61 59 41 57 52 29 60 57 33 131 128 100 184 182 151 130 128 93 67 64 41 84 81 55 63 60 32 57 56 30 64 65 35 94 95 67 118 118 90 107 108 77 104 106 75 93 93 58 72 74 31 68 73 33 64 71 34 68 74 35 64 66 39 63 63 31 75 76 55 54 53 22 51 52 24 59 64 39 138 147 122 131 147 104 123 149 84 154 178 92 189 211 123 197 219 130 192 211 129 160 179 106 145 165 100 119 141 89 111 139 76 99 130 67 146 170 114 152 174 122 150 172 120 144 162 111 106 124 67 149 158 105 187 189 138 138 135 90 108 104 67 95 93 58 109 109 69 122 123 81 105 107 64 114 116 76 86 86 55 60 59 30 56 56 28 62 61 31 105 104 85 108 107 84 75 76 40 71 71 36 70 69 36 74 71 42 97 95 74 82 79 55 63 62 33 64 64 38 61 63 31 67 69 39 63 67 34 83 86 57 74 78 40 
61 54 35 76 70 55 83 78 64 56 48 26 48 42 20 50 46 19 65 63 38 89 90 68 63 63 38 43 43 0 47 47 22 56 55 36 46 46 23 41 40 19 41 39 19 42 40 24 43 41 23 43 41 20 42 40 20 43 41 23 46 43 24 53 50 33 50 45 25 63 60 45 50 47 24 44 40 17 50 46 27 51 48 31 50 46 23 57 52 32 57 54 30 68 64 41 86 83 56 90 87 57 66 63 38 64 60 34 83 80 55 64 60 34 61 60 31 82 85 53 115 119 91 126 131 100 94 98 59 94 96 60 98 100 70 79 83 45 71 78 34 75 83 42 71 76 41 65 67 37 63 63 35 81 82 59 53 53 20 53 53 26 62 66 38 91 101 70 80 97 55 148 169 104 153 177 88 170 192 97 185 206 122 187 204 133 143 163 96 104 123 78 76 99 76 131 157 99 139 163 109 141 166 108 144 167 113 141 164 108 133 153 101 89 111 67 164 176 111 191 196 143 122 120 77 78 76 39 83 82 53 150 151 110 191 196 147 156 162 108 124 131 80 123 127 82 64 64 38 54 55 24 58 60 29 80 82 53 85 88 55 72 76 38 71 72 37 73 71 38 71 68 34 105 102 82 102 100 77 61 58 36 56 56 27 58 59 27 59 60 25 65 68 31 101 104 76 84 86 56 
69 64 52 66 60 44 56 49 29 46 38 14 46 40 18 49 46 23 73 73 47 76 79 52 56 62 43 57 62 39 61 64 44 76 77 57 56 55 34 44 43 20 41 41 18 42 42 24 43 44 24 43 44 22 43 43 20 43 43 16 46 44 20 50 48 28 51 49 27 63 61 45 49 46 23 45 42 12 58 56 40 48 45 23 49 46 22 55 51 28 68 64 44 70 68 47 60 57 31 61 60 33 57 55 26 63 60 32 92 89 63 79 76 53 82 83 44 89 94 54 127 135 104 163 169 141 129 135 100 89 93 51 78 82 42 82 86 52 92 97 65 102 105 76 69 74 41 67 68 38 63 63 35 77 78 54 53 55 20 56 59 28 55 61 25 61 72 36 97 111 77 165 180 127 155 173 93 151 168 86 123 142 69 116 136 69 114 136 68 106 129 61 93 121 64 122 151 85 151 174 122 149 172 120 141 164 111 135 160 101 132 151 100 97 116 90 177 184 133 131 136 81 83 84 53 73 73 36 68 68 41 128 133 87 159 169 109 147 156 99 123 133 72 168 168 129 77 77 53 52 53 18 61 66 39 76 81 40 70 78 33 67 72 30 71 74 35 77 76 42 78 75 43 97 94 69 113 110 87 66 64 30 56 56 23 61 63 33 59 62 33 61 64 21 75 77 45 72 74 39 
66 61 48 58 52 35 50 43 23 46 39 20 44 39 16 47 45 23 85 85 62 112 116 90 97 102 75 70 76 47 57 61 32 66 66 44 57 56 33 49 48 28 43 42 20 42 42 19 44 46 22 60 66 44 76 82 55 78 82 55 62 65 40 48 50 28 59 61 40 73 73 54 59 59 34 56 54 30 65 64 46 50 48 23 53 51 24 67 65 42 78 75 55 64 61 39 56 53 27 66 64 39 55 53 25 74 71 44 103 100 72 114 113 73 132 133 96 98 105 54 134 141 104 184 193 163 171 178 146 109 114 75 70 75 31 73 77 39 91 95 64 89 93 61 52 57 38 81 82 58 71 72 42 74 78 46 68 75 36 65 71 33 67 75 36 76 88 50 66 79 51 89 105 58 141 155 91 136 149 85 103 116 62 104 122 54 122 144 74 127 154 81 129 155 81 138 166 94 152 175 119 146 169 115 136 161 103 135 158 101 120 137 85 87 102 67 126 132 84 74 82 48 65 68 33 64 67 32 59 62 39 88 96 47 129 138 86 134 142 94 105 113 66 140 141 107 77 78 52 56 59 30 95 102 64 128 135 96 94 101 63 70 77 31 83 84 50 94 92 64 102 100 76 107 105 81 115 113 91 74 71 37 65 65 34 65 65 35 67 68 38 68 69 37 71 72 40 71 71 38 
49 42 20 55 49 31 57 52 37 50 43 22 44 39 16 47 44 22 73 73 48 110 114 87 89 95 63 72 79 48 60 64 37 53 53 27 56 55 31 52 50 29 44 43 20 41 41 15 48 53 24 86 95 72 108 118 85 110 121 79 106 116 78 53 66 45 58 70 45 94 101 75 102 106 81 63 65 35 69 71 45 68 70 43 62 62 38 84 84 58 86 87 57 106 107 84 73 74 41 72 71 42 56 54 28 83 81 55 106 104 72 144 148 107 172 178 130 109 123 67 138 150 103 194 202 170 195 201 173 115 119 84 71 76 36 67 73 34 80 84 46 84 89 55 63 69 36 70 74 43 69 73 39 88 91 59 107 113 81 84 94 53 74 84 44 76 88 49 61 75 38 73 87 47 116 124 76 108 116 66 92 99 46 110 126 61 152 170 111 158 180 111 162 184 111 168 190 123 153 175 112 139 164 103 136 161 103 142 164 110 114 129 78 84 94 52 89 98 45 93 97 53 66 69 37 66 69 34 56 59 25 70 72 38 91 95 53 92 95 55 71 73 36 70 70 45 59 60 34 59 61 30 97 102 67 139 145 109 94 101 64 72 76 34 108 106 83 115 112 92 113 110 89 107 104 80 98 95 69 80 79 49 71 70 40 68 68 38 69 69 39 70 70 39 72 73 41 71 71 37 
53 48 32 67 62 49 66 62 47 57 52 35 45 40 16 44 41 20 44 48 45 92 97 74 75 80 53 81 84 60 64 67 41 63 62 43 71 69 52 56 55 33 46 44 18 43 43 18 55 59 35 64 78 61 107 119 85 111 128 81 121 135 93 84 101 58 76 94 49 87 102 61 120 130 98 59 72 36 103 112 77 125 132 101 86 95 51 83 92 47 99 108 68 119 127 96 101 107 72 92 94 60 63 60 39 91 89 60 108 106 76 111 119 80 178 188 129 155 168 98 138 153 89 162 170 129 158 164 127 84 91 50 73 79 39 71 79 37 70 79 34 83 90 52 90 97 59 82 91 48 86 94 55 78 87 45 83 94 52 93 110 58 120 137 88 129 145 97 117 136 82 100 116 61 82 91 42 80 85 41 86 92 47 118 128 85 134 151 99 164 182 118 182 202 132 179 199 129 144 167 100 116 144 72 137 160 98 162 179 127 122 133 85 81 88 38 91 98 50 96 100 58 81 84 47 81 83 49 64 67 30 64 66 38 73 71 42 78 75 36 70 68 35 63 61 30 57 57 27 57 57 27 58 59 27 75 78 50 75 75 36 80 78 48 105 102 76 111 107 85 106 102 79 109 107 86 96 94 68 81 79 48 74 73 42 72 71 40 69 69 36 69 69 38 71 71 38 73 73 40 
49 43 26 57 52 38 57 52 37 59 54 41 46 40 18 41 39 16 44 45 32 86 88 69 75 78 59 50 53 26 58 58 34 61 60 40 67 65 47 57 56 35 49 49 28 45 44 20 49 53 26 60 76 41 84 103 59 127 143 105 111 129 83 110 128 85 85 107 63 76 100 44 109 128 79 94 116 68 157 168 125 153 164 121 111 126 80 86 103 56 87 102 71 98 109 75 141 147 117 117 118 87 83 82 49 95 92 64 99 97 63 100 109 77 184 197 131 189 201 127 163 175 107 142 152 99 111 119 77 104 111 70 90 96 57 83 94 50 69 83 35 71 85 38 97 109 69 119 132 93 126 140 100 92 112 65 112 133 81 134 155 104 152 177 116 161 186 119 165 187 118 130 150 80 86 96 51 80 85 41 84 89 43 79 89 55 82 98 60 151 166 111 185 199 140 182 196 133 127 143 81 101 121 55 111 130 63 143 154 95 108 115 62 77 82 33 73 80 34 73 79 34 91 93 53 92 94 56 94 96 64 128 128 101 89 86 52 92 89 61 83 80 52 66 63 31 60 57 28 58 55 27 55 51 22 59 56 27 66 63 34 126 123 104 123 120 99 108 105 81 102 99 72 104 101 77 92 89 60 86 85 58 81 81 50 76 76 44 73 73 40 73 74 42 72 73 37 101 100 76 
39 35 14 42 37 16 43 38 17 46 42 23 43 39 18 41 39 16 41 40 0 69 70 50 69 68 47 63 62 40 55 53 26 58 56 35 58 57 34 70 69 51 50 49 25 43 42 14 44 48 23 60 75 47 110 123 92 112 129 91 105 124 79 112 131 89 87 111 68 91 115 60 142 157 106 156 171 115 168 180 126 146 159 108 108 125 80 98 115 76 88 104 61 95 107 64 105 113 76 84 86 48 86 85 56 74 72 36 94 94 57 119 129 84 188 201 133 192 205 128 176 186 124 99 114 63 63 74 59 96 104 66 92 101 57 115 125 85 92 108 59 76 94 43 82 99 49 115 132 87 141 158 112 114 135 82 100 124 67 116 140 81 160 185 119 169 196 117 177 203 113 169 191 110 111 128 68 98 105 56 118 121 74 95 100 56 79 89 53 116 130 76 136 147 94 160 167 121 107 119 67 85 102 46 107 118 67 179 182 135 145 146 98 83 85 51 81 85 48 76 82 64 109 113 70 121 123 84 101 101 67 127 127 97 98 95 65 81 77 45 71 67 35 63 59 30 65 60 33 60 57 31 57 54 24 59 55 28 67 62 44 139 137 121 120 117 96 109 106 85 91 86 57 98 95 70 91 88 60 88 86 59 85 85 57 81 81 51 76 76 44 77 76 44 98 98 74 120 117 98 
36 34 14 37 34 15 38 35 14 40 37 14 42 39 14 45 43 20 45 44 15 52 51 24 64 63 39 73 71 53 56 54 32 54 52 28 62 61 41 69 68 50 44 43 8 42 42 16 41 46 30 90 100 75 100 115 82 75 95 45 93 112 69 108 127 83 100 123 70 105 127 65 143 159 104 141 158 91 138 151 97 105 122 65 88 108 60 119 133 89 106 121 75 105 117 75 88 99 58 65 67 30 69 67 35 66 65 31 96 99 59 133 142 84 181 193 130 173 185 115 137 151 72 86 105 46 66 81 49 76 88 43 97 111 71 132 148 106 118 137 88 99 118 63 89 110 52 111 130 81 143 161 112 124 143 89 69 95 64 84 110 74 197 216 163 187 212 130 175 202 101 173 199 103 140 165 72 145 160 83 136 146 85 106 117 60 88 103 53 99 113 48 86 104 55 103 113 63 81 94 43 76 87 39 122 127 74 199 200 158 142 144 97 85 89 57 133 137 88 144 151 98 142 151 99 135 142 90 110 115 66 93 92 50 65 63 38 62 59 29 61 58 29 74 71 52 133 131 115 102 99 78 62 56 33 58 53 27 63 58 33 94 89 61 92 87 52 91 86 60 77 73 40 89 85 59 89 86 59 82 81 51 84 83 56 81 81 51 78 77 47 93 91 66 114 114 94 86 85 58 
38 36 18 39 36 16 40 37 14 43 41 17 56 54 33 70 69 43 69 69 45 66 63 39 67 64 42 59 55 28 51 48 23 50 47 22 64 62 47 56 54 34 44 42 16 46 44 24 42 47 35 103 112 90 81 94 63 68 84 42 81 100 55 109 127 85 106 127 80 119 138 82 173 187 138 157 171 118 108 126 64 87 107 46 100 119 67 120 134 94 96 111 58 130 141 104 80 92 53 66 69 31 59 64 34 67 69 32 96 102 58 152 163 115 147 160 96 136 152 87 154 169 101 141 156 97 108 124 69 81 95 47 104 121 72 135 154 108 136 155 107 125 145 92 113 134 77 125 142 93 151 165 120 128 144 96 77 92 65 84 103 63 188 206 151 207 228 152 180 206 103 172 200 92 167 192 85 145 166 81 104 125 64 108 127 63 136 151 85 144 155 97 102 118 64 92 103 48 79 87 39 83 87 41 121 123 72 178 178 129 127 128 67 84 90 57 110 117 74 137 150 85 143 158 90 148 161 95 149 155 107 82 83 40 62 60 32 58 56 29 57 55 30 90 87 69 158 156 141 149 145 132 70 65 46 56 49 30 69 63 44 104 100 73 90 85 56 84 81 56 70 66 36 72 68 41 75 72 46 66 64 30 70 68 36 74 72 43 82 79 51 112 111 93 81 78 57 59 57 31 
39 38 20 41 40 20 44 43 19 50 51 30 91 97 57 141 148 105 140 147 103 101 101 63 72 67 40 65 61 38 61 58 39 50 47 23 51 48 25 52 49 29 44 42 18 45 43 20 47 51 24 80 88 64 57 70 42 69 81 46 80 97 56 100 120 76 99 122 70 131 148 102 144 161 113 128 146 94 135 149 105 97 115 61 99 116 65 98 115 76 86 104 69 178 185 153 126 135 95 83 95 47 72 83 37 85 95 49 105 115 64 111 127 68 102 125 76 149 163 94 171 183 123 130 147 79 106 126 58 96 115 57 112 130 76 128 148 98 138 160 109 139 162 111 134 155 101 135 153 104 144 158 115 107 122 78 71 84 45 78 98 52 163 185 112 191 214 130 176 202 99 169 197 82 168 192 87 135 158 74 108 132 72 123 141 67 160 172 107 164 172 111 154 164 109 127 134 85 86 89 50 82 83 51 157 157 117 194 194 151 153 156 103 101 106 53 122 133 68 157 172 103 174 187 120 187 197 136 157 163 113 74 76 51 62 61 33 58 57 32 57 53 31 61 57 37 99 97 78 98 96 79 58 51 38 87 82 63 124 120 103 103 99 75 72 67 39 89 86 66 67 64 37 63 59 31 63 61 30 59 56 26 59 56 31 73 71 46 112 110 96 87 84 67 52 49 31 49 48 21 
40 39 17 43 42 19 49 50 32 63 69 44 124 138 84 170 185 124 178 190 134 143 145 104 71 65 43 72 68 47 66 63 44 53 50 27 45 42 16 49 46 26 46 43 21 45 42 20 51 55 30 62 71 45 52 64 32 63 76 42 91 105 72 91 113 65 98 122 69 125 145 101 103 124 69 103 124 68 144 157 122 90 108 52 90 109 46 132 146 101 128 138 92 153 161 124 120 129 81 118 131 80 91 108 50 93 110 55 124 136 80 132 146 79 129 147 89 179 193 132 145 161 92 102 124 53 114 135 70 104 123 68 112 130 79 122 142 90 137 160 108 143 166 113 143 163 112 144 160 115 122 137 92 74 88 50 82 97 47 124 142 75 160 178 106 189 208 133 162 184 96 165 188 90 163 186 94 156 175 93 159 175 104 175 188 120 179 188 121 176 181 121 172 177 129 127 133 89 76 78 50 81 83 43 92 93 54 105 108 64 132 138 81 145 153 99 159 172 103 182 194 127 188 199 133 192 202 141 149 155 103 85 87 48 60 59 29 55 53 26 52 50 26 50 47 25 55 50 31 51 45 27 49 44 24 93 90 72 116 114 95 79 74 46 70 66 40 89 86 68 64 59 31 60 56 28 57 55 26 60 57 31 80 77 59 102 100 86 91 89 72 57 53 31 47 45 18 45 44 17 
41 42 14 46 48 27 81 85 55 129 136 95 176 191 134 194 210 143 174 184 123 133 134 92 73 69 42 66 62 35 62 58 36 55 51 30 45 42 16 48 45 23 47 44 17 46 44 14 50 52 25 59 64 42 46 53 20 56 68 34 76 93 52 96 117 73 117 137 93 138 155 113 108 127 79 106 123 76 115 131 91 88 107 53 127 142 90 160 170 124 154 162 121 123 133 90 103 116 60 128 139 89 105 121 61 82 102 55 129 141 79 160 175 104 166 182 110 203 216 155 143 162 91 125 146 73 117 138 78 74 100 51 66 93 51 97 121 65 121 145 87 148 170 116 139 159 108 127 144 97 81 96 56 59 70 41 93 110 55 135 152 94 144 163 87 166 180 117 140 157 88 136 152 79 138 153 80 163 177 112 174 188 121 181 194 123 176 186 117 161 165 104 129 135 86 86 92 59 80 82 52 91 93 56 71 74 45 75 83 50 128 139 80 191 201 138 201 211 142 194 203 138 155 164 101 136 143 82 116 120 65 104 107 69 67 67 40 53 51 25 52 49 25 51 48 26 52 47 29 53 47 25 51 46 21 57 53 28 68 64 37 71 66 39 67 64 34 90 87 69 67 63 35 58 54 24 57 55 27 87 85 68 105 104 91 72 70 49 68 65 43 59 56 33 48 46 23 45 45 21 
65 69 44 73 75 47 91 94 65 116 126 85 160 172 119 186 194 144 135 142 86 95 92 50 77 72 45 74 69 47 68 64 43 63 58 37 52 48 20 49 45 14 79 77 63 76 74 59 50 51 24 48 51 24 49 53 25 65 73 43 75 92 53 107 124 85 127 144 103 134 147 108 108 123 78 84 102 53 72 89 43 73 91 53 145 156 110 141 150 102 96 109 61 79 93 46 86 101 50 116 128 76 116 130 72 92 110 58 128 141 76 162 177 104 158 176 92 180 196 126 159 178 103 150 168 104 114 135 77 65 91 52 73 97 39 117 138 83 117 139 77 138 154 104 117 135 86 86 103 53 63 77 41 56 70 33 93 112 50 129 145 80 139 157 81 147 165 85 139 154 80 106 121 54 104 117 53 110 124 60 133 148 85 175 187 126 179 187 128 120 125 74 67 75 57 67 73 51 96 97 56 94 95 58 79 86 49 81 94 64 125 141 79 199 211 142 217 224 157 150 160 99 86 96 52 81 88 51 86 91 64 84 86 47 60 59 30 56 55 28 56 54 30 60 56 36 94 92 75 78 75 53 66 62 37 57 53 28 60 57 29 69 66 42 64 61 29 84 82 61 73 71 45 58 55 20 62 59 31 89 87 70 69 66 43 48 45 10 65 63 44 58 56 35 46 45 18 44 44 18 
81 87 57 76 78 51 53 57 30 49 57 31 86 92 56 123 125 82 107 104 60 86 81 42 67 60 41 69 64 35 73 68 46 79 76 56 66 62 38 57 52 24 82 79 59 80 77 57 54 54 25 46 48 20 55 57 30 84 88 64 95 105 76 109 121 88 100 114 72 111 123 81 117 128 89 79 93 47 59 74 46 67 81 57 125 135 89 116 126 78 89 102 56 90 103 56 87 102 50 102 116 60 119 132 78 110 125 58 133 147 80 160 175 102 153 170 92 155 173 97 161 180 109 152 171 110 107 129 70 70 94 45 89 111 50 120 136 88 112 129 76 113 130 78 80 99 56 70 86 47 70 85 40 69 88 51 125 142 81 138 153 89 145 161 89 168 181 108 176 186 121 141 151 86 109 117 68 97 104 63 78 87 40 130 137 84 162 167 122 97 104 65 64 74 52 92 100 53 109 117 67 105 117 60 126 139 85 123 139 80 149 163 101 196 204 141 164 172 111 89 100 56 88 97 60 126 132 80 154 157 116 90 92 59 59 59 28 61 62 35 68 66 44 87 84 58 116 113 92 99 96 70 74 70 42 58 55 27 58 56 27 67 65 37 67 64 35 76 75 50 76 75 52 69 67 43 64 62 35 66 65 40 61 59 34 48 46 12 65 64 47 60 58 37 44 44 15 44 44 18 
53 60 25 45 46 0 46 45 19 48 47 24 58 54 38 91 85 51 109 103 72 98 92 53 87 83 46 89 84 53 73 68 37 82 77 52 69 64 34 84 82 52 86 84 48 79 78 42 61 62 34 53 55 28 55 57 26 71 74 43 78 83 47 72 79 54 59 74 49 99 112 80 118 131 90 80 93 50 70 83 47 85 97 51 129 137 101 102 112 64 114 123 83 106 116 72 102 114 63 99 114 53 100 115 50 112 126 59 139 152 90 149 162 95 126 144 84 148 164 87 164 180 113 153 172 111 106 124 62 83 97 48 100 114 65 96 108 61 82 97 47 79 95 47 68 85 45 75 89 43 75 89 41 107 122 73 141 153 99 140 155 88 149 164 94 161 175 101 173 182 115 155 163 108 96 101 56 79 85 46 66 71 31 89 93 59 97 102 64 71 77 43 75 84 43 110 120 72 145 161 99 156 174 108 167 185 117 168 183 113 153 167 97 127 138 73 84 95 43 82 92 50 160 164 124 188 191 146 175 176 133 102 103 61 65 65 34 70 70 42 127 126 104 201 199 180 215 212 193 180 177 159 108 106 83 63 62 32 61 59 29 63 62 32 63 62 29 67 66 38 69 69 41 68 67 43 55 54 22 53 53 23 59 58 37 47 46 12 62 62 44 57 56 36 45 45 17 45 46 20 
51 57 26 43 43 16 45 43 22 48 46 24 64 58 31 100 94 65 114 106 76 102 97 59 117 113 82 115 112 83 70 67 52 72 68 33 78 76 42 108 109 73 136 139 100 114 120 71 108 113 70 83 87 51 59 60 30 76 77 46 87 89 56 76 81 52 72 83 46 131 140 103 140 148 111 97 108 59 94 105 59 99 109 63 113 120 85 79 89 45 96 105 65 88 99 53 105 115 66 137 148 99 117 133 71 128 141 80 144 157 99 115 129 59 131 142 75 174 182 127 176 186 128 160 169 115 104 111 68 95 98 51 103 105 64 84 87 53 75 82 44 100 111 67 94 107 61 76 92 47 71 87 41 104 117 67 131 143 91 132 146 90 131 146 82 150 162 98 147 155 99 119 126 79 88 94 51 62 68 39 70 78 42 77 83 51 66 70 37 64 70 37 79 87 43 118 130 85 172 190 126 178 197 125 176 194 120 166 182 110 131 147 73 114 127 65 76 86 51 75 85 44 136 141 101 168 170 129 156 158 115 99 100 56 81 80 44 103 102 76 207 207 189 248 246 227 240 237 217 161 159 134 92 90 59 73 74 44 66 67 36 65 66 36 64 65 33 69 69 40 67 67 39 63 64 35 49 49 18 45 46 15 46 46 14 46 46 18 47 47 20 46 47 20 48 48 24 48 48 21 
55 59 29 44 42 19 44 42 19 48 45 23 73 66 46 118 111 87 117 110 81 96 90 43 92 89 48 88 86 51 78 77 42 101 99 67 79 80 44 92 97 69 149 156 112 144 154 97 134 141 91 98 103 61 61 64 51 109 111 79 96 98 56 81 86 41 99 108 65 141 149 111 138 145 104 102 113 63 124 132 96 115 123 83 78 87 37 84 92 49 85 93 48 74 84 38 91 101 60 164 170 134 134 144 100 138 150 92 165 174 123 133 141 84 108 111 77 138 140 93 136 139 89 129 132 84 81 83 66 101 99 62 122 122 90 101 99 61 86 91 47 107 116 75 89 102 50 73 90 41 71 89 41 85 101 50 104 117 59 81 97 56 83 97 54 126 134 89 102 112 68 84 94 52 80 87 46 64 73 32 67 75 36 74 82 47 71 77 40 76 82 42 88 95 51 129 140 83 170 188 122 175 194 118 175 194 121 171 187 120 161 174 113 129 139 89 71 80 46 67 75 36 84 91 46 99 104 52 126 129 91 93 95 53 86 86 48 102 104 72 162 161 140 172 170 147 151 150 124 98 96 64 82 83 46 74 76 46 67 70 39 69 72 41 69 72 42 69 72 41 63 65 34 59 59 28 51 52 20 45 46 17 47 47 18 48 48 21 47 47 21 47 47 21 50 50 27 51 52 26 
53 56 27 45 43 21 44 42 19 48 43 25 83 76 57 121 114 90 112 105 68 98 94 50 117 121 73 114 119 75 123 124 87 141 141 107 78 81 37 74 83 76 135 144 96 165 174 123 134 141 91 88 96 43 84 93 51 129 135 92 141 146 101 133 139 94 102 111 59 113 123 81 115 124 83 111 120 78 116 125 87 106 115 76 81 87 43 112 117 85 86 92 50 74 83 39 75 85 41 112 120 82 115 127 74 155 165 111 181 190 138 168 173 126 94 97 57 87 88 42 105 108 68 113 114 75 94 93 54 98 97 53 120 119 85 103 103 59 97 102 58 85 97 45 81 96 41 89 103 51 77 94 39 99 113 68 130 141 97 76 90 47 65 79 41 83 95 50 68 79 45 71 83 39 65 76 33 60 72 28 60 72 28 64 73 33 76 81 44 93 98 65 90 94 53 113 123 67 165 181 118 170 187 116 168 182 113 165 177 115 147 158 101 94 104 56 67 71 43 68 72 34 70 74 38 92 95 58 101 103 63 94 95 53 94 94 53 87 88 48 73 74 49 71 72 59 77 77 44 80 81 41 77 78 42 65 68 32 59 63 23 58 62 19 62 66 30 68 72 41 60 64 29 55 56 21 54 55 27 50 50 20 52 52 25 53 53 27 51 52 25 48 48 20 49 49 21 51 53 22 
41 44 11 42 41 18 43 41 19 48 43 25 91 83 65 134 127 107 135 128 101 121 117 73 160 166 111 172 183 120 156 164 106 123 126 82 88 90 51 79 87 76 139 144 108 136 143 97 89 101 58 100 111 54 128 138 82 142 151 89 169 177 124 172 178 133 112 119 69 82 91 46 76 89 47 84 96 49 87 97 55 72 81 34 69 74 42 97 102 72 81 87 49 83 91 54 79 86 48 76 86 47 121 132 78 168 175 129 175 182 135 161 164 123 94 98 56 72 76 30 88 91 49 98 101 61 102 104 66 113 115 74 150 153 116 121 126 78 96 105 46 96 108 50 93 107 53 82 98 45 73 91 44 116 129 79 133 143 99 80 92 48 66 79 36 72 85 40 70 83 40 66 79 34 60 73 28 59 72 26 59 72 27 64 73 33 73 79 41 97 101 73 76 78 40 99 100 50 161 164 112 172 175 122 150 151 94 137 138 94 105 106 64 70 70 42 69 69 33 72 72 38 62 63 27 81 81 51 90 90 54 122 122 92 121 121 90 94 95 56 110 112 75 106 107 67 89 93 48 79 83 36 76 79 38 65 69 32 59 65 27 61 66 30 63 68 30 67 72 37 63 68 32 58 62 27 55 57 23 55 56 23 57 58 27 60 61 29 60 61 29 56 56 26 53 55 24 73 77 49 
41 42 19 41 40 19 42 41 19 47 43 23 78 71 52 135 130 110 128 121 92 126 121 76 172 179 125 196 207 144 133 143 86 79 84 41 118 121 91 97 101 70 100 106 72 89 96 56 67 77 42 116 126 80 170 182 128 179 190 132 178 189 131 155 165 106 105 115 69 104 115 65 81 95 60 138 147 103 125 135 92 73 82 49 68 74 38 67 71 34 62 69 38 68 75 39 64 70 35 73 79 55 148 151 116 161 163 125 127 130 87 116 119 77 82 86 44 78 84 40 102 109 65 86 95 47 79 87 45 108 116 65 170 176 132 153 161 106 135 149 81 141 152 94 114 126 70 70 89 40 88 102 50 119 130 83 98 110 62 64 76 46 64 78 32 70 83 37 73 85 42 63 77 33 59 72 28 59 73 28 60 73 29 70 77 42 74 75 43 72 70 38 67 64 32 82 78 44 129 125 89 147 142 106 138 132 98 113 106 72 91 85 52 81 76 42 85 80 50 75 72 39 62 61 25 63 63 30 62 63 39 75 76 43 82 82 45 80 84 33 101 108 63 116 122 73 108 116 64 91 100 46 79 85 42 71 78 35 70 77 35 72 79 39 70 78 38 71 78 36 72 79 40 67 76 35 60 68 28 61 69 38 75 82 49 76 83 53 74 80 45 72 79 41 63 72 34 85 93 57 
40 41 19 40 39 18 41 40 17 46 42 20 65 56 33 108 100 74 117 109 77 122 117 81 139 142 94 173 177 131 95 103 57 67 72 34 87 91 60 70 73 36 65 70 37 78 83 47 84 94 53 152 166 116 184 200 147 200 215 163 195 210 156 140 159 108 146 163 105 153 170 111 142 160 101 178 193 139 172 183 135 101 111 76 75 82 48 67 74 41 65 71 42 64 71 40 54 58 39 75 77 57 139 140 115 111 112 76 86 87 46 77 81 40 75 81 39 86 96 48 118 128 82 109 120 71 74 85 40 108 118 68 160 168 120 166 177 115 176 190 122 178 190 130 156 166 109 97 110 57 85 99 46 104 116 71 92 105 64 56 70 47 69 84 40 72 87 39 70 83 39 64 78 34 61 74 29 62 74 31 63 74 31 66 71 35 79 78 53 69 66 40 62 59 30 69 64 35 89 83 50 125 120 95 134 126 103 105 97 68 81 73 42 86 79 47 113 109 86 86 82 49 65 63 29 63 63 33 59 59 29 58 59 27 64 66 31 76 81 33 110 118 72 144 151 107 149 156 111 131 141 91 109 117 67 77 88 47 80 91 43 78 89 42 76 88 39 79 91 39 76 88 41 92 108 63 116 135 81 122 143 77 158 174 114 169 185 119 158 172 110 113 133 81 95 119 60 116 138 73 
40 42 19 40 39 15 44 42 23 52 48 32 61 53 25 100 91 64 110 102 73 103 97 64 97 96 56 110 112 76 67 72 40 59 65 30 63 68 34 64 70 38 67 73 39 74 81 45 131 141 100 200 214 168 206 221 170 208 224 172 201 218 165 180 198 139 157 178 113 149 170 101 170 188 126 177 192 132 177 187 138 149 155 113 120 128 90 103 112 75 102 110 76 84 89 62 59 61 51 64 64 35 70 69 45 66 66 35 74 76 44 66 71 36 78 85 50 112 123 73 138 149 99 126 136 89 79 89 50 81 92 43 106 119 70 134 146 89 147 158 99 152 167 99 162 174 115 105 120 67 70 87 47 87 100 45 115 127 81 73 91 67 82 102 47 110 127 75 120 133 81 82 96 57 60 72 32 63 73 32 64 73 33 64 69 34 70 67 43 64 61 35 57 53 24 57 53 24 76 70 42 104 97 68 116 109 84 106 99 71 82 73 43 89 82 49 119 114 91 97 94 62 69 67 34 63 63 33 57 58 28 52 55 21 55 58 28 90 96 56 120 128 87 103 116 71 102 117 74 123 136 78 137 148 93 124 138 80 96 113 54 81 99 44 97 115 62 121 136 81 87 108 58 114 137 79 147 173 110 149 177 105 165 192 115 211 230 157 224 241 172 185 209 138 128 162 74 131 164 83 
54 57 34 42 42 0 45 44 21 50 46 26 56 49 27 95 87 63 105 97 72 101 97 74 85 84 56 62 66 38 52 60 27 61 69 32 63 72 38 64 73 38 76 89 53 109 121 70 154 165 121 204 218 172 205 221 170 209 225 172 201 219 165 185 204 148 147 170 102 145 168 106 162 183 123 155 173 113 130 141 89 117 127 87 129 138 101 129 139 103 136 141 110 94 99 68 68 69 41 60 61 35 53 53 27 58 59 28 75 79 48 82 88 55 141 149 109 165 173 126 157 166 118 121 130 84 73 82 46 69 76 33 79 91 47 86 102 55 104 119 49 144 158 95 126 141 80 70 94 42 72 89 50 86 100 57 129 144 86 141 159 97 147 168 103 168 187 128 154 173 111 134 150 92 90 100 60 61 68 29 62 68 33 64 66 38 63 62 39 58 55 28 58 55 28 67 62 36 91 86 62 106 100 71 118 113 89 127 121 99 103 96 65 97 89 57 114 109 82 104 101 70 88 87 54 65 65 32 59 60 29 56 58 28 53 57 27 85 91 54 89 101 56 77 96 49 115 132 73 119 138 64 119 138 65 135 151 92 122 141 80 83 108 56 116 136 73 144 161 104 107 133 61 118 144 76 129 159 85 136 168 90 146 178 94 178 203 129 183 205 133 178 201 132 148 179 93 130 168 77 
75 80 49 61 65 41 47 48 23 43 41 8 51 46 20 87 81 56 94 87 62 86 80 53 65 64 33 55 59 26 58 66 31 61 73 35 61 76 36 75 94 53 129 145 98 124 141 86 113 132 71 160 180 126 162 184 123 169 190 134 173 194 138 152 176 113 130 158 88 123 152 81 129 155 92 126 149 89 92 105 72 62 73 48 83 91 52 114 120 83 119 124 92 67 70 47 75 75 52 59 59 34 55 55 28 57 58 28 70 73 43 124 130 93 178 186 144 169 176 126 133 143 92 85 97 63 62 69 53 71 76 38 80 90 44 94 109 55 151 163 104 142 155 97 76 100 56 65 89 43 72 91 44 82 102 56 144 161 99 160 178 111 156 176 111 165 185 122 153 175 109 161 177 122 137 142 105 61 64 32 56 57 26 52 53 17 58 56 33 59 57 33 65 62 39 73 70 44 101 97 75 105 99 72 105 98 68 121 115 92 107 101 71 101 93 61 111 106 76 99 95 58 87 86 42 84 85 50 68 69 42 60 63 31 58 63 30 64 71 33 77 91 43 126 144 74 173 188 119 151 170 89 123 145 63 114 138 50 115 141 58 107 133 64 160 179 112 118 142 76 83 116 61 83 118 53 106 142 64 117 154 72 126 161 78 124 160 73 148 179 94 168 197 116 143 177 83 117 160 80 
102 113 72 103 110 79 56 61 47 45 45 52 58 54 26 85 80 56 83 77 48 71 67 35 57 59 29 59 65 34 60 71 36 63 77 36 63 84 53 115 135 85 144 163 113 100 124 56 89 115 53 142 168 104 160 185 122 152 179 113 139 168 99 116 148 73 112 146 71 104 138 67 113 144 77 121 145 90 89 104 72 62 67 52 60 62 37 101 102 73 90 88 58 61 58 46 79 79 57 56 55 28 55 55 26 66 69 34 87 94 53 122 130 82 166 173 129 132 142 86 96 110 46 81 96 59 79 90 44 73 82 40 81 90 37 147 157 105 180 193 130 110 130 72 68 95 40 68 94 36 77 100 48 105 126 69 161 178 114 163 179 112 127 149 86 144 164 101 152 171 113 140 155 101 92 100 58 55 56 33 55 55 27 49 48 18 54 53 29 55 53 28 63 60 36 75 72 49 94 90 65 104 97 67 101 92 57 108 101 67 102 93 57 110 103 70 104 98 63 101 100 51 109 112 60 135 139 96 96 99 60 61 66 39 60 66 30 61 69 33 105 121 68 190 209 135 212 231 145 197 216 131 170 192 103 178 199 121 177 197 128 147 171 91 179 199 136 141 165 88 104 133 71 75 110 57 81 121 55 111 152 69 126 163 81 115 155 67 136 171 85 163 196 113 152 186 93 133 171 78 
124 135 91 115 120 93 65 70 47 53 56 24 64 62 32 84 81 55 83 81 54 63 62 30 65 71 62 106 114 89 72 86 47 63 81 41 91 114 62 137 159 108 140 162 104 116 140 76 115 139 76 167 188 136 168 193 135 153 178 118 129 159 89 106 143 67 118 151 79 108 141 69 104 137 68 115 140 83 88 104 73 63 66 54 68 68 40 111 110 84 102 98 71 88 84 56 92 91 68 63 64 34 57 63 31 83 91 53 141 150 109 127 138 86 116 128 76 96 112 77 133 147 94 147 159 112 129 144 93 96 114 59 76 91 53 129 144 82 158 173 105 113 135 70 90 117 63 81 109 47 102 124 63 148 164 102 168 185 122 159 173 112 132 149 92 133 148 92 140 152 101 105 117 71 62 67 43 56 56 25 53 54 24 48 47 16 52 50 25 51 50 22 55 52 26 73 71 49 83 80 52 113 106 77 133 125 90 140 133 97 124 116 72 120 114 69 109 107 65 144 148 94 172 181 116 158 167 103 102 112 61 65 74 34 63 70 32 63 76 44 145 165 102 223 241 162 215 235 147 192 213 125 178 201 112 184 205 127 142 167 92 101 132 64 111 142 89 188 207 145 154 176 116 76 112 63 83 122 66 111 151 70 129 164 87 113 153 71 114 154 64 129 168 69 153 188 92 177 206 115 
92 107 73 61 72 43 56 62 33 57 61 28 67 67 36 80 81 53 82 82 54 63 68 36 83 92 65 128 136 113 83 98 59 79 101 58 135 156 108 132 154 99 126 147 90 118 140 85 111 139 74 155 181 125 143 174 111 124 158 87 120 155 80 137 168 103 141 170 106 128 158 91 111 142 73 118 144 89 84 100 70 64 68 45 72 71 45 114 112 87 109 104 79 122 120 93 104 104 78 95 102 63 111 122 81 137 146 104 153 163 116 105 120 59 87 105 58 120 137 77 162 179 126 153 173 113 147 168 109 131 153 94 93 114 62 84 101 62 141 161 94 168 189 115 157 179 105 139 160 86 144 160 94 153 169 107 133 149 87 133 147 89 157 169 115 140 153 96 100 111 61 68 74 47 61 61 31 59 58 30 57 56 29 54 53 25 52 50 23 52 50 23 53 51 24 61 56 32 71 67 41 119 113 77 178 173 133 175 171 122 153 154 97 138 143 79 147 154 98 202 209 153 211 221 152 185 199 125 138 152 92 77 95 53 77 91 58 72 90 59 164 185 113 226 244 164 180 202 108 162 190 89 165 193 93 151 178 96 99 133 77 101 133 59 156 182 110 172 194 125 120 152 96 117 152 73 142 172 97 128 161 82 106 146 68 105 144 63 106 148 63 127 168 69 172 203 115 203 227 143 
76 97 46 59 71 36 55 63 28 55 62 28 65 69 39 67 72 40 65 71 36 58 67 33 65 77 48 79 92 56 79 96 51 129 147 101 150 168 120 94 121 62 91 116 54 73 97 54 101 130 85 136 166 105 120 156 85 115 152 78 128 163 94 146 176 113 145 176 111 142 171 109 123 152 89 120 142 92 69 88 53 67 71 31 73 71 47 106 104 76 95 88 55 138 136 112 127 129 89 134 147 103 135 151 103 155 169 124 156 169 121 104 123 69 93 115 49 124 146 81 147 170 109 141 166 101 134 162 95 134 160 95 123 147 85 65 92 66 144 165 101 172 198 113 177 201 119 174 190 126 117 136 74 87 104 50 79 93 75 109 124 61 170 180 125 137 147 92 80 88 47 64 69 31 57 58 22 58 57 27 59 58 30 58 57 27 56 53 24 54 52 23 56 53 27 59 55 29 67 63 39 133 130 89 214 212 163 200 204 138 172 181 111 160 170 99 143 155 90 161 171 114 175 187 123 175 188 121 158 176 106 123 149 74 144 167 98 144 169 99 189 213 126 199 224 124 173 204 94 186 214 111 184 210 113 174 202 109 147 177 93 123 158 86 153 182 94 151 181 88 167 194 111 182 207 130 179 204 127 144 174 94 103 141 64 95 134 55 93 138 70 148 184 96 160 194 104 161 193 103 
113 129 89 56 69 32 47 57 19 46 55 17 56 64 30 59 69 32 59 71 33 58 70 30 56 72 32 60 76 39 92 109 67 166 182 138 165 183 132 91 119 58 82 108 49 59 86 44 104 134 76 124 158 92 120 156 85 124 160 90 139 173 107 146 177 113 147 177 115 147 175 112 136 162 102 101 124 71 69 88 39 76 87 46 75 79 36 106 104 75 84 78 49 130 128 100 140 143 104 131 147 97 131 150 97 135 151 99 135 152 99 121 140 82 110 130 65 129 150 87 134 160 94 133 161 92 127 156 85 131 158 91 139 162 101 79 104 76 151 170 108 174 197 117 178 197 124 131 150 81 82 100 60 82 98 55 110 128 67 155 169 104 177 190 122 145 157 99 78 86 55 70 74 34 58 58 20 56 55 20 66 65 34 69 66 38 62 59 30 60 57 29 58 56 28 61 59 31 67 64 41 156 157 117 216 220 166 193 201 137 164 174 101 163 176 103 128 143 81 101 121 69 123 142 73 147 165 90 155 174 99 156 182 96 184 213 115 201 230 124 219 246 142 220 246 139 220 245 144 210 232 136 200 225 132 205 227 141 189 212 127 160 189 94 149 179 79 149 179 76 181 206 126 174 200 120 164 190 112 138 165 92 87 123 61 77 116 58 115 154 74 144 180 92 108 153 93 125 166 88 
120 138 97 57 71 33 45 56 24 42 53 8 53 64 32 63 76 39 74 87 50 64 79 37 61 77 36 62 77 43 110 126 82 175 193 145 176 196 143 136 160 99 109 137 75 69 102 53 106 138 74 127 160 94 130 165 97 137 170 103 144 175 110 147 179 115 151 180 120 143 169 108 123 145 89 89 111 63 88 106 53 106 119 76 81 93 44 96 99 63 84 82 41 118 119 86 127 132 89 125 142 91 127 147 93 123 141 89 109 133 67 123 142 87 104 126 58 129 150 86 132 159 94 128 157 86 126 155 82 133 160 92 150 169 113 115 133 69 157 172 108 175 188 126 142 158 98 84 107 62 77 93 53 111 129 69 156 171 112 180 197 129 187 204 125 174 182 118 100 104 63 74 76 34 61 60 23 58 56 18 77 75 46 79 76 47 63 61 24 63 60 27 64 62 30 67 64 35 71 71 48 136 139 100 157 165 123 170 180 101 179 190 118 170 182 108 173 187 117 126 142 93 93 115 77 138 159 86 125 146 81 157 186 97 210 239 137 221 248 137 231 255 150 236 255 160 220 241 138 203 227 124 185 210 116 171 197 99 195 219 127 182 206 119 174 199 111 168 194 106 170 196 115 130 160 92 103 135 74 92 123 61 76 109 55 74 114 53 140 175 94 168 199 117 155 188 93 168 200 106 
134 149 109 87 101 63 69 82 49 53 67 33 65 78 43 86 98 68 119 128 101 114 124 94 87 100 64 64 80 43 105 123 74 167 188 139 174 199 142 165 191 134 150 180 116 120 157 87 127 159 84 139 168 99 152 180 113 153 182 115 145 177 111 149 182 118 157 182 126 109 131 76 65 87 53 72 95 43 114 130 88 133 145 105 102 116 69 80 91 43 86 89 45 121 123 89 117 122 74 109 125 70 122 138 92 114 129 82 92 114 50 120 135 84 97 116 48 129 146 89 137 161 99 134 161 95 133 160 92 138 164 99 144 162 103 128 142 79 137 151 92 117 133 69 92 111 54 83 100 47 84 100 42 133 149 90 173 187 128 179 196 128 183 197 127 174 181 118 128 129 79 80 78 44 70 65 28 69 64 25 78 72 38 80 74 40 77 72 39 77 74 43 72 70 35 69 67 33 78 81 43 121 128 76 138 152 93 166 181 105 182 197 122 163 180 96 188 201 134 141 157 98 90 113 82 142 164 94 91 120 69 157 188 92 216 244 140 238 255 153 230 254 145 221 245 138 210 236 120 210 233 134 159 187 104 146 179 103 196 219 133 165 190 97 174 199 108 170 196 108 154 180 97 109 138 70 100 128 57 84 116 51 76 111 52 87 126 73 161 194 108 184 215 124 186 217 124 185 214 120 
112 128 83 102 115 75 92 105 66 65 81 43 70 84 46 61 76 43 78 91 59 89 100 67 75 89 48 59 78 38 92 113 56 133 163 94 152 184 117 151 184 115 150 182 115 149 182 111 149 177 106 156 182 113 181 201 136 168 191 123 153 182 118 147 176 115 130 153 95 81 103 61 63 81 43 67 89 41 96 113 69 127 140 99 124 137 94 91 103 54 91 96 52 119 121 86 107 110 67 89 97 40 95 107 53 90 101 50 78 94 44 98 111 59 83 100 53 99 115 65 112 131 77 125 145 88 134 153 97 136 155 97 110 129 67 117 131 74 106 120 58 99 117 50 104 122 57 107 123 59 108 121 58 126 141 81 149 163 104 136 150 89 135 146 81 144 147 92 138 135 99 104 99 66 106 102 75 109 104 80 103 97 69 99 92 62 100 95 64 97 92 58 95 90 51 85 82 53 103 107 63 147 159 112 178 194 121 185 202 119 173 191 108 157 178 94 148 170 93 127 149 80 118 145 88 162 184 109 134 161 89 180 210 112 214 243 131 237 255 158 217 242 136 202 232 111 222 247 138 197 220 126 143 174 89 176 205 118 181 204 122 148 178 99 184 209 115 169 193 110 105 136 77 82 114 56 79 111 50 81 116 49 97 133 63 126 163 75 175 207 117 179 211 115 189 218 124 193 220 128 
94 109 68 93 107 67 86 101 59 70 88 46 81 96 55 58 73 45 47 60 24 52 65 35 61 77 37 103 126 75 146 171 114 166 194 135 153 186 118 151 185 113 151 184 116 150 182 111 152 180 108 153 178 108 166 187 120 141 164 94 132 157 92 127 152 89 113 138 73 88 108 64 65 82 51 68 88 38 65 87 40 98 114 69 127 141 101 118 131 89 93 99 52 102 102 64 107 107 71 96 96 54 88 90 39 89 91 47 76 83 35 73 87 36 92 107 56 107 123 81 89 111 71 76 98 68 96 113 66 123 136 79 106 122 68 76 92 43 88 107 58 145 163 104 156 175 113 165 182 122 147 163 101 109 126 68 106 122 64 77 90 64 89 94 46 101 100 59 91 86 48 80 74 36 86 79 48 86 79 58 89 81 49 94 87 56 94 88 53 101 96 61 113 108 71 124 122 71 147 156 108 185 204 124 203 221 136 194 214 125 183 205 117 180 204 118 151 178 81 151 178 89 147 175 86 166 193 103 188 215 119 206 233 131 215 243 130 224 251 137 204 235 123 215 242 129 234 254 158 189 213 111 163 192 101 176 200 116 133 165 88 178 206 123 199 222 134 166 188 111 100 132 69 81 110 59 75 109 47 100 132 63 157 187 111 181 209 127 182 212 120 179 211 112 185 216 119 182 211 119 
78 91 54 61 79 39 68 87 35 93 108 62 127 138 101 89 103 69 56 70 40 63 78 37 100 120 73 147 175 116 176 204 146 172 202 139 151 185 116 151 184 113 151 184 115 152 184 113 151 178 106 151 174 108 136 155 90 97 121 63 82 111 50 112 136 80 125 146 96 102 124 79 70 89 66 66 85 55 57 78 31 72 90 42 114 127 87 132 143 107 84 91 58 83 80 43 92 84 47 95 89 50 113 111 80 98 97 62 69 76 34 68 82 36 106 122 76 138 154 109 129 147 96 105 125 66 115 131 77 124 137 86 108 122 69 66 82 48 90 110 59 162 179 124 187 204 146 187 205 141 175 190 132 120 140 69 130 145 85 124 138 85 89 98 56 90 94 50 87 85 44 75 71 33 69 63 32 65 58 30 76 67 44 110 103 72 90 83 48 82 78 30 85 86 31 136 139 100 173 188 131 202 223 132 201 224 130 193 217 122 187 212 116 185 211 113 174 201 100 170 196 103 168 194 99 181 207 111 211 237 136 217 243 136 222 249 137 223 249 137 227 252 140 224 248 144 231 252 158 204 226 135 158 184 111 122 154 80 148 180 105 199 223 139 176 199 117 176 197 119 144 166 92 94 124 58 78 111 52 99 130 64 143 172 96 178 206 122 181 211 121 178 210 113 182 213 118 160 189 101 
49 63 20 55 72 34 73 92 48 111 126 80 125 140 95 84 104 54 66 85 46 87 108 47 135 163 103 157 190 127 165 196 132 158 190 125 148 182 110 149 182 111 158 188 123 160 190 123 150 175 106 125 146 86 85 111 54 73 101 50 68 99 43 83 115 56 109 136 82 112 133 84 96 112 72 73 90 59 63 81 39 63 82 36 96 106 69 118 125 95 77 79 51 85 80 47 100 93 65 103 97 71 89 82 54 67 67 34 64 73 34 65 81 33 89 110 63 122 144 92 124 145 89 120 139 83 104 121 63 104 118 64 96 110 53 77 96 40 85 107 52 131 149 85 160 176 116 163 179 118 166 181 120 167 181 120 185 197 144 159 172 118 99 115 78 112 120 67 109 113 72 81 80 42 68 63 29 64 58 30 95 89 57 171 165 135 132 125 91 87 87 45 99 107 66 164 172 143 208 227 143 207 230 134 194 220 115 197 224 121 196 221 122 197 223 123 188 213 116 175 201 97 179 205 105 185 210 109 218 243 140 226 251 145 229 254 144 235 255 152 230 253 158 189 216 116 187 211 128 144 169 102 114 144 85 138 167 109 195 218 142 160 182 104 137 164 85 174 196 118 174 192 130 126 150 83 92 122 48 89 120 48 88 122 61 138 170 90 180 207 124 178 207 118 176 204 120 126 161 71 
40 54 14 59 75 33 84 102 50 134 148 104 130 145 95 93 116 61 103 127 67 124 152 89 147 179 118 151 185 120 160 193 127 147 182 111 133 171 92 147 179 107 153 182 118 165 190 130 134 160 94 74 102 62 68 96 40 84 116 56 91 122 65 88 119 63 102 128 75 108 129 81 107 124 76 95 109 74 72 86 58 64 80 34 75 84 42 92 95 61 95 94 64 94 89 62 84 76 49 65 58 29 52 50 16 57 60 28 65 75 35 63 81 32 71 93 43 108 131 79 121 144 89 124 144 91 76 99 52 69 90 51 81 101 56 85 106 47 87 111 62 123 144 72 122 142 74 93 115 85 120 140 70 156 173 108 151 170 94 155 173 103 156 176 111 150 168 105 120 130 74 82 82 55 71 65 39 73 66 30 105 98 57 189 185 149 148 144 111 94 100 58 110 123 72 178 197 129 207 229 137 206 229 128 197 222 113 204 229 127 201 225 126 202 226 129 199 222 126 191 215 117 181 205 105 191 216 115 215 240 134 233 255 150 230 252 147 218 241 141 191 216 111 153 182 89 132 157 104 111 141 74 127 157 92 183 206 138 184 199 125 129 151 85 142 162 90 149 165 101 136 156 93 132 154 85 94 122 51 85 115 42 81 111 44 100 128 70 168 191 121 173 198 123 139 169 93 111 151 64 
42 56 16 59 74 32 86 103 53 135 148 106 120 139 80 124 147 89 136 164 103 147 178 121 148 182 120 147 181 117 151 185 121 146 181 115 144 179 111 149 180 115 120 154 76 149 173 114 141 164 101 87 114 72 67 98 52 98 126 70 115 139 91 100 127 74 99 128 74 108 128 81 92 110 69 94 109 69 71 86 43 64 80 33 73 81 42 83 84 54 74 71 43 69 64 30 61 55 23 50 47 18 49 48 18 55 57 26 65 75 36 61 78 33 60 83 35 93 120 66 123 147 92 128 152 93 98 126 72 121 143 87 123 144 87 92 119 67 134 153 93 156 173 112 126 147 78 92 113 73 104 126 51 140 162 84 153 176 99 162 185 112 168 191 121 169 188 121 156 166 111 114 115 71 108 104 67 98 92 51 110 103 54 158 157 107 155 157 109 105 115 60 113 134 77 191 213 120 204 227 127 202 226 121 201 226 120 207 232 131 204 228 129 200 224 127 196 220 123 167 191 101 160 187 103 192 217 116 208 235 136 232 253 153 222 241 149 183 207 116 169 195 96 136 163 78 120 149 75 138 167 108 177 200 138 188 204 132 164 181 104 133 150 83 109 129 67 112 131 64 110 131 54 118 137 71 104 127 54 92 115 48 79 103 44 79 101 45 118 138 71 143 163 95 105 136 70 107 141 65 
53 69 46 57 73 43 82 98 52 103 122 68 118 139 83 138 163 106 139 171 112 141 175 116 142 178 117 140 176 112 141 179 113 146 183 118 145 181 117 139 172 108 93 134 60 138 165 104 153 173 118 113 140 85 86 118 62 104 132 79 108 134 82 97 125 71 96 126 70 106 127 81 73 90 57 61 76 34 56 71 27 60 73 35 59 68 29 66 71 46 79 81 56 68 66 37 66 64 38 54 52 22 49 47 6 53 54 18 61 70 34 61 76 33 61 80 32 81 107 54 126 151 95 149 174 114 163 186 127 176 197 138 181 200 141 142 166 103 170 190 123 178 194 124 176 193 127 126 149 88 143 166 94 172 193 124 169 191 120 164 187 115 165 188 115 172 190 121 147 158 99 90 92 45 101 98 60 114 111 71 128 125 84 148 147 94 164 166 104 167 173 97 188 201 121 209 228 138 201 225 118 207 232 127 211 234 131 210 234 134 204 228 129 197 220 123 178 199 113 140 161 86 172 196 99 202 225 130 214 236 138 221 240 153 206 224 144 182 202 110 169 193 101 133 160 70 147 173 115 200 225 152 200 215 141 170 184 120 163 176 108 120 135 67 106 123 60 117 133 67 132 145 90 139 150 101 129 142 88 101 118 56 77 97 36 79 95 42 100 118 57 139 159 101 99 127 69 80 115 66 
95 112 64 73 92 53 70 90 37 87 109 47 114 136 74 144 171 113 139 171 109 136 171 109 131 169 104 131 172 104 140 178 115 145 181 120 141 178 115 126 163 95 89 129 54 146 170 116 168 187 136 140 160 110 106 133 78 107 134 81 102 129 76 95 124 69 97 125 72 99 121 75 66 83 47 51 65 27 40 53 71 45 56 10 50 59 30 104 110 86 144 147 123 74 75 45 63 62 35 64 63 40 63 63 37 77 77 50 67 72 40 62 74 34 63 80 33 73 96 40 135 159 103 172 194 138 175 199 138 180 200 139 172 193 128 165 186 116 184 202 135 188 206 135 185 205 135 163 185 109 172 194 121 173 196 125 149 175 96 138 162 81 152 172 101 160 177 113 112 127 67 76 87 54 115 123 78 96 102 72 104 103 54 145 144 90 166 167 105 193 197 125 212 222 139 221 240 148 217 239 137 213 236 132 206 230 126 204 227 126 201 225 128 189 212 123 160 178 98 138 160 94 194 217 125 208 229 137 204 224 129 196 215 126 170 190 131 173 194 109 172 193 108 153 178 101 172 197 149 225 243 168 182 194 138 139 153 89 134 147 79 118 133 61 131 144 88 118 131 74 126 136 92 116 126 78 103 113 56 85 102 43 77 95 38 77 91 38 91 107 58 149 167 115 104 130 73 96 126 71 
138 156 97 135 150 93 110 127 65 91 113 68 142 162 106 148 176 118 138 170 108 138 172 112 121 161 93 127 166 101 144 179 120 142 178 117 136 174 110 126 160 101 85 121 55 126 148 99 146 164 121 97 124 76 78 110 53 96 124 70 101 128 78 98 125 74 100 125 76 83 106 62 59 78 39 52 68 28 43 56 14 41 52 6 53 63 38 132 139 109 172 177 148 85 87 59 51 51 24 52 51 20 54 53 20 72 71 43 68 69 39 67 74 40 70 84 44 67 85 50 133 151 101 168 187 135 161 179 123 141 161 99 145 168 96 193 209 149 190 207 140 167 188 110 169 192 117 183 204 134 177 198 128 162 186 112 155 179 104 140 162 91 110 135 64 104 126 67 77 100 62 95 113 58 170 180 122 132 138 89 94 95 52 116 115 72 155 157 88 221 225 162 216 226 141 223 240 143 225 246 144 217 240 137 203 228 118 199 224 120 202 226 133 170 193 104 168 190 117 163 189 93 209 230 140 207 227 136 209 225 138 188 206 125 133 155 92 138 162 69 178 198 117 172 190 112 158 180 126 194 208 148 132 149 137 123 137 78 115 129 58 118 131 69 122 134 76 103 116 59 77 88 50 89 96 45 95 104 46 95 109 51 86 103 53 76 94 40 97 115 60 133 154 97 97 124 67 81 116 70 
162 174 121 163 174 116 139 160 94 130 155 84 151 173 116 139 170 106 141 173 112 126 160 98 82 121 63 108 146 82 145 179 124 139 174 116 133 168 109 124 155 104 78 105 60 75 98 49 81 102 54 64 88 45 59 83 34 65 91 40 79 103 54 95 116 73 102 119 81 64 85 54 54 75 31 58 73 30 74 84 51 48 60 26 56 66 43 151 157 128 166 171 139 78 81 51 50 51 27 45 46 22 43 45 18 48 48 23 55 56 27 61 67 36 75 85 52 56 68 31 83 94 55 96 108 66 87 105 65 108 131 74 165 184 123 188 204 144 159 180 108 126 154 80 167 190 117 180 201 132 172 195 125 165 189 117 157 180 108 160 180 117 124 144 81 85 113 64 128 144 85 170 184 113 196 205 143 137 143 92 134 131 76 190 188 141 204 206 156 211 216 149 213 225 130 223 243 138 228 251 149 220 243 142 208 233 131 201 225 132 188 214 124 165 190 96 165 192 103 199 224 127 215 236 142 197 216 132 163 180 112 130 148 96 121 143 79 137 160 71 168 187 110 169 186 112 120 141 72 123 143 111 112 127 117 113 127 59 106 119 51 106 119 50 120 130 73 96 107 58 72 79 53 85 89 43 108 116 65 132 142 92 111 123 69 85 103 53 103 121 70 156 174 117 153 173 111 116 144 69 
122 140 85 112 134 64 145 165 106 145 168 104 141 169 105 146 175 114 153 181 125 108 141 92 61 93 58 80 114 58 144 170 125 142 171 120 122 151 99 96 121 72 68 91 46 67 88 34 62 83 33 56 78 33 55 75 31 53 73 29 54 75 33 62 82 38 77 93 55 58 74 42 52 71 28 67 82 43 125 132 96 64 73 42 54 62 30 117 122 96 113 116 89 50 53 32 47 49 25 44 46 23 44 45 22 46 47 19 58 59 35 56 62 27 61 69 36 48 57 18 50 58 23 52 63 34 80 98 59 147 164 112 165 182 126 158 175 117 112 133 64 117 141 76 160 185 119 169 193 127 165 190 123 157 181 111 127 152 81 111 137 66 122 142 71 136 154 85 187 200 136 204 214 148 157 165 104 140 141 94 210 207 167 202 204 159 169 171 103 181 190 109 214 230 136 225 245 142 222 243 144 200 223 135 183 206 125 180 207 116 171 200 97 163 191 94 172 200 99 218 240 148 225 245 150 197 215 138 136 154 84 123 141 71 142 163 83 151 172 89 160 182 103 160 180 105 112 134 66 107 126 62 122 137 74 111 124 58 113 124 63 115 126 66 125 132 85 90 100 46 86 91 42 84 89 42 86 95 59 133 141 93 127 138 83 108 120 63 110 127 71 167 184 128 158 177 112 151 175 100 
69 91 54 126 147 91 151 171 113 140 166 101 140 166 104 147 172 116 133 157 103 100 127 70 72 101 50 59 90 41 117 137 94 121 140 98 85 108 59 65 87 41 60 82 33 67 87 39 93 108 73 63 81 49 52 73 40 50 71 30 50 71 27 50 69 27 53 70 25 53 69 28 52 69 28 68 81 47 100 108 77 52 60 33 45 51 20 52 56 27 49 53 24 40 44 18 43 46 20 45 47 23 46 48 23 48 50 24 52 55 37 58 64 33 56 64 30 49 58 28 49 57 27 50 60 38 97 112 74 108 128 73 103 123 67 87 107 56 77 95 54 104 129 67 149 173 112 151 177 112 147 173 104 147 170 104 107 130 78 96 121 79 158 172 111 152 165 100 165 174 110 155 164 107 126 133 107 205 205 163 183 183 138 130 133 78 161 168 85 189 201 111 209 225 131 231 248 155 197 220 130 168 194 109 170 199 93 176 206 104 176 205 105 161 191 96 170 200 100 226 247 157 230 249 158 194 213 131 171 188 109 146 164 81 149 170 87 157 178 100 174 194 120 149 170 95 113 135 58 117 137 65 107 124 52 101 117 49 116 126 68 116 126 72 101 111 63 110 118 68 113 120 76 81 86 39 72 80 50 131 138 96 113 122 76 97 107 54 90 104 50 105 122 72 130 152 84 155 176 104 
55 76 33 129 148 97 143 167 109 137 164 104 121 149 85 92 114 71 79 97 65 98 115 67 104 120 80 73 95 52 63 85 44 65 86 44 58 76 33 49 66 25 50 69 23 68 85 48 116 127 97 82 97 65 64 81 46 53 73 32 50 70 31 49 67 28 50 66 26 52 67 30 51 64 30 48 59 23 42 50 12 38 43 10 40 44 18 41 45 18 40 44 16 41 45 20 44 48 27 48 51 31 51 54 30 55 62 48 87 97 59 101 112 71 96 106 72 75 86 45 52 64 49 49 63 53 91 108 63 93 116 65 81 105 54 62 85 43 66 86 43 87 111 51 110 135 73 128 150 89 144 166 108 148 166 113 93 117 70 128 145 79 157 170 110 104 122 81 110 124 66 138 142 102 182 184 138 176 179 129 143 146 89 147 156 86 206 217 146 231 241 165 197 215 129 205 227 130 182 209 120 184 211 112 184 213 110 181 210 108 176 206 105 160 193 92 176 207 108 229 249 165 223 241 157 189 207 122 173 192 115 161 180 103 133 156 65 153 175 95 158 177 107 120 142 72 129 149 82 152 166 103 118 133 67 116 128 62 136 143 98 101 108 57 86 96 57 130 138 91 124 131 87 73 79 44 71 75 43 100 103 64 84 86 43 81 84 39 77 81 36 77 87 56 115 136 69 157 179 108 
46 66 45 102 124 69 139 162 107 142 165 111 119 140 90 77 88 58 94 99 61 89 101 61 117 130 97 114 128 95 75 89 55 54 68 29 48 61 22 44 57 17 37 50 51 39 51 14 54 67 30 77 92 61 92 106 79 80 93 67 65 79 50 56 71 41 52 66 32 49 60 27 39 48 8 35 40 10 35 40 14 35 39 14 36 41 14 38 43 15 40 46 8 49 57 31 74 82 53 80 89 49 73 85 59 87 104 56 154 167 114 163 177 120 159 172 118 144 155 107 101 112 75 65 82 73 139 157 112 141 162 106 139 159 104 94 112 71 59 81 44 81 102 44 86 107 47 92 113 60 125 141 93 118 133 84 91 111 68 153 166 109 166 179 117 141 154 96 184 191 142 213 216 178 152 156 92 147 152 79 146 152 80 162 170 103 201 210 147 201 210 149 165 184 103 180 202 110 176 203 104 176 205 97 180 210 108 176 207 100 168 200 90 157 193 85 175 207 108 208 230 153 202 223 139 193 212 127 168 187 105 158 176 103 148 167 88 157 173 107 131 152 74 105 128 69 143 160 104 176 187 128 123 137 66 137 146 92 142 149 104 103 110 54 105 115 71 153 160 117 114 124 76 77 84 43 69 70 46 104 104 72 107 105 74 91 90 49 79 82 47 79 87 43 111 129 68 170 188 123 
61 80 68 92 116 47 113 132 76 137 149 104 137 145 102 105 107 73 82 83 58 53 59 38 84 93 63 104 113 88 72 81 53 42 54 8 54 66 33 66 77 46 47 59 25 37 46 0 36 44 15 46 58 26 85 98 70 99 112 87 96 107 84 80 86 67 55 64 37 39 46 12 33 38 10 34 37 14 34 38 15 34 39 15 36 41 10 43 50 15 78 84 53 89 97 62 108 122 80 150 167 117 155 171 115 165 182 123 171 184 125 162 174 119 167 178 126 161 171 123 133 141 101 97 113 71 163 182 137 163 184 127 158 174 124 102 114 79 51 68 43 99 113 69 110 121 80 55 69 56 64 77 39 80 92 48 93 108 56 120 136 72 143 156 93 134 146 85 196 202 157 174 182 130 157 166 104 166 174 116 123 131 65 131 138 70 157 164 100 161 172 104 165 181 101 165 190 100 174 203 101 185 213 112 188 216 117 177 207 100 167 199 89 157 191 82 156 191 89 174 202 112 184 210 118 187 207 122 144 162 83 126 138 69 115 130 63 126 138 81 110 124 61 89 103 64 131 141 97 189 194 150 134 143 86 156 164 120 125 131 81 103 111 55 94 106 53 114 125 76 87 99 51 89 95 57 80 83 54 93 93 59 115 114 85 116 118 87 108 111 79 84 91 49 85 102 58 156 174 115 
140 151 112 130 146 97 107 122 77 108 114 72 109 110 78 71 70 48 52 52 27 47 49 26 47 51 23 46 51 20 43 50 15 40 51 12 59 69 36 76 85 53 68 77 47 41 51 12 36 43 17 35 43 15 44 53 23 69 80 51 87 96 74 64 71 49 43 50 22 34 38 10 33 36 14 33 37 14 34 38 14 36 41 14 42 48 15 79 85 56 91 97 64 61 72 47 110 124 85 165 184 130 172 194 131 182 199 138 166 179 122 105 118 74 107 118 73 96 104 67 70 80 48 78 93 63 164 182 138 164 185 129 147 161 116 84 95 63 46 59 29 87 97 66 92 99 69 48 58 32 50 59 29 72 83 47 106 119 65 135 149 89 129 142 76 106 125 63 166 176 120 142 152 92 112 125 79 129 139 71 127 134 65 145 147 85 133 135 74 120 130 65 133 151 75 153 179 85 195 222 132 200 227 133 193 223 121 180 213 103 172 207 96 168 204 92 165 200 96 177 208 109 183 210 118 170 191 109 130 143 68 113 119 50 109 114 61 105 109 58 103 105 54 88 93 48 100 107 61 127 134 89 133 141 81 153 160 117 108 115 58 91 102 45 79 95 34 81 96 40 77 91 36 85 94 53 82 86 49 71 75 33 90 92 53 102 104 67 98 101 66 76 83 43 74 86 57 156 168 120 
168 180 138 157 170 127 150 160 123 86 90 60 59 59 37 48 49 25 43 45 23 44 46 27 43 45 23 42 45 22 50 57 31 56 66 34 57 68 32 63 75 38 74 83 52 51 61 27 35 42 8 34 40 16 36 42 17 37 42 14 39 44 23 35 40 8 34 39 14 33 37 14 33 37 14 35 38 17 37 42 16 42 48 27 50 58 32 62 70 41 48 57 22 48 57 34 104 118 81 162 184 127 166 190 126 176 193 135 140 154 101 65 79 44 57 65 36 52 60 32 52 59 31 58 69 43 143 157 118 163 175 137 114 123 87 58 68 37 47 55 24 48 57 21 52 61 26 49 58 29 49 58 35 83 93 56 110 122 74 131 144 89 131 144 81 148 160 99 171 182 126 119 135 63 121 134 77 142 153 86 159 166 104 177 178 124 148 149 94 108 120 74 112 136 70 147 173 92 179 209 110 184 215 111 190 221 116 185 217 110 181 213 106 182 216 111 188 220 121 187 216 123 182 206 119 137 155 80 120 125 67 123 124 71 115 113 63 105 103 52 120 118 79 105 107 63 90 96 45 89 98 47 130 138 87 130 136 86 95 104 48 80 96 34 82 98 38 83 99 45 76 91 36 67 82 33 64 78 31 64 77 33 73 84 36 73 82 35 68 78 47 61 71 35 68 78 56 136 141 101 
164 178 136 165 178 138 145 154 119 58 62 46 49 50 29 45 47 26 40 42 21 40 42 21 41 43 24 38 42 19 42 49 15 51 62 32 67 81 44 80 92 53 79 92 56 63 73 38 40 49 17 33 40 0 33 38 14 35 39 18 35 39 18 35 38 17 34 38 17 34 37 15 35 38 17 37 40 16 43 50 27 73 84 51 91 102 68 92 103 71 72 85 53 62 75 52 96 114 64 143 163 106 165 185 126 145 165 104 92 113 61 65 81 35 56 66 31 49 56 27 52 58 31 51 58 30 79 88 58 104 111 80 66 74 42 45 56 15 49 59 26 51 62 32 53 64 31 58 70 40 69 81 41 103 111 73 102 112 57 110 121 59 127 138 76 156 164 111 153 163 103 160 172 111 187 198 138 185 194 135 151 161 94 159 166 109 135 142 80 144 158 81 162 182 101 162 187 93 178 207 108 188 218 115 189 220 115 189 221 115 187 220 117 191 222 123 189 220 121 183 212 117 162 183 99 119 126 73 117 115 59 133 130 85 124 119 75 118 114 69 128 126 84 126 128 84 122 128 79 127 134 82 136 143 93 108 118 56 94 107 45 85 102 40 87 104 43 82 100 42 77 94 41 65 82 32 60 77 30 62 77 31 66 80 33 67 80 34 74 86 38 75 85 38 72 81 40 85 89 49 
148 160 123 164 174 141 111 121 89 48 52 33 45 47 26 41 44 22 38 41 20 37 39 18 39 42 24 41 44 22 43 50 24 77 88 59 115 126 91 110 122 84 83 98 54 84 95 59 58 68 39 39 47 18 35 41 12 36 40 18 35 39 18 34 38 14 34 39 15 37 40 18 38 41 18 41 45 17 58 65 31 110 120 87 127 138 101 141 151 114 140 150 112 92 105 63 92 108 48 117 139 83 165 183 128 101 129 69 81 104 55 78 98 43 73 89 48 56 64 43 50 55 25 49 54 24 48 54 24 47 56 14 56 69 33 67 78 42 67 80 38 88 99 53 91 100 49 113 120 72 110 116 69 113 119 76 105 111 57 122 128 76 118 123 66 159 163 116 132 141 72 181 191 132 197 209 146 165 176 109 127 139 72 128 141 76 127 141 70 186 201 134 178 199 119 172 197 110 188 217 127 182 211 110 184 213 111 192 222 122 192 222 122 191 222 123 188 216 121 180 207 117 144 161 85 99 104 63 105 103 59 128 124 78 123 118 72 127 122 78 125 122 74 129 132 85 137 143 94 140 146 92 145 152 97 141 151 91 122 135 78 102 120 57 102 118 61 98 112 60 73 91 34 63 83 31 61 80 29 58 77 30 59 77 36 70 85 49 113 124 80 104 115 68 79 87 43 72 75 31 
91 105 85 117 128 103 69 82 56 46 51 26 45 47 26 41 44 22 37 40 19 36 38 17 38 40 18 44 46 27 62 68 46 107 115 89 116 126 92 98 112 67 96 109 64 116 125 91 70 80 53 46 53 23 43 48 24 37 41 16 38 41 18 37 41 18 38 43 21 43 47 23 47 51 28 68 70 41 76 82 43 101 111 71 106 118 71 101 115 58 116 128 86 83 99 59 114 127 73 169 182 128 162 178 118 103 126 56 108 129 68 120 139 85 126 140 94 82 91 59 58 62 32 49 55 24 48 55 25 63 73 44 83 93 59 55 70 36 96 107 61 105 115 65 100 111 63 125 133 81 118 125 74 106 111 58 120 125 77 129 134 85 167 171 131 149 152 108 107 116 64 136 148 86 130 143 89 118 132 64 116 131 59 109 126 56 144 163 97 178 195 120 149 175 77 175 199 117 179 204 119 162 190 94 179 205 113 195 221 127 193 219 125 190 214 125 169 188 100 163 179 105 133 144 81 100 104 56 109 108 58 124 119 70 131 128 85 132 127 84 123 120 67 133 134 87 156 162 115 134 142 80 155 165 103 179 188 136 144 155 99 124 138 85 105 121 64 83 102 52 65 86 55 62 82 32 60 81 31 59 79 31 60 79 40 100 116 65 158 170 121 133 143 91 100 107 58 75 79 45 
60 79 38 60 74 42 52 65 50 59 69 49 46 52 31 39 42 14 36 39 18 37 39 18 37 39 18 41 44 24 48 54 28 64 73 47 83 94 59 96 106 69 105 115 77 102 111 75 60 71 40 47 54 24 46 50 30 38 42 10 40 44 20 41 48 32 67 75 54 76 84 49 75 82 41 100 105 73 94 101 65 107 118 79 132 144 104 112 125 76 99 114 70 65 85 60 133 143 99 184 195 148 147 163 109 111 132 66 152 170 118 172 190 136 157 169 121 87 95 57 67 72 38 60 65 34 61 68 40 97 105 76 64 75 45 71 83 61 120 127 86 91 105 63 112 124 67 133 144 94 122 128 82 110 113 64 128 133 88 140 143 97 157 160 121 112 116 72 90 101 58 91 103 51 87 102 53 94 110 49 117 133 67 139 156 85 165 181 112 174 193 117 170 190 111 178 199 123 158 180 93 161 181 93 173 193 109 195 216 130 183 202 118 162 179 98 122 138 77 103 117 73 103 113 61 122 125 73 127 124 79 120 115 59 135 132 89 133 130 86 126 122 70 121 122 69 142 148 101 144 151 92 178 186 131 181 188 138 124 136 82 103 120 71 113 129 77 99 115 63 68 89 34 62 83 32 59 81 31 63 84 35 81 100 54 146 161 104 167 177 119 142 147 97 115 118 78 74 77 47 
68 87 46 57 76 58 99 113 79 137 145 115 79 85 63 39 43 8 38 41 19 37 40 19 37 40 16 41 44 22 46 53 26 43 54 21 57 71 36 69 83 33 84 96 55 70 83 43 52 64 31 41 49 6 44 49 26 44 49 30 41 47 20 61 73 47 140 150 117 122 135 92 97 107 62 93 101 64 91 99 58 107 119 78 156 167 133 138 151 105 128 141 95 88 103 67 115 127 80 125 136 89 99 114 75 76 97 51 125 144 89 166 182 131 139 153 99 78 89 55 70 82 48 104 116 74 120 131 86 97 108 68 53 65 55 101 109 80 115 124 77 140 149 103 150 158 112 115 126 75 84 94 55 84 91 58 128 130 86 160 160 124 116 119 74 125 127 87 125 128 86 94 99 43 92 99 43 93 104 44 114 130 65 153 168 104 171 188 122 173 191 120 172 191 119 161 178 101 155 169 95 167 180 112 166 181 104 190 205 131 148 163 84 125 141 68 102 117 59 89 105 65 120 130 75 121 121 61 118 116 58 131 127 79 141 137 97 144 141 102 135 131 87 102 103 50 120 125 72 148 153 105 161 165 117 138 144 92 93 105 55 74 89 50 112 124 76 110 123 79 71 91 40 65 87 36 65 87 36 74 94 42 108 125 72 163 177 118 156 164 107 108 113 63 82 85 41 64 67 40 
67 87 42 96 113 71 148 162 121 147 157 118 67 74 53 42 45 17 40 43 21 38 42 19 37 41 16 42 46 17 51 59 27 55 67 31 79 92 51 69 84 41 54 72 43 50 65 30 50 62 27 41 49 10 43 47 18 51 56 36 43 50 24 87 96 69 132 144 106 143 156 112 110 119 79 68 80 43 76 86 50 112 124 86 135 151 112 125 142 97 103 119 69 115 127 84 109 122 79 57 70 48 59 69 35 58 73 31 72 90 46 110 127 72 121 136 76 91 105 60 142 155 102 181 193 144 182 194 145 139 151 104 79 91 49 100 113 67 107 115 64 159 166 126 120 127 77 79 91 50 78 86 39 119 122 82 162 162 129 131 131 89 109 108 54 138 137 103 155 153 124 112 110 65 99 98 53 97 101 50 116 131 72 153 167 108 157 172 106 149 164 97 146 162 92 156 169 107 177 186 132 170 180 124 151 164 92 166 178 106 169 180 108 135 150 72 97 114 60 147 158 97 183 188 135 147 148 91 134 133 80 135 132 87 130 126 82 141 138 98 127 125 82 92 92 43 104 104 48 123 122 65 114 113 55 96 98 54 79 85 39 69 77 34 77 88 55 82 100 45 82 100 42 77 98 47 92 110 61 92 110 54 136 151 96 165 175 120 133 139 86 86 89 54 75 77 38 72 73 41 
64 86 43 135 148 109 155 168 125 98 112 71 44 56 41 45 50 25 42 46 22 40 44 20 39 43 14 47 55 22 68 78 39 78 91 51 97 110 65 102 116 70 86 101 57 70 88 54 69 81 46 51 61 32 50 56 32 52 57 30 47 54 23 65 75 44 77 89 47 101 111 73 76 87 53 47 60 27 59 74 34 102 114 77 109 124 85 92 108 67 72 91 42 93 108 66 89 103 68 48 58 36 53 62 30 57 69 30 55 75 49 89 110 63 139 155 94 120 138 60 180 191 137 193 206 147 189 204 145 169 181 129 112 124 63 99 113 65 91 104 69 115 123 77 91 97 51 74 84 35 101 106 70 162 163 133 122 123 87 102 103 53 139 139 108 142 139 108 133 129 93 112 107 65 95 90 52 85 85 43 104 113 64 137 147 92 149 158 103 129 138 74 125 134 69 153 160 109 175 181 135 145 153 97 119 133 83 173 184 117 175 184 119 145 157 81 145 157 89 211 220 159 199 203 146 138 139 81 122 120 71 133 131 89 133 127 88 120 115 72 102 98 51 92 91 43 108 107 56 157 155 112 165 163 118 119 119 71 79 82 42 68 72 31 66 77 56 119 134 84 130 147 92 117 137 74 122 139 85 113 132 71 159 169 117 162 168 120 93 97 51 79 80 39 83 83 48 76 75 43 
69 88 47 136 146 111 120 133 85 78 99 60 71 87 49 59 72 55 50 59 40 41 49 30 40 47 8 51 61 27 79 89 50 113 123 81 117 130 86 129 144 101 127 143 96 125 141 97 84 102 58 77 93 49 89 102 69 64 76 50 43 53 33 43 53 6 44 56 11 47 59 18 41 56 0 50 66 30 59 76 34 69 86 38 71 89 44 58 77 37 62 80 37 76 91 50 68 83 53 52 68 52 65 81 63 64 83 43 97 117 67 152 170 117 174 190 134 150 168 93 182 194 132 187 201 139 187 201 144 158 174 113 129 147 81 121 135 71 119 127 73 96 103 63 93 99 49 92 96 55 147 148 114 122 123 85 83 85 47 81 84 39 112 113 78 126 124 88 121 118 79 106 101 63 86 80 39 74 69 38 72 71 41 104 107 68 129 130 92 103 104 49 120 120 70 159 159 116 164 164 117 135 141 88 184 191 135 175 185 123 134 146 81 161 171 108 193 200 143 197 205 150 141 146 91 88 91 66 86 84 47 127 123 87 129 122 88 104 97 51 93 89 42 111 107 68 134 131 92 155 152 107 194 190 150 146 144 103 87 85 40 72 73 33 82 91 46 155 167 118 149 167 105 125 145 73 117 137 64 121 137 68 138 147 91 132 136 89 78 76 47 71 70 37 68 66 33 68 65 31 
56 72 31 81 94 50 96 110 66 127 142 99 135 151 104 126 142 96 105 117 78 58 68 48 42 50 8 51 61 27 79 89 52 105 114 74 84 102 45 105 126 64 132 152 92 135 157 99 90 120 73 134 155 102 163 181 136 137 151 110 64 75 49 49 60 28 43 54 18 40 52 10 46 61 24 66 82 39 85 99 58 67 85 43 69 87 38 61 79 37 57 74 31 64 81 40 59 77 44 109 126 90 130 147 106 77 102 68 130 147 98 171 191 138 181 198 141 169 184 118 187 198 142 159 177 106 157 175 104 146 165 89 131 151 77 130 144 80 131 138 84 110 113 58 112 111 63 142 141 104 140 140 107 82 85 47 76 80 34 80 83 40 119 119 86 134 131 97 127 124 86 110 103 59 101 94 57 82 77 36 82 77 40 76 73 38 84 82 39 103 101 63 149 147 111 182 180 146 168 168 123 172 174 124 179 184 133 129 138 76 108 122 74 147 156 101 120 130 70 104 112 54 79 84 52 72 74 34 88 84 44 121 116 82 121 115 83 102 94 53 100 94 49 127 121 85 133 127 88 129 124 76 151 146 108 111 105 59 91 85 45 81 77 37 96 101 68 159 171 120 145 162 91 157 171 108 159 173 108 158 168 109 127 136 76 93 93 52 70 66 32 58 55 22 54 50 20 77 71 42 
53 65 23 59 72 31 66 85 44 113 132 83 136 155 103 131 149 94 109 123 71 63 75 53 47 56 32 46 54 18 54 66 27 59 73 46 97 114 74 158 174 125 162 184 122 161 181 121 139 163 94 162 182 122 172 192 135 170 185 138 104 115 81 53 64 42 50 63 25 49 63 25 54 69 29 71 88 45 105 118 83 91 104 65 74 92 49 55 73 35 53 69 30 53 71 30 60 81 47 135 149 112 158 173 134 131 150 100 126 143 89 140 157 106 156 171 120 124 143 83 134 150 90 149 166 90 155 174 96 155 173 101 144 162 91 129 141 74 133 138 81 134 133 88 131 129 83 171 170 142 101 101 65 78 83 39 100 104 64 82 84 42 109 109 73 139 138 107 147 143 106 141 135 100 121 115 82 94 88 48 83 79 44 71 66 32 76 73 41 99 96 62 149 147 116 157 155 120 141 141 95 131 133 85 108 110 60 88 94 51 89 96 46 97 106 55 87 96 49 81 87 44 71 75 43 72 75 43 100 97 64 114 108 75 115 106 71 102 93 56 129 121 87 151 144 114 129 121 85 117 108 67 118 110 75 95 85 47 93 84 47 99 91 52 112 115 81 152 163 112 160 174 109 174 188 122 174 185 120 181 188 133 157 163 115 97 95 53 73 68 37 57 51 22 53 47 26 83 76 59 
45 57 34 56 70 32 65 85 45 119 139 89 137 158 104 133 151 99 115 130 76 100 111 63 86 94 53 70 79 45 55 66 37 52 67 34 84 102 62 152 168 120 164 183 120 170 188 127 157 177 110 166 184 123 158 175 117 143 156 109 105 115 77 53 64 36 60 73 33 62 75 35 60 75 32 71 87 43 94 110 68 119 134 92 115 128 90 56 73 47 51 68 28 56 74 33 78 98 46 112 130 84 124 140 93 137 151 108 97 116 67 83 107 62 96 115 59 90 107 60 113 129 64 168 181 117 184 198 132 169 185 113 180 193 131 163 171 116 147 146 99 139 135 92 167 165 134 155 152 118 91 92 42 100 102 64 99 104 64 75 80 33 75 79 34 105 104 63 160 156 121 144 139 103 121 115 82 100 92 59 72 65 33 67 64 32 67 65 32 83 81 47 126 123 95 116 114 77 94 94 48 83 85 44 83 85 43 82 87 44 76 83 40 75 81 33 78 86 42 67 78 38 68 75 76 81 84 50 108 104 67 116 111 76 116 107 75 89 79 41 138 131 103 148 141 114 114 105 73 98 88 51 108 99 69 91 79 46 101 90 53 104 93 53 92 90 60 118 121 75 146 154 90 170 181 113 185 192 130 158 164 106 127 131 84 98 93 52 94 89 65 70 65 43 54 47 26 80 71 58 
68 76 39 65 78 38 87 107 61 136 158 111 145 170 116 151 171 118 141 158 105 151 160 117 127 138 92 82 94 50 61 77 34 64 82 39 64 85 47 102 122 70 149 163 109 152 167 109 142 160 97 144 161 103 126 141 85 83 98 56 70 81 38 61 72 38 66 77 44 76 86 51 70 82 43 67 82 40 101 117 75 138 152 115 94 111 65 54 72 49 51 69 30 64 83 38 107 124 75 122 141 86 119 137 78 87 108 45 85 108 57 123 140 84 94 112 60 101 113 55 127 140 80 180 191 133 190 203 138 178 193 126 189 199 146 163 167 119 133 129 74 158 155 119 172 170 141 137 135 94 108 108 62 84 87 38 77 82 37 82 89 45 118 125 77 153 155 108 166 161 125 116 107 61 112 104 69 94 87 53 67 59 36 63 59 28 65 64 32 77 75 43 84 83 48 83 83 46 78 79 40 75 78 40 77 81 45 76 82 43 70 79 34 69 79 44 82 97 64 115 133 78 131 147 87 115 125 71 115 114 69 121 116 79 119 112 84 86 74 62 123 115 90 117 109 82 81 70 33 81 70 39 101 91 57 102 87 53 158 148 121 129 117 82 101 91 49 129 121 77 149 146 96 168 171 113 182 184 131 124 123 79 78 75 44 75 70 36 84 79 55 74 68 46 54 46 22 78 69 56 
75 82 41 68 81 38 120 136 98 147 170 123 147 173 118 147 169 115 126 147 85 141 155 107 115 135 75 110 130 75 99 121 68 72 95 52 59 83 34 61 85 43 96 113 61 110 127 70 104 122 64 97 113 53 81 93 50 72 84 36 68 79 36 63 71 35 56 65 43 82 91 57 70 82 43 57 72 47 95 110 68 120 134 90 91 105 58 60 78 39 52 72 31 79 96 52 127 143 97 155 168 118 146 157 110 87 104 47 104 120 66 130 142 93 86 102 56 102 111 53 129 138 85 153 161 106 147 157 92 144 155 89 136 144 78 134 134 77 139 131 81 175 169 139 144 140 101 120 117 70 114 114 73 88 91 45 79 83 38 106 113 71 161 168 122 166 169 122 130 125 82 129 121 86 123 114 85 99 90 60 77 70 40 66 62 30 67 65 33 75 74 44 71 72 39 71 72 38 69 70 34 69 71 37 72 76 42 70 78 39 71 84 59 107 128 70 140 170 94 163 190 116 165 192 116 165 182 115 130 135 81 118 113 73 119 112 84 85 75 38 102 94 67 96 87 60 79 68 37 80 70 42 100 89 56 130 119 88 147 137 107 124 111 71 137 127 94 163 155 126 152 144 106 135 131 86 154 150 111 97 89 49 76 69 36 65 58 27 60 53 22 55 48 21 55 47 24 79 68 43 
65 72 33 60 71 33 93 109 70 128 146 107 141 164 113 117 144 85 104 132 65 118 144 79 138 164 106 154 176 123 137 163 106 104 129 73 59 85 49 56 80 32 63 88 42 84 105 45 81 102 42 76 96 38 64 77 34 66 78 33 63 75 34 58 66 28 61 67 33 77 84 51 67 76 40 58 72 42 98 111 69 118 128 87 105 116 76 65 80 50 59 77 39 92 106 64 134 144 103 161 166 127 153 157 121 91 99 61 79 89 39 87 99 45 79 89 42 93 99 46 124 126 76 125 129 73 104 115 63 147 152 103 140 141 88 153 149 105 167 161 125 154 148 115 129 124 84 122 120 79 134 133 96 118 118 80 101 103 61 107 112 64 152 156 113 141 141 98 100 92 70 144 135 111 123 113 86 95 86 53 87 80 48 81 76 41 70 67 30 71 70 37 68 69 36 69 70 36 65 67 32 63 67 31 64 68 32 66 76 42 123 141 87 162 187 116 170 198 118 172 202 119 169 197 111 173 193 118 137 145 91 102 98 70 116 110 81 84 73 63 112 104 80 108 101 79 84 75 47 75 65 37 96 85 59 141 133 107 129 117 83 125 112 72 144 133 103 145 136 106 130 122 88 91 81 51 125 117 87 97 89 58 74 65 33 65 58 29 57 50 26 53 46 22 60 53 29 94 86 61 
51 57 20 45 54 21 63 78 41 96 116 70 87 116 61 70 102 55 83 115 59 124 153 89 138 169 106 143 172 109 129 162 97 119 147 88 69 95 49 56 82 39 63 87 47 97 116 64 80 102 51 95 110 65 61 73 43 61 72 31 57 66 27 54 62 23 59 67 31 59 68 30 53 65 37 61 77 42 100 113 68 118 128 85 106 115 75 81 90 49 79 88 49 97 104 65 113 117 79 127 129 97 97 98 70 69 72 39 67 71 38 86 92 55 90 97 53 92 97 49 117 121 71 144 148 97 106 118 68 129 135 80 146 145 99 160 155 118 151 144 109 115 108 72 98 92 55 100 97 54 129 127 97 111 109 75 113 113 83 91 92 48 135 134 101 124 120 83 105 99 69 124 116 91 98 87 53 86 76 42 96 89 44 100 94 51 81 77 37 71 71 35 69 70 37 70 70 38 66 69 34 63 66 31 62 67 30 72 83 46 149 166 111 173 198 123 173 201 113 177 205 118 182 206 124 187 201 129 150 157 104 83 80 76 102 95 63 90 80 60 113 106 82 90 82 56 73 63 34 75 66 38 84 74 39 120 108 74 130 117 82 139 127 96 139 130 99 113 101 63 114 104 75 74 63 45 108 102 83 110 105 84 74 65 38 71 63 36 68 62 38 54 46 18 72 64 43 121 114 94 
43 47 18 41 50 18 63 80 43 76 104 48 99 128 75 80 116 62 91 126 64 124 157 90 129 163 96 129 162 95 124 159 90 130 159 99 83 107 65 66 91 38 84 106 59 144 158 116 115 131 81 108 122 83 55 64 48 55 61 23 53 60 20 62 69 37 56 66 28 54 66 32 56 72 46 92 107 64 121 134 89 112 125 76 92 102 56 68 75 45 79 84 49 79 84 48 77 81 44 69 70 42 56 59 31 51 55 24 54 59 29 89 93 70 100 105 74 98 104 58 152 160 109 187 194 146 142 153 94 119 124 61 135 133 89 118 113 70 113 108 76 83 77 43 76 71 38 101 97 67 91 86 64 82 79 41 78 75 39 84 80 42 111 108 76 123 118 87 113 105 75 100 91 59 83 71 43 96 88 54 135 130 94 136 130 91 91 87 47 74 73 38 69 70 37 67 68 33 67 69 34 65 69 34 65 70 34 71 82 42 113 131 79 155 178 108 174 197 116 181 202 122 177 196 120 175 186 121 134 141 82 95 94 62 96 90 55 99 93 62 115 109 87 79 70 53 68 60 32 79 70 42 101 92 59 133 123 94 135 123 91 150 140 112 140 129 99 123 111 80 94 82 51 68 58 34 78 70 47 84 77 52 82 74 46 79 70 40 86 80 58 59 50 27 71 63 39 108 100 72 
46 48 20 55 62 30 89 102 69 110 133 85 148 173 125 144 171 117 142 170 115 132 165 100 126 161 92 123 158 87 123 159 89 135 163 105 97 119 70 90 111 54 111 128 77 150 162 122 117 130 84 85 95 56 50 57 30 52 57 22 57 63 30 71 77 47 57 68 34 59 73 42 88 105 58 134 149 99 125 141 88 103 118 61 102 112 71 52 63 24 62 69 31 74 80 50 61 67 34 58 62 26 67 72 46 59 64 37 53 58 30 74 79 53 90 94 62 120 127 81 184 193 144 181 193 134 156 166 109 135 139 89 134 133 97 114 110 78 97 92 63 72 66 36 68 64 36 119 115 91 115 111 83 83 80 46 90 84 57 110 104 77 119 113 85 144 138 115 120 111 83 81 71 39 81 71 41 84 75 40 116 109 76 121 117 83 90 87 50 76 75 41 69 70 37 65 65 31 66 69 33 66 72 35 90 99 60 96 109 64 73 98 53 111 133 52 149 166 89 172 185 118 153 167 99 133 146 76 138 147 92 116 120 69 80 82 40 80 76 47 97 92 67 72 66 41 74 67 36 99 92 63 132 126 101 149 141 116 142 132 102 156 147 123 136 124 95 140 131 111 85 73 42 68 58 29 66 57 27 71 62 31 101 94 70 101 94 69 100 92 69 68 60 38 56 50 32 86 85 57 
54 54 29 64 69 42 76 89 53 125 146 103 152 179 129 152 180 125 151 178 123 131 164 99 124 160 90 124 159 89 128 162 95 139 164 109 110 128 76 102 119 64 118 133 85 116 131 84 78 92 54 68 75 37 50 57 14 54 60 27 50 56 20 55 62 28 61 70 33 84 97 53 125 141 91 141 157 101 114 129 76 107 119 73 110 118 82 63 71 29 64 71 35 59 66 30 50 58 21 50 56 18 57 63 30 64 69 41 64 70 41 66 71 41 80 85 47 121 132 79 168 183 124 176 189 132 165 174 121 143 147 103 109 109 70 94 91 58 78 75 44 63 61 34 57 55 44 128 126 105 123 120 94 101 97 65 127 122 100 110 104 77 131 126 103 146 142 120 99 89 58 74 66 31 81 73 47 78 70 39 81 75 39 79 74 38 80 79 43 75 76 43 72 74 40 68 72 36 69 76 38 71 85 52 132 146 97 131 145 92 134 150 97 135 152 90 116 134 55 125 141 76 115 133 70 130 146 82 147 158 106 118 127 78 82 90 44 71 73 38 73 69 36 67 64 40 104 100 75 112 107 80 121 115 85 136 128 99 159 152 128 140 130 104 114 101 71 107 97 69 82 72 41 75 67 37 69 61 33 72 64 38 110 104 82 131 125 106 94 83 56 68 60 35 54 50 26 78 82 53 
57 56 34 52 57 27 55 70 34 111 133 87 151 176 128 154 179 128 141 166 112 109 140 75 103 136 66 129 157 98 138 165 109 135 156 106 94 111 62 95 111 57 100 117 63 87 105 50 69 84 35 60 70 32 53 61 22 62 67 34 49 55 20 48 54 14 67 75 39 89 99 53 122 133 84 109 122 75 73 87 52 61 72 28 55 66 27 63 71 33 63 70 33 50 60 19 47 57 18 47 56 20 49 59 21 56 63 28 59 66 34 60 66 33 80 88 43 144 155 106 174 188 130 164 175 118 147 155 104 130 132 92 81 81 46 69 68 37 64 62 32 58 56 29 59 57 32 87 84 56 97 93 64 91 86 50 145 142 124 138 133 112 139 134 113 129 124 99 108 101 70 77 70 41 75 69 41 74 70 40 74 70 40 71 69 35 76 78 46 82 88 57 87 95 54 82 93 48 80 97 45 111 132 68 188 202 148 153 169 104 116 137 70 119 138 74 99 122 52 87 113 62 102 126 74 124 141 70 116 130 64 109 121 61 81 91 42 76 81 36 74 75 36 91 88 58 111 108 83 89 83 52 103 96 61 151 143 117 154 146 121 116 104 75 92 83 53 80 72 42 76 68 39 68 61 30 66 60 30 71 63 38 106 100 76 135 129 111 90 77 45 71 63 35 56 55 22 72 78 49 
64 61 43 46 46 11 63 74 41 93 113 67 134 150 111 144 159 120 97 115 70 82 102 61 67 93 55 92 113 61 128 144 104 90 109 72 59 77 36 74 95 43 99 118 63 109 125 72 78 97 46 70 86 41 69 81 39 61 71 38 50 57 23 56 62 30 71 78 43 96 104 69 101 110 67 86 96 49 73 81 54 55 64 34 54 65 24 82 89 57 67 74 44 49 58 22 47 57 18 47 57 21 50 60 25 54 63 27 58 66 32 62 71 33 87 98 50 140 150 101 159 170 115 135 143 89 114 118 67 93 97 52 77 79 46 81 83 47 70 72 43 57 57 30 58 56 29 86 83 57 109 106 80 123 119 96 150 147 128 134 128 106 121 115 87 136 131 108 156 152 133 84 78 50 72 68 39 73 69 39 75 72 43 96 101 68 172 183 146 184 196 158 169 182 141 135 152 98 122 147 78 151 180 106 202 221 150 176 195 120 113 139 70 101 128 60 95 126 68 129 155 76 162 182 111 151 169 98 112 130 63 102 117 50 89 102 47 87 96 43 97 100 61 97 97 63 92 88 53 91 86 44 121 115 80 158 152 126 143 135 108 100 89 54 78 70 38 79 72 49 71 64 36 61 55 20 61 56 23 68 62 30 86 79 48 130 124 102 100 91 63 81 77 39 75 77 36 89 95 47 
65 63 49 46 45 16 64 70 44 86 95 63 87 97 60 81 89 59 53 63 46 53 62 29 53 64 30 62 73 33 74 84 50 50 61 35 50 65 28 103 120 68 134 151 94 126 145 84 103 124 58 102 124 58 113 133 76 97 115 58 73 87 52 62 72 35 68 76 34 78 88 56 76 86 40 97 104 64 110 116 83 69 74 43 68 76 38 102 108 77 92 100 67 57 67 36 51 60 26 51 62 26 53 62 26 56 63 27 64 71 34 82 92 53 107 120 73 131 142 90 140 148 99 99 108 61 99 103 56 85 89 43 89 91 52 114 115 82 103 104 72 71 69 35 59 57 29 78 74 52 115 112 88 131 129 108 142 138 119 133 128 104 137 132 109 146 141 120 177 173 158 91 86 61 72 69 39 71 67 35 73 71 43 163 171 140 227 236 203 207 217 176 180 193 146 157 174 118 144 167 102 162 190 111 207 227 151 201 222 139 171 197 111 146 177 86 146 179 81 172 200 113 184 209 127 163 190 106 133 156 81 106 128 57 108 124 60 116 127 74 105 112 64 90 96 47 103 105 58 126 128 87 151 147 113 155 148 117 125 117 83 98 89 56 75 66 36 77 72 49 67 62 32 65 61 28 72 68 37 70 64 36 83 77 44 129 122 93 105 100 68 89 94 41 89 97 46 91 100 52 
55 52 38 42 41 14 59 61 39 70 73 51 50 54 25 47 49 25 46 48 24 49 51 29 46 49 21 49 51 22 48 50 20 53 55 27 63 74 47 118 133 83 153 169 110 137 157 92 124 147 81 125 148 81 130 151 84 131 151 85 121 139 78 85 100 52 61 75 48 75 91 47 88 102 47 100 113 55 104 112 67 68 76 36 73 82 41 87 93 58 81 89 53 83 90 60 69 79 45 57 66 30 53 62 27 60 67 34 77 83 52 99 109 69 121 132 87 125 137 87 114 125 73 101 110 59 104 108 69 81 85 42 81 86 43 92 95 54 96 99 59 92 91 58 74 70 39 79 75 44 99 94 66 99 94 62 137 133 111 156 153 133 153 148 128 127 123 96 125 121 97 86 82 55 81 76 49 71 68 37 73 76 44 185 194 157 205 215 175 176 189 141 154 171 116 151 169 111 147 168 102 174 197 125 211 227 155 195 216 132 201 222 141 188 214 130 173 204 113 177 207 115 179 208 115 166 197 106 132 164 75 123 150 77 157 176 112 139 155 88 115 132 62 104 122 54 122 136 71 157 167 118 158 159 115 149 142 106 112 106 70 87 81 46 73 68 37 69 65 38 63 59 28 69 65 35 74 70 37 79 75 44 103 96 61 120 114 72 127 133 69 155 166 104 158 168 109 129 138 77 
45 43 30 39 38 18 46 46 29 46 47 28 39 40 10 41 42 20 40 40 18 41 41 20 40 41 20 41 42 20 45 45 20 69 69 45 92 98 62 129 141 96 146 160 106 120 141 71 106 133 56 103 131 53 113 138 64 125 148 72 130 152 82 105 129 69 71 97 58 110 131 65 123 142 73 122 141 74 108 123 60 91 99 49 72 80 35 63 70 40 52 61 47 94 101 74 86 94 63 62 71 34 54 63 28 53 61 27 67 73 41 91 100 61 108 120 76 104 117 67 94 108 54 98 106 59 91 96 53 72 79 33 71 78 33 83 87 44 91 94 52 91 92 57 75 73 38 75 72 35 89 86 52 84 80 53 110 106 77 152 149 131 147 144 122 127 124 99 91 87 55 76 73 40 79 78 45 73 73 41 73 81 45 172 185 144 181 194 150 147 163 112 114 136 71 109 133 65 132 155 86 188 209 141 188 207 128 139 168 84 173 197 112 176 203 116 173 205 112 174 205 111 174 206 109 173 203 112 146 179 94 148 177 99 167 191 124 139 166 82 123 153 66 147 172 96 165 185 118 156 176 108 135 147 78 124 122 72 99 94 56 76 71 42 75 72 38 67 65 31 63 63 31 68 68 30 74 72 34 104 102 69 122 119 76 134 139 77 162 176 104 172 191 111 177 194 119 149 166 94 
43 40 27 40 39 23 38 37 18 38 36 14 41 40 20 47 45 29 40 39 18 38 39 18 40 39 19 40 40 19 43 43 18 69 69 46 88 93 57 91 103 59 116 131 79 119 142 78 94 124 80 88 120 74 139 161 94 176 194 131 180 199 136 160 182 116 127 153 79 144 166 92 142 164 87 134 157 81 124 139 72 122 127 82 70 78 40 64 72 38 48 57 32 68 74 49 80 86 58 67 74 41 54 61 30 46 53 22 52 58 24 69 76 37 81 92 47 84 97 48 87 100 53 89 101 56 81 88 43 71 80 38 66 76 33 73 82 39 92 100 59 87 94 49 77 85 39 107 113 73 136 141 101 130 133 89 97 99 56 117 115 86 115 111 83 104 101 71 81 79 46 70 71 35 70 73 34 72 79 41 85 100 52 165 180 132 159 174 126 116 136 81 99 125 54 108 133 65 147 168 99 205 221 155 207 223 153 143 169 81 144 174 88 165 197 105 168 201 106 168 201 104 170 202 104 162 194 104 142 176 89 131 165 73 138 170 84 145 175 93 140 172 87 147 176 97 154 181 104 148 174 96 141 163 93 105 117 76 72 73 52 85 85 56 101 102 70 84 87 47 81 85 42 87 91 50 76 79 34 100 101 59 138 141 85 148 166 92 160 184 100 163 187 100 163 188 101 157 179 103 
42 40 26 42 40 26 40 37 20 40 37 18 52 49 36 58 56 43 48 46 29 39 38 19 39 39 19 39 39 19 42 42 18 58 58 36 65 71 39 65 74 36 84 100 55 141 160 108 143 169 101 144 171 102 163 188 119 186 206 139 178 197 127 174 192 127 136 161 89 138 161 81 149 170 96 141 163 90 141 155 96 130 135 87 69 76 40 59 66 30 43 51 18 46 52 18 67 71 46 63 68 40 46 50 21 47 49 26 53 55 28 63 65 34 69 76 36 79 89 48 85 95 57 81 90 48 80 88 46 73 83 41 60 73 32 63 76 33 91 101 59 109 118 75 108 117 71 109 119 69 151 160 108 180 187 135 141 147 99 82 85 39 70 72 31 71 73 33 68 72 32 70 79 32 93 106 59 101 120 64 119 140 78 167 183 127 153 169 113 122 144 77 137 158 93 141 161 101 164 186 117 192 207 149 147 167 99 96 125 82 121 155 78 162 193 104 168 201 110 168 201 103 165 199 103 138 176 81 151 185 106 149 180 102 144 175 94 142 172 89 144 174 92 141 172 92 130 163 76 135 165 85 138 166 89 120 141 74 91 102 44 104 112 66 99 107 65 92 102 47 94 106 55 104 115 71 78 88 38 109 116 69 140 153 86 148 174 89 152 182 93 153 182 90 158 187 100 151 175 100 
45 43 30 48 45 32 45 43 27 44 41 22 60 57 42 81 76 61 76 72 60 43 41 24 39 38 18 39 39 20 41 42 20 48 50 25 57 62 32 63 69 32 71 84 49 148 165 116 170 196 133 168 197 125 176 204 132 187 210 142 152 177 94 143 166 83 145 169 93 172 191 127 170 188 122 155 173 108 147 160 103 127 135 83 76 86 53 49 56 41 43 47 17 41 44 12 53 54 31 48 50 21 44 45 14 49 50 23 66 65 43 72 72 48 61 63 29 59 67 32 58 68 31 56 67 35 74 83 46 77 87 46 62 75 33 63 76 31 76 89 42 93 104 57 97 108 60 85 98 49 114 128 68 167 175 120 143 152 101 73 84 53 70 82 42 78 91 50 77 91 39 79 97 44 94 119 56 131 157 92 151 175 109 163 183 121 165 184 123 121 143 73 115 139 76 122 145 81 150 175 101 178 196 141 138 160 101 120 149 71 143 175 92 166 198 112 165 199 110 164 197 106 153 188 97 126 166 76 153 186 110 150 181 107 113 153 69 147 179 94 163 190 115 132 164 80 123 158 68 131 163 78 138 168 89 131 154 80 110 128 59 113 130 68 114 131 69 103 121 55 109 128 68 105 125 61 84 106 58 102 120 50 143 165 90 149 180 92 147 180 89 148 181 91 154 185 99 143 172 87 
54 51 41 57 55 43 55 52 37 53 48 32 82 74 56 122 116 104 96 91 78 48 43 23 40 40 19 39 40 20 41 41 20 41 43 18 48 51 16 62 64 35 69 81 44 119 141 82 157 186 118 162 193 117 170 200 125 178 205 131 143 170 98 163 185 115 200 216 160 209 223 169 180 194 134 150 168 103 137 152 90 130 142 89 99 108 67 52 58 47 47 47 21 43 45 20 45 46 23 47 47 26 52 51 33 63 62 44 75 73 54 71 70 47 58 60 29 50 57 22 50 57 23 47 56 18 57 69 32 69 81 39 72 85 39 77 89 43 71 84 34 67 83 40 76 90 42 80 93 40 89 103 53 132 143 92 118 132 88 68 89 47 132 148 94 151 166 111 95 120 54 89 119 58 123 153 81 149 177 109 157 182 117 159 181 120 144 166 104 85 111 79 84 114 70 108 138 60 124 152 74 168 189 128 131 152 106 135 164 81 164 192 121 153 185 111 132 171 81 140 178 84 138 176 85 127 166 79 153 185 111 127 161 87 89 134 77 160 193 110 168 196 118 129 161 84 126 161 68 132 164 78 138 167 86 120 147 69 101 129 55 111 138 61 165 184 127 150 171 109 130 155 83 125 150 77 133 156 89 132 156 83 150 175 99 148 180 94 142 177 84 146 179 89 151 183 97 157 185 105 
59 58 48 65 63 52 68 64 52 87 79 61 127 121 105 135 128 111 90 84 67 49 46 27 42 41 21 40 40 19 41 41 20 41 42 18 46 48 12 64 66 32 74 85 42 94 123 63 148 180 109 165 197 122 174 205 130 172 201 125 150 175 92 168 187 122 209 222 170 214 225 178 151 163 111 116 131 70 130 143 90 136 146 99 125 133 98 75 79 52 52 53 30 48 47 26 46 45 24 46 45 22 48 45 19 62 60 38 72 69 49 70 68 45 62 63 35 58 63 33 63 70 38 55 64 35 69 79 42 72 84 38 95 107 63 108 118 76 75 88 39 65 81 33 76 90 41 84 98 50 69 87 37 86 104 59 108 127 63 126 147 81 173 191 129 184 201 139 109 141 67 130 161 89 153 181 113 155 183 115 153 179 115 138 165 100 97 127 59 81 113 87 134 161 96 149 171 109 140 164 96 159 181 118 121 137 116 103 138 72 124 157 85 101 141 68 111 155 77 139 177 88 150 182 110 112 146 79 123 156 84 99 137 77 118 158 71 170 201 122 181 210 129 184 207 130 153 181 95 134 164 79 130 161 77 130 159 78 153 177 103 125 154 78 145 170 89 156 178 109 135 161 77 148 171 100 165 186 119 135 163 80 140 169 83 143 176 88 139 176 82 141 176 85 146 180 94 146 177 94 
58 56 45 63 60 47 68 63 44 118 111 96 137 130 111 120 111 90 78 70 47 50 47 26 45 44 23 43 43 21 42 43 21 43 44 20 50 51 19 69 70 35 80 91 47 118 141 85 167 195 129 169 200 128 170 201 129 168 198 123 141 164 94 114 134 70 165 176 129 174 182 139 107 118 68 96 107 54 90 105 53 104 113 70 97 102 70 63 65 37 49 49 23 43 43 18 51 50 31 61 59 39 67 65 46 75 72 53 71 67 45 62 59 31 72 73 40 99 101 75 100 104 76 76 84 36 88 98 58 81 96 49 126 140 92 143 152 107 70 83 56 63 77 34 66 82 40 77 91 43 68 87 47 116 135 78 158 177 117 170 189 122 165 184 113 150 173 99 150 177 103 155 184 116 153 183 113 152 181 114 149 177 109 128 158 85 112 143 74 98 133 58 149 174 111 160 181 120 137 161 91 152 176 108 126 135 105 81 115 85 100 138 56 111 150 69 134 171 83 141 176 93 134 166 97 89 119 64 82 111 50 97 134 60 151 184 105 170 199 121 188 214 136 213 233 159 202 223 151 139 169 82 123 153 83 158 185 105 187 210 140 187 207 138 150 173 100 121 149 76 138 163 84 170 191 124 175 196 128 149 177 92 146 176 88 139 174 82 138 175 81 141 176 86 143 179 90 133 167 81 
48 46 30 55 52 37 70 63 41 118 112 93 131 124 103 114 106 86 81 75 53 56 53 32 52 51 29 48 49 29 47 47 23 47 48 20 52 54 26 69 70 36 83 94 49 134 156 98 171 197 134 169 197 127 172 200 131 166 187 123 133 150 86 129 142 84 132 145 83 104 118 74 110 119 66 114 121 71 71 86 35 59 70 29 51 53 21 49 49 23 48 47 24 46 45 20 65 64 46 80 78 59 78 75 55 79 76 56 70 65 38 72 69 39 94 94 67 111 114 87 100 104 69 91 99 53 99 112 69 97 115 63 144 159 109 165 175 130 68 83 50 56 72 46 79 95 55 87 104 53 81 103 72 158 175 118 182 200 131 184 200 128 151 172 101 125 153 81 159 184 117 151 180 109 146 177 106 151 181 112 144 174 101 128 158 79 127 155 88 110 143 71 142 169 99 150 173 109 120 149 78 138 165 88 129 141 109 79 112 108 130 165 74 179 204 132 160 188 113 146 179 96 129 161 85 84 115 74 78 105 67 105 139 68 151 182 109 142 174 93 131 164 103 163 190 104 190 212 137 152 177 97 143 170 85 169 193 118 172 197 123 186 209 138 176 194 131 154 177 101 145 167 94 148 169 98 151 175 97 162 188 106 157 184 104 145 179 89 141 176 85 142 176 86 144 179 90 135 169 82 
47 45 30 54 51 34 72 66 44 123 116 99 116 110 85 98 91 64 74 68 36 67 70 40 79 88 53 100 109 71 82 89 50 60 66 35 54 58 31 61 66 41 90 103 54 139 161 100 170 194 129 173 196 128 165 184 123 142 155 97 120 133 71 131 144 89 145 158 104 138 151 93 133 143 86 107 119 65 94 108 53 73 83 41 49 51 19 53 53 31 52 52 30 51 50 27 66 64 46 80 78 59 80 77 57 77 74 50 81 77 49 92 89 55 92 93 55 96 100 64 91 97 57 88 99 53 86 105 56 95 116 55 124 141 86 131 143 97 77 93 43 79 96 46 115 130 87 126 141 94 144 162 106 203 216 163 202 216 150 180 196 126 109 135 73 92 125 67 138 167 92 146 175 107 145 176 102 144 175 103 144 175 99 153 178 111 128 157 84 123 151 86 114 144 77 105 139 71 127 155 82 151 177 100 139 163 104 99 130 125 175 202 121 212 233 152 187 211 132 165 193 115 153 182 109 129 159 82 133 161 89 99 135 49 104 141 60 122 158 81 157 188 99 161 191 96 172 198 106 170 195 111 157 182 94 162 187 105 158 183 104 157 184 108 161 182 111 155 175 101 131 147 75 124 143 75 146 172 92 192 215 142 160 188 105 146 179 86 142 176 86 139 173 84 130 167 76 137 171 82 
48 47 30 58 56 40 79 74 52 119 114 93 108 102 75 101 98 62 101 105 64 118 134 80 147 166 109 157 178 123 144 164 106 91 106 58 70 87 47 80 96 57 120 134 82 157 173 117 174 192 128 182 200 135 149 165 99 117 128 70 80 90 60 72 90 59 118 134 77 155 171 117 144 162 103 125 144 77 119 133 77 89 97 52 58 59 30 69 69 50 61 60 41 55 54 34 64 62 40 78 76 53 77 75 49 71 69 38 99 98 69 102 103 64 96 98 59 97 103 61 106 117 69 102 119 68 110 128 72 129 144 98 114 128 79 86 104 48 76 96 39 71 90 41 111 126 79 152 166 120 155 170 120 168 183 125 158 176 107 134 156 89 84 116 60 87 121 61 109 142 67 142 171 100 144 174 104 146 176 105 168 193 123 157 181 112 122 149 81 127 153 96 109 139 75 147 174 97 179 199 131 178 198 132 179 204 117 178 202 113 215 236 149 226 246 158 200 222 135 144 176 89 128 160 83 127 158 82 156 182 112 112 145 69 108 145 86 172 202 119 202 226 144 214 235 155 211 232 153 214 233 154 190 211 131 163 187 106 156 180 101 147 172 92 144 169 89 156 177 103 147 162 98 114 135 70 147 173 85 170 196 118 143 174 83 155 187 97 147 181 92 128 164 76 92 133 64 103 147 74 
50 51 30 62 62 43 87 85 64 120 118 97 113 109 84 121 120 87 144 150 102 168 182 127 169 190 124 162 188 117 166 190 122 143 169 97 135 160 89 151 170 106 153 165 108 157 169 116 157 169 111 180 190 138 136 149 86 104 113 58 72 82 45 75 95 52 123 143 89 157 176 121 157 176 119 142 160 98 122 134 80 88 94 52 75 75 51 78 79 59 67 65 45 63 61 40 75 74 49 112 113 87 101 102 73 72 73 33 100 100 70 108 108 72 90 94 49 100 111 61 133 147 94 139 157 97 133 149 94 105 122 68 78 100 47 85 104 47 87 105 49 77 96 41 89 107 64 104 120 72 91 116 68 143 162 101 113 138 73 107 134 58 140 165 97 122 149 83 95 129 63 142 170 100 152 180 111 159 185 113 169 194 121 166 189 124 137 159 107 123 147 92 109 138 70 167 191 113 189 205 140 176 196 134 180 210 121 205 227 138 206 227 136 220 238 155 200 221 135 163 191 106 145 174 95 116 151 75 141 171 93 130 164 87 170 199 112 197 222 135 204 228 141 194 217 128 184 205 135 216 234 163 208 225 155 158 181 104 174 194 128 146 170 91 121 149 68 138 160 89 152 172 97 147 168 92 168 190 110 161 188 103 161 191 101 178 207 125 162 191 109 109 148 70 80 120 71 129 168 82 
56 61 37 67 70 48 89 89 66 122 121 101 104 102 73 120 120 85 166 171 126 170 182 124 171 188 124 163 185 116 163 188 117 166 190 118 170 191 121 177 197 127 157 169 107 108 118 61 90 100 56 126 134 82 119 129 71 105 114 58 76 93 51 111 129 72 141 163 105 151 172 113 151 171 112 141 159 102 95 107 52 72 77 39 76 76 51 77 77 56 73 71 51 72 69 48 99 98 76 130 132 104 99 102 68 70 72 41 92 93 61 116 116 85 93 98 52 98 111 61 134 150 94 137 153 94 113 130 73 76 96 46 74 95 40 92 109 58 99 115 64 86 105 50 68 91 36 64 87 63 134 153 97 141 161 97 112 138 59 134 157 89 179 194 139 120 144 81 109 138 64 134 160 88 150 175 104 159 183 115 151 179 106 150 176 104 147 169 113 117 140 85 104 130 69 175 199 120 178 200 117 178 198 137 184 212 121 210 231 140 163 189 96 185 207 129 158 185 101 146 175 92 149 177 99 107 145 76 148 180 92 178 207 116 196 225 134 205 231 139 205 230 140 180 205 115 112 139 85 141 160 102 160 180 112 132 157 75 165 187 116 148 172 92 145 169 97 133 156 77 166 187 104 158 179 108 153 178 97 152 179 94 174 202 118 179 208 122 182 208 129 127 161 94 83 129 67 150 186 100 
54 64 34 59 67 37 71 73 45 107 106 84 97 95 69 123 122 92 167 167 124 167 174 118 164 178 118 159 180 111 160 185 113 170 193 121 177 198 126 180 197 129 146 158 101 65 75 49 77 83 41 102 110 66 133 140 96 120 130 80 115 128 73 141 158 99 147 170 107 146 168 106 153 174 117 133 150 97 66 73 58 59 62 30 73 73 47 71 70 44 73 71 50 78 75 56 97 96 77 108 108 83 72 75 36 64 67 30 86 88 56 103 105 70 99 105 61 105 117 68 116 131 80 114 132 76 86 105 53 59 81 44 60 82 40 73 92 40 83 101 48 81 100 42 66 88 55 119 134 88 170 185 136 153 172 111 101 127 64 118 140 80 136 154 92 128 148 89 117 140 78 107 133 69 103 132 63 119 147 73 104 136 65 143 171 107 143 165 112 108 130 65 102 128 63 169 194 108 154 182 93 196 214 147 207 229 131 212 232 145 138 167 108 127 158 77 124 156 83 109 144 71 113 147 66 126 160 86 176 206 118 196 224 129 200 227 128 213 239 144 210 236 139 212 235 144 129 154 92 83 105 99 103 127 63 108 133 63 145 166 97 147 172 93 146 171 91 182 205 123 201 218 153 128 151 90 151 178 97 154 181 94 168 194 113 181 207 126 192 216 142 156 186 105 126 163 85 158 191 109 
57 68 36 58 67 34 66 69 41 83 82 55 75 74 49 119 117 88 167 164 124 168 171 117 162 175 115 161 180 116 162 184 119 163 182 121 129 148 86 125 137 85 110 116 73 59 64 38 71 75 38 124 129 96 128 133 89 118 126 77 161 169 120 181 196 131 164 184 116 149 169 107 156 172 120 108 119 78 57 60 39 59 61 29 81 82 53 69 71 40 71 69 45 74 72 50 80 78 58 76 76 51 61 61 30 60 63 31 66 69 36 79 83 51 98 104 66 80 94 49 81 97 53 104 119 72 75 95 44 53 75 41 54 76 36 58 80 39 70 89 36 108 122 73 101 117 66 117 132 86 135 149 98 111 131 76 77 105 64 127 146 89 125 145 81 116 137 73 103 127 62 97 123 60 93 124 50 110 139 58 128 157 80 188 209 140 172 193 130 102 130 102 122 149 79 151 179 95 137 167 72 203 222 149 228 247 158 209 228 143 133 163 101 130 162 71 146 173 91 118 153 63 100 138 67 159 188 104 192 221 129 207 234 135 202 229 123 219 243 145 222 246 149 224 245 156 161 184 110 83 109 86 93 120 52 98 127 58 112 141 70 150 175 103 156 182 103 180 201 125 155 177 111 121 148 97 167 191 115 165 190 112 145 174 88 152 179 96 155 180 101 139 169 74 140 171 85 163 194 112 
62 76 42 73 83 51 73 77 48 83 83 59 82 81 56 109 106 77 153 151 117 165 167 121 168 179 126 162 179 122 161 179 123 140 156 104 70 78 48 67 68 40 65 65 34 64 63 37 73 71 43 99 98 69 93 91 52 102 101 60 142 147 98 186 191 139 165 172 116 147 154 101 139 141 98 87 87 50 72 72 44 60 60 30 69 70 41 68 69 40 71 68 45 73 70 49 74 72 52 64 63 41 56 56 30 59 63 35 55 60 29 59 66 31 70 80 40 65 80 35 69 85 52 84 101 56 59 83 49 59 81 44 64 84 37 63 83 34 67 87 35 81 98 50 84 100 50 60 84 62 83 105 54 80 103 49 91 115 56 164 177 128 113 133 81 85 112 61 81 110 47 98 127 56 104 133 58 132 158 78 191 211 136 213 230 149 217 233 155 176 199 117 168 193 113 144 171 85 139 167 71 204 221 151 231 248 165 182 204 124 130 160 79 128 159 66 160 185 109 153 182 96 108 144 81 174 200 121 197 224 128 215 240 143 209 235 131 224 247 149 228 251 155 230 250 163 178 199 132 104 130 63 108 136 68 98 127 55 112 141 70 150 175 104 151 177 95 138 165 82 138 164 73 143 172 79 139 167 86 148 177 93 143 173 89 130 159 73 123 152 65 125 153 70 123 155 79 150 180 93 
74 91 53 101 113 81 82 87 58 87 87 65 89 89 66 90 89 60 108 106 74 129 132 98 144 153 115 150 160 120 151 161 122 104 112 66 52 53 59 53 52 29 59 58 36 59 59 36 60 58 33 67 65 41 67 64 38 86 82 53 108 106 71 116 114 71 109 105 63 115 110 77 97 91 58 74 70 43 76 73 52 62 58 34 59 55 28 69 66 43 77 75 55 84 80 64 72 69 50 57 55 35 52 53 29 51 54 29 45 50 18 55 62 30 75 83 48 75 86 50 58 74 36 68 89 45 76 98 47 81 100 53 72 94 42 74 92 44 73 89 44 56 72 41 69 87 57 129 143 97 108 125 70 76 99 43 98 118 68 143 157 109 92 114 67 79 107 58 102 129 55 124 147 69 158 178 103 188 207 128 209 227 149 199 218 125 222 236 155 220 236 159 170 193 118 128 157 77 157 181 97 212 229 151 220 237 153 156 181 99 116 147 71 121 153 77 178 201 126 182 207 126 113 148 91 178 205 122 199 225 127 223 248 152 218 241 141 222 245 148 205 228 132 223 243 161 167 187 117 116 142 72 118 143 80 100 131 77 92 126 43 115 145 67 145 172 91 142 169 85 138 166 77 149 176 88 140 167 85 131 164 68 138 170 77 146 178 85 147 178 89 130 156 90 123 152 70 155 183 97 
93 109 71 106 115 85 81 85 60 88 87 69 83 82 62 69 67 40 61 59 44 71 72 44 79 85 60 90 95 64 104 107 76 69 70 53 48 48 27 50 49 27 54 53 34 56 55 38 50 48 25 50 48 25 49 47 22 54 51 27 60 55 33 61 56 45 89 85 65 102 99 82 84 80 59 65 61 39 69 65 47 61 57 37 56 52 31 71 66 46 84 81 64 85 82 65 71 67 47 53 51 28 44 44 18 40 46 22 50 61 36 65 75 39 67 77 38 64 76 43 56 71 36 89 108 63 93 118 64 94 120 64 98 122 68 77 100 50 59 74 42 63 79 45 153 165 118 172 182 133 98 115 69 68 92 32 78 102 44 94 113 65 89 113 58 112 137 74 129 150 82 111 134 61 190 207 136 217 232 159 185 206 127 183 204 119 221 234 162 194 210 136 119 147 101 116 146 68 176 197 119 214 232 153 203 222 143 135 164 92 125 157 63 149 176 97 197 217 143 172 197 122 129 159 111 200 224 141 203 229 133 224 248 152 224 247 149 225 245 153 158 182 111 180 199 132 143 166 92 103 131 53 124 149 89 130 158 94 111 144 67 123 155 91 159 187 110 147 176 96 159 187 103 160 188 104 150 180 94 143 173 87 145 178 80 172 199 115 158 183 106 144 168 96 141 168 77 160 183 104 
93 101 74 73 79 49 79 80 58 87 86 69 75 73 50 58 56 36 57 55 35 59 58 33 58 55 22 66 64 35 74 71 52 56 54 31 48 47 25 50 49 31 48 46 25 55 53 36 52 50 31 45 43 19 44 41 18 50 47 26 59 55 34 62 57 36 82 79 64 83 80 65 72 68 51 59 55 33 63 58 39 60 56 37 62 56 38 81 76 60 92 89 74 88 85 68 76 73 54 56 55 32 43 47 21 70 81 53 111 123 92 106 118 81 71 87 39 52 71 43 50 73 45 96 121 68 116 144 88 126 154 96 136 160 106 105 127 77 52 69 53 110 124 78 186 196 146 126 140 87 66 91 53 63 89 31 75 99 31 89 113 46 89 114 48 132 150 89 134 151 96 133 154 82 209 222 157 193 209 139 123 148 102 161 180 101 191 206 142 138 161 116 101 129 64 131 157 76 194 212 142 215 231 159 143 168 106 104 135 87 149 174 85 186 206 131 208 228 153 134 161 96 141 166 106 209 231 149 210 232 139 218 241 149 223 244 150 225 243 157 135 157 112 138 158 92 117 141 68 98 128 55 103 132 63 121 149 85 144 171 103 120 156 87 124 156 97 157 185 105 178 204 122 167 197 112 152 182 92 147 177 89 147 174 87 166 190 115 141 169 92 148 174 87 173 196 116 143 167 93 
60 63 40 56 56 33 77 77 59 81 79 62 78 76 55 102 100 83 73 71 45 65 63 39 62 58 33 69 66 45 62 59 38 52 49 28 52 49 31 53 50 34 47 45 24 59 57 42 62 60 46 47 46 29 97 94 78 84 81 65 69 66 47 84 82 65 73 71 53 67 62 44 67 63 44 56 53 29 66 62 45 58 53 33 68 63 44 91 88 72 98 95 81 94 91 75 83 79 60 68 68 44 58 64 32 78 89 57 96 110 73 99 113 74 83 98 52 80 99 53 107 127 79 124 147 95 133 160 103 141 168 108 147 170 115 106 127 77 51 71 52 140 151 104 171 181 128 93 111 73 63 87 37 77 100 44 86 108 47 97 117 55 87 109 47 97 117 58 103 123 68 161 177 118 205 217 153 149 165 106 115 138 79 132 152 78 118 139 81 97 121 76 112 135 65 168 187 115 208 222 157 155 174 121 95 120 75 143 165 94 191 211 137 210 226 149 184 204 131 93 116 91 134 159 98 210 231 152 217 237 150 187 210 124 197 215 141 224 239 163 132 149 105 112 133 70 87 114 63 94 123 54 92 124 51 118 146 85 140 168 100 131 164 92 162 190 111 182 211 124 184 212 127 171 201 111 159 189 94 151 181 89 169 194 111 172 195 111 167 191 101 188 209 131 165 185 118 131 155 85 
45 44 26 59 58 42 76 76 61 66 64 45 74 71 53 120 118 100 105 104 78 84 82 57 92 90 72 84 81 65 62 58 38 57 53 33 61 57 40 55 52 35 47 44 25 49 47 28 61 59 44 58 55 40 103 101 79 97 94 68 70 67 38 69 66 44 60 55 34 53 49 26 66 63 44 57 53 31 63 59 39 64 59 40 74 69 51 91 87 71 95 92 76 95 92 76 83 81 60 69 71 42 60 69 34 58 73 31 61 78 36 68 85 43 91 105 65 113 127 86 136 154 106 125 147 94 115 141 83 124 149 92 134 154 103 87 109 64 56 77 47 135 146 104 148 159 107 79 96 60 62 85 44 82 103 50 98 116 64 96 114 59 93 112 54 77 99 41 89 111 58 153 170 111 175 189 129 138 153 87 143 160 100 120 139 74 88 110 50 84 108 46 141 160 102 199 210 153 153 167 118 92 110 86 87 106 41 166 182 101 207 225 149 219 233 157 139 158 108 73 87 98 128 145 91 212 228 157 225 237 162 149 166 102 148 159 100 191 202 142 108 123 83 73 95 63 82 110 56 100 128 61 99 129 59 98 133 59 122 155 81 165 196 122 190 217 136 189 216 129 180 209 120 175 204 113 184 210 125 182 207 125 182 205 127 180 202 122 176 197 125 149 170 106 128 152 81 124 151 61 
